P3
# CREATOR: GIMP PNM Filter Version 1.1
405 188
255
255
224
168
255
224
168
255
224
168
255
224
168
255
224
168
255
224
168
255
224
168
255
224
168
255
224
168
255
224
168
255
224
168
255
224
168
255
224
168
255
224
168
255
224
168
255
224
168
255
224
168
255
224
168
255
224
168
255
224
168
255
224
168
255
224
168
255
224
168
255
224
168
255
224
168
255
224
168
255
224
168
255
224
168
255
224
168
255
164
64
255
164
64
255
164
64
255
164
64
255
224
168
255
224
168
255
224
168
255
224
168
255
224
168
255
224
168
255
224
168
255
224
168
255
224
168
255
224
168
255
224
168
255
224
168
255
224
168
255
224
168
255
224
168
255
224
168
255
224
168
255
224
168
255
224
168
255
224
168
255
224
168
255
224
168
255
224
168
255
224
168
255
224
168
255
224
168
255
224
168
255
224
168
255
224
168
255
224
168
255
224
168
248
56
0
248
56
0
248
56
0
248
56
0
248
56
0
248
56
0
255
224
168
255
224
168
255
224
168
255
224
168
255
224
168
255
224
168
255
224
168
255
224
168
255
224
168
255
224
168
255
224
168
255
224
168
255
224
168
255
224
168
255
224
168
255
224
168
255
224
168
255
224
168
255
224
168
255
224
168
255
224
168
255
224
168
255
224
168
255
224
168
248
56
0
248
56
0
248
56
0
248
56
0
248
56
0
248
56
0
255
224
168
255
224
168
255
224
168
255
224
168
255
224
168
255
224
168
255
224
168
255
224
168
255
224
168
255
224
168
255
224
168
255
224
168
255
224
168
255
224
168
255
224
168
255
224
168
255
224
168
255
224
168
255
224
168
255
224
168
255
224
168
255
224
168
255
224
168
255
224
168
255
224
168
248
56
0
248
56
0
248
56
0
248
56
0
248
56
0
248
56
0
255
224
168
255
224
168
255
224
168
255
224
168
255
224
168
255
224
168
255
224
168
255
224
168
255
224
168
255
224
168
255
224
168
255
224
168
255
224
168
255
224
168
255
224
168
255
224
168
255
224
168
255
224
168
255
224
168
255
224
168
255
224
168
255
224
168
255
224
168
248
56
0
248
56
0
248
56
0
248
56
0
248
56
0
248
56
0
255
224
168
255
224
168
255
224
168
255
224
168
255
224
168
255
224
168
255
224
168
255
224
168
255
224
168
255
224
168
255
224
168
255
224
168
255
224
168
255
224
168
255
224
168
255
224
168
255
224
168
255
224
168
255
224
168
255
224
168
255
224
168
255
224
168
255
224
168
255
224
168
255
224
168
248
56
0
248
56
0
248
56
0
248
56
0
248
56
0
248
56
0
255
224
168
255
224
168
255
224
168
255
224
168
255
224
168
255
224
168
255
224
168
255
224
168
255
224
168
255
224
168
255
224
168
255
224
168
255
224
168
255
224
168
255
224
168
255
224
168
255
224
168
255
224
168
255
224
168
255
224
168
255
224
168
255
224
168
255
224
168
248
56
0
248
56
0
248
56
0
248
56
0
248
56
0
248
56
0
255
224
168
255
224
168
255
224
168
255
224
168
255
224
168
255
224
168
255
224
168
255
224
168
255
224
168
255
224
168
255
224
168
255
224
168
255
224
168
255
224
168
255
224
168
255
224
168
255
224
168
255
224
168
255
224
168
255
224
168
255
224
168
255
224
168
255
224
168
255
224
168
255
224
168
248
56
0
248
56
0
248
56
0
248
56
0
248
56
0
248
56
0
255
224
168
255
224
168
255
224
168
255
224
168
255
224
168
255
224
168
255
224
168
255
224
168
255
224
168
255
224
168
255
224
168
255
224
168
255
224
168
255
224
168
255
224
168
255
224
168
255
224
168
255
224
168
255
224
168
255
224
168
255
224
168
255
224
168
255
224
168
248
56
0
248
56
0
248
56
0
248
56
0
248
56
0
248
56
0
255
224
168
255
224
168
255
224
168
255
224
168
255
224
168
255
224
168
255
224
168
255
224
168
255
224
168
255
224
168
255
224
168
255
224
168
255
224
168
255
224
168
255
224
168
255
224
168
255
224
168
255
224
168
255
224
168
255
224
168
255
224
168
255
224
168
255
224
168
255
224
168
255
224
168
248
56
0
248
56
0
248
56
0
248
56
0
248
56
0
248
56
0
255
224
168
255
224
168
255
224
168
255
224
168
255
224
168
255
224
168
255
224
168
255
224
168
255
224
168
255
224
168
255
224
168
255
224
168
255
224
168
255
224
168
255
224
168
255
224
168
255
224
168
255
224
168
255
224
168
255
224
168
255
224
168
255
224
168
255
224
168
255
224
168
248
56
0
248
56
0
248
56
0
248
56
0
248
56
0
248
56
0
255
224
168
255
224
168
255
224
168
255
224
168
255
224
168
255
224
168
255
224
168
255
224
168
255
224
168
255
224
168
255
224
168
255
224
168
255
224
168
255
224
168
255
224
168
255
224
168
255
224
168
255
224
168
255
224
168
255
224
168
255
224
168
255
224
168
255
224
168
255
224
168
255
224
168
255
224
168
255
224
168
255
224
168
255
224
168
255
224
168
255
224
168
255
164
64
255
164
64
255
164
64
255
164
64
255
224
168
255
224
168
255
224
168
255
224
168
255
224
168
255
224
168
255
224
168
255
224
168
255
224
168
255
224
168
255
224
168
255
224
168
255
224
168
255
224
168
255
224
168
255
224
168
255
224
168
255
224
168
255
224
168
255
224
168
255
224
168
255
224
168
255
224
168
255
224
168
255
224
168
255
224
168
255
224
168
255
224
168
255
224
168
255
224
168
255
224
168
255
224
168
255
224
168
255
224
168
255
224
168
255
224
168
255
224
168
255
224
168
255
224
168
255
224
168
255
224
168
255
224
168
255
224
168
255
224
168
255
224
168
255
224
168
255
224
168
255
224
168
255
224
168
255
224
168
255
224
168
255
224
168
255
224
168
255
224
168
255
224
168
255
224
168
255
224
168
255
224
168
255
164
64
255
164
64
255
164
64
255
164
64
255
224
168
248
56
0
248
56
0
248
56
0
248
56
0
248
56
0
248
56
0
255
224
168
255
224
168
255
224
168
255
224
168
255
224
168
255
224
168
255
224
168
255
224
168
255
224
168
255
224
168
255
224
168
255
224
168
255
224
168
255
224
168
255
224
168
255
224
168
255
224
168
255
224
168
255
224
168
255
224
168
255
224
168
255
224
168
248
56
0
248
56
0
248
56
0
248
56
0
248
56
0
248
56
0
248
56
0
248
56
0
172
124
0
172
124
0
255
224
168
255
224
168
255
224
168
255
224
168
255
224
168
255
224
168
255
224
168
255
224
168
255
224
168
255
224
168
255
224
168
255
224
168
255
224
168
255
224
168
255
224
168
255
224
168
255
224
168
255
224
168
255
224
168
248
56
0
248
56
0
248
56
0
248
56
0
248
56
0
248
56
0
248
56
0
248
56
0
248
56
0
248
56
0
255
224
168
255
224
168
255
224
168
255
224
168
255
224
168
255
224
168
255
224
168
255
224
168
255
224
168
255
224
168
255
224
168
255
224
168
255
224
168
255
224
168
255
224
168
255
224
168
255
224
168
255
224
168
255
224
168
255
224
168
255
224
168
248
56
0
248
56
0
248
56
0
248
56
0
248
56
0
248
56
0
248
56
0
248
56
0
248
56
0
248
56
0
255
224
168
255
224
168
255
224
168
255
224
168
255
224
168
255
224
168
255
224
168
255
224
168
255
224
168
255
224
168
255
224
168
255
224
168
255
224
168
255
224
168
255
224
168
255
224
168
255
224
168
255
224
168
255
224
168
248
56
0
248
56
0
248
56
0
248
56
0
248
56
0
248
56
0
248
56
0
248
56
0
248
56
0
248
56
0
255
224
168
255
224
168
255
224
168
255
224
168
255
224
168
255
224
168
255
224
168
255
224
168
255
224
168
255
224
168
255
224
168
255
224
168
255
224
168
255
224
168
255
224
168
255
224
168
255
224
168
255
224
168
255
224
168
255
224
168
255
224
168
248
56
0
248
56
0
248
56
0
248
56
0
248
56
0
248
56
0
248
56
0
248
56
0
248
56
0
248
56
0
255
224
168
255
224
168
255
224
168
255
224
168
255
224
168
255
224
168
255
224
168
255
224
168
255
224
168
255
224
168
255
224
168
255
224
168
255
224
168
255
224
168
255
224
168
255
224
168
255
224
168
255
224
168
255
224
168
255
224
168
255
224
168
248
56
0
248
56
0
248
56
0
248
56
0
248
56
0
248
56
0
248
56
0
248
56
0
248
56
0
248
56
0
255
224
168
255
224
168
255
224
168
255
224
168
255
224
168
255
224
168
255
224
168
255
224
168
255
224
168
255
224
168
255
224
168
255
224
168
255
224
168
255
224
168
255
224
168
255
224
168
255
224
168
255
224
168
255
224
168
255
224
168
255
224
168
248
56
0
248
56
0
248
56
0
248
56
0
248
56
0
248
56
0
248
56
0
248
56
0
248
56
0
248
56
0
255
224
168
255
224
168
255
224
168
255
224
168
255
224
168
255
224
168
255
224
168
255
224
168
255
224
168
255
224
168
255
224
168
255
224
168
255
224
168
255
224
168
255
224
168
255
224
168
255
224
168
255
224
168
255
224
168
248
56
0
248
56
0
248
56
0
248
56
0
248
56
0
248
56
0
248
56
0
248
56
0
248
56
0
248
56
0
255
224
168
255
224
168
255
224
168
255
224
168
255
224
168
255
224
168
255
224
168
255
224
168
255
224
168
255
224
168
255
224
168
255
224
168
255
224
168
255
224
168
255
224
168
255
224
168
255
224
168
255
224
168
255
224
168
255
224
168
255
224
168
248
56
0
248
56
0
248
56
0
248
56
0
248
56
0
248
56
0
248
56
0
248
56
0
248
56
0
248
56
0
255
224
168
255
224
168
255
224
168
255
224
168
255
224
168
255
224
168
255
224
168
255
224
168
255
224
168
255
224
168
255
224
168
255
224
168
255
224
168
255
224
168
255
224
168
255
224
168
255
224
168
255
224
168
255
224
168
172
124
0
248
56
0
248
56
0
248
56
0
248
56
0
248
56
0
248
56
0
248
56
0
248
56
0
248
56
0
255
224
168
255
224
168
255
224
168
255
224
168
255
224
168
255
224
168
255
224
168
255
224
168
255
224
168
255
224
168
255
224
168
255
224
168
255
224
168
255
224
168
255
224
168
255
224
168
255
224
168
255
224
168
255
224
168
255
224
168
255
224
168
255
224
168
248
56
0
248
56
0
248
56
0
248
56
0
248
56
0
248
56
0
255
224
168
255
164
64
255
164
64
255
164
64
255
164
64
255
224
168
255
224
168
255
224
168
255
224
168
255
224
168
255
224
168
255
224
168
255
224
168
255
224
168
255
224
168
255
224
168
255
224
168
255
224
168
255
224
168
255
224
168
255
224
168
255
224
168
255
224
168
255
224
168
255
224
168
255
224
168
255
224
168
255
224
168
255
224
168
255
224
168
255
224
168
255
224
168
255
224
168
255
224
168
255
224
168
255
224
168
255
224
168
255
224
168
255
224
168
255
224
168
255
224
168
255
224
168
255
224
168
255
224
168
255
224
168
255
224
168
255
224
168
255
224
168
255
224
168
255
224
168
255
224
168
255
224
168
255
224
168
255
224
168
255
224
168
255
224
168
255
224
168
255
224
168
255
224
168
255
224
168
255
224
168
255
224
168
255
224
168
255
164
64
255
164
64
248
56
0
248
56
0
248
56
0
248
56
0
248
56
0
248
56
0
248
56
0
248
56
0
248
56
0
248
56
0
255
224
168
255
224
168
255
224
168
255
224
168
255
224
168
255
224
168
255
224
168
255
224
168
255
224
168
255
224
168
255
224
168
255
224
168
255
224
168
255
224
168
255
224
168
255
224
168
255
224
168
255
224
168
255
224
168
255
224
168
255
224
168
255
224
168
255
160
68
172
124
0
255
160
68
172
124
0
172
124
0
172
124
0
172
124
0
172
124
0
172
124
0
172
124
0
255
224
168
255
224
168
255
224
168
255
224
168
255
224
168
255
224
168
255
224
168
255
224
168
255
224
168
255
224
168
255
224
168
255
224
168
255
224
168
255
224
168
255
224
168
255
224
168
255
224
168
255
224
168
255
224
168
255
224
168
255
164
64
172
124
0
255
164
64
255
164
64
172
124
0
172
124
0
172
124
0
172
124
0
255
224
168
255
224
168
255
224
168
255
224
168
255
224
168
255
224
168
255
224
168
255
224
168
255
224
168
255
224
168
255
224
168
255
224
168
255
224
168
255
224
168
255
224
168
255
224
168
255
224
168
255
224
168
255
224
168
255
224
168
255
224
168
255
224
168
255
224
168
255
164
64
172
124
0
255
164
64
255
164
64
172
124
0
172
124
0
172
124
0
172
124
0
255
224
168
255
224
168
255
224
168
255
224
168
255
224
168
255
224
168
255
224
168
255
224
168
255
224
168
255
224
168
255
224
168
255
224
168
255
224
168
255
224
168
255
224
168
255
224
168
255
224
168
255
224
168
255
224
168
255
224
168
255
224
168
255
164
64
172
124
0
255
164
64
255
164
64
172
124
0
172
124
0
172
124
0
172
124
0
255
224
168
255
224
168
255
224
168
255
224
168
255
224
168
255
224
168
255
224
168
255
224
168
255
224
168
255
224
168
255
224
168
255
224
168
255
224
168
255
224
168
255
224
168
255
224
168
255
224
168
255
224
168
255
224
168
255
224
168
255
224
168
255
224
168
255
224
168
255
164
64
172
124
0
255
164
64
255
164
64
172
124
0
172
124
0
172
124
0
172
124
0
255
224
168
255
224
168
255
224
168
255
224
168
255
224
168
255
224
168
255
224
168
255
224
168
255
224
168
255
224
168
255
224
168
255
224
168
255
224
168
255
224
168
255
224
168
255
224
168
255
224
168
255
224
168
255
224
168
255
224
168
255
224
168
172
124
0
172
124
0
172
124
0
255
164
64
255
164
64
172
124
0
255
164
64
255
164
64
255
224
168
255
224
168
255
224
168
255
224
168
255
224
168
255
224
168
255
224
168
255
224
168
255
224
168
255
224
168
255
224
168
255
224
168
255
224
168
255
224
168
255
224
168
255
224
168
255
224
168
255
224
168
255
224
168
255
224
168
255
224
168
255
224
168
255
224
168
172
124
0
172
124
0
172
124
0
255
164
64
255
164
64
172
124
0
255
164
64
255
164
64
255
224
168
255
224
168
255
224
168
255
224
168
255
224
168
255
224
168
255
224
168
255
224
168
255
224
168
255
224
168
255
224
168
255
224
168
255
224
168
255
224
168
255
224
168
255
224
168
255
224
168
255
224
168
255
224
168
255
224
168
255
224
168
172
124
0
172
124
0
172
124
0
255
164
64
255
164
64
172
124
0
255
164
64
255
164
64
255
224
168
255
224
168
255
224
168
255
224
168
255
224
168
255
224
168
255
224
168
255
224
168
255
224
168
255
224
168
255
224
168
255
224
168
255
224
168
255
224
168
255
224
168
255
224
168
255
224
168
255
224
168
255
224
168
255
224
168
255
224
168
255
224
168
255
224
168
172
124
0
172
124
0
172
124
0
255
164
64
255
164
64
172
124
0
255
164
64
255
164
64
255
224
168
255
224
168
255
224
168
255
224
168
255
224
168
255
224
168
255
224
168
255
224
168
255
224
168
255
224
168
255
224
168
255
224
168
255
224
168
255
224
168
255
224
168
255
224
168
255
224
168
255
224
168
255
224
168
255
224
168
172
124
0
172
124
0
172
124
0
172
124
0
172
124
0
172
124
0
255
160
68
172
124
0
255
160
68
255
160
68
255
224
168
255
224
168
255
224
168
255
224
168
255
224
168
255
224
168
255
224
168
255
224
168
255
224
168
255
224
168
255
224
168
255
224
168
255
224
168
255
224
168
255
224
168
255
224
168
255
224
168
255
224
168
255
224
168
255
224
168
255
224
168
255
224
168
248
56
0
248
56
0
248
56
0
248
56
0
248
56
0
248
56
0
248
56
0
248
56
0
248
56
0
255
164
64
255
164
64
255
164
64
255
224
168
255
224
168
255
224
168
255
224
168
255
224
168
255
224
168
255
224
168
255
224
168
255
224
168
255
224
168
255
224
168
255
224
168
255
224
168
255
224
168
255
224
168
255
224
168
255
224
168
255
224
168
255
224
168
255
224
168
255
224
168
255
224
168
255
224
168
255
224
168
255
224
168
255
224
168
255
224
168
255
224
168
255
224
168
255
224
168
255
224
168
255
224
168
255
224
168
255
224
168
255
224
168
255
224
168
255
224
168
255
224
168
255
224
168
255
224
168
255
224
168
255
224
168
255
224
168
255
224
168
255
224
168
255
224
168
255
224
168
255
224
168
255
224
168
255
224
168
255
224
168
255
224
168
255
224
168
255
224
168
255
224
168
255
224
168
255
224
168
255
224
168
172
124
0
172
124
0
172
124
0
172
124
0
255
164
64
172
124
0
255
164
64
255
164
64
172
124
0
172
124
0
172
124
0
172
124
0
255
224
168
255
224
168
255
224
168
255
224
168
255
224
168
255
224
168
255
224
168
255
224
168
255
224
168
255
224
168
255
224
168
255
224
168
255
224
168
255
224
168
255
224
168
255
224
168
255
224
168
255
224
168
255
224
168
255
224
168
255
160
68
255
160
68
255
160
68
255
160
68
255
160
68
255
160
68
172
124
0
255
160
68
255
160
68
172
124
0
255
160
68
255
160
68
255
160
68
255
224
168
255
224
168
255
224
168
255
224
168
255
224
168
255
224
168
255
224
168
255
224
168
255
224
168
255
224
168
255
224
168
255
224
168
255
224
168
255
224
168
255
224
168
255
224
168
255
224
168
255
164
64
255
164
64
255
164
64
172
124
0
255
164
64
255
164
64
255
164
64
172
124
0
255
164
64
172
124
0
172
124
0
255
224
168
255
224
168
255
224
168
255
224
168
255
224
168
255
224
168
255
224
168
255
224
168
255
224
168
255
224
168
255
224
168
255
224
168
255
224
168
255
224
168
255
224
168
255
224
168
255
224
168
255
224
168
255
224
168
255
224
168
255
164
64
255
164
64
255
164
64
172
124
0
255
164
64
255
164
64
255
164
64
172
124
0
255
164
64
172
124
0
172
124
0
255
224
168
255
224
168
255
224
168
255
224
168
255
224
168
255
224
168
255
224
168
255
224
168
255
224
168
255
224
168
255
224
168
255
224
168
255
224
168
255
224
168
255
224
168
255
224
168
255
224
168
255
224
168
255
164
64
255
164
64
255
164
64
172
124
0
255
164
64
255
164
64
255
164
64
172
124
0
255
164
64
172
124
0
172
124
0
255
224
168
255
224
168
255
224
168
255
224
168
255
224
168
255
224
168
255
224
168
255
224
168
255
224
168
255
224
168
255
224
168
255
224
168
255
224
168
255
224
168
255
224
168
255
224
168
255
224
168
255
224
168
255
224
168
255
224
168
255
164
64
255
164
64
255
164
64
172
124
0
255
164
64
255
164
64
255
164
64
172
124
0
255
164
64
172
124
0
172
124
0
255
224
168
255
224
168
255
224
168
255
224
168
255
224
168
255
224
168
255
224
168
255
224
168
255
224
168
255
224
168
255
224
168
255
224
168
255
224
168
255
224
168
255
224
168
255
224
168
255
224
168
255
224
168
255
224
168
172
124
0
255
164
64
172
124
0
255
164
64
255
164
64
255
164
64
172
124
0
255
164
64
255
164
64
255
164
64
255
164
64
255
224
168
255
224
168
255
224
168
255
224
168
255
224
168
255
224
168
255
224
168
255
224
168
255
224
168
255
224
168
255
224
168
255
224
168
255
224
168
255
224
168
255
224
168
255
224
168
255
224
168
255
224
168
255
224
168
255
224
168
172
124
0
255
164
64
172
124
0
255
164
64
255
164
64
255
164
64
172
124
0
255
164
64
255
164
64
255
164
64
255
164
64
255
224
168
255
224
168
255
224
168
255
224
168
255
224
168
255
224
168
255
224
168
255
224
168
255
224
168
255
224
168
255
224
168
255
224
168
255
224
168
255
224
168
255
224
168
255
224
168
255
224
168
255
224
168
172
124
0
255
164
64
172
124
0
255
164
64
255
164
64
255
164
64
172
124
0
255
164
64
255
164
64
255
164
64
255
164
64
255
224
168
255
224
168
255
224
168
255
224
168
255
224
168
255
224
168
255
224
168
255
224
168
255
224
168
255
224
168
255
224
168
255
224
168
255
224
168
255
224
168
255
224
168
255
224
168
255
224
168
255
224
168
255
224
168
255
224
168
172
124
0
255
164
64
172
124
0
255
164
64
255
164
64
255
164
64
172
124
0
255
164
64
255
164
64
255
164
64
255
164
64
255
224
168
255
224
168
255
224
168
255
224
168
255
224
168
255
224
168
255
224
168
255
224
168
255
224
168
255
224
168
255
224
168
255
224
168
255
224
168
255
224
168
255
224
168
255
224
168
255
224
168
255
160
68
255
160
68
172
124
0
255
160
68
255
160
68
172
124
0
255
160
68
255
160
68
255
160
68
255
160
68
255
160
68
255
160
68
255
160
68
255
224
168
255
224
168
255
224
168
255
224
168
255
224
168
255
224
168
255
224
168
255
224
168
255
224
168
255
224
168
255
224
168
255
224
168
255
224
168
255
224
168
255
224
168
255
224
168
255
224
168
255
224
168
255
224
168
255
224
168
172
124
0
172
124
0
172
124
0
255
164
64
255
164
64
172
124
0
255
164
64
255
164
64
172
124
0
172
124
0
172
124
0
172
124
0
255
224
168
255
224
168
255
224
168
255
224
168
255
224
168
255
224
168
255
224
168
255
224
168
255
224
168
255
224
168
255
224
168
255
224
168
255
224
168
255
224
168
255
224
168
255
224
168
255
224
168
255
224
168
255
224
168
255
224
168
255
224
168
255
224
168
255
224
168
255
224
168
255
224
168
255
224
168
255
224
168
255
224
168
255
224
168
255
224
168
255
224
168
255
224
168
255
224
168
255
224
168
255
224
168
255
224
168
255
224
168
255
224
168
255
224
168
255
224
168
255
224
168
255
224
168
255
224
168
255
224
168
255
224
168
255
224
168
255
224
168
255
224
168
255
224
168
255
224
168
255
224
168
255
224
168
255
224
168
255
224
168
255
224
168
255
224
168
255
224
168
255
224
168
172
124
0
172
124
0
172
124
0
255
164
64
255
164
64
172
124
0
255
164
64
255
164
64
255
164
64
172
124
0
255
164
64
172
124
0
172
124
0
255
224
168
255
224
168
255
224
168
255
224
168
255
224
168
255
224
168
255
224
168
255
224
168
255
224
168
255
224
168
255
224
168
255
224
168
255
224
168
255
224
168
255
224
168
255
224
168
255
224
168
255
224
168
255
160
68
255
160
68
172
124
0
172
124
0
255
160
68
255
160
68
172
124
0
172
124
0
255
160
68
255
160
68
172
124
0
255
160
68
255
160
68
255
160
68
255
224
168
255
224
168
255
224
168
255
224
168
255
224
168
255
224
168
255
224
168
255
224
168
255
224
168
255
224
168
255
224
168
255
224
168
255
224
168
255
224
168
255
224
168
255
224
168
255
164
64
255
164
64
255
164
64
172
124
0
255
164
64
255
164
64
255
164
64
172
124
0
172
124
0
255
164
64
172
124
0
172
124
0
255
224
168
255
224
168
255
224
168
255
224
168
255
224
168
255
224
168
255
224
168
255
224
168
255
224
168
255
224
168
255
224
168
255
224
168
255
224
168
255
224
168
255
224
168
255
224
168
255
224
168
255
224
168
255
224
168
255
164
64
255
164
64
255
164
64
172
124
0
255
164
64
255
164
64
255
164
64
172
124
0
172
124
0
255
164
64
172
124
0
172
124
0
255
224
168
255
224
168
255
224
168
255
224
168
255
224
168
255
224
168
255
224
168
255
224
168
255
224
168
255
224
168
255
224
168
255
224
168
255
224
168
255
224
168
255
224
168
255
224
168
255
224
168
255
164
64
255
164
64
255
164
64
172
124
0
255
164
64
255
164
64
255
164
64
172
124
0
172
124
0
255
164
64
172
124
0
172
124
0
255
224
168
255
224
168
255
224
168
255
224
168
255
224
168
255
224
168
255
224
168
255
224
168
255
224
168
255
224
168
255
224
168
255
224
168
255
224
168
255
224
168
255
224
168
255
224
168
255
224
168
255
224
168
255
224
168
255
164
64
255
164
64
255
164
64
172
124
0
255
164
64
255
164
64
255
164
64
172
124
0
172
124
0
255
164
64
172
124
0
172
124
0
255
224
168
255
224
168
255
224
168
255
224
168
255
224
168
255
224
168
255
224
168
255
224
168
255
224
168
255
224
168
255
224
168
255
224
168
255
224
168
255
224
168
255
224
168
255
224
168
255
224
168
255
224
168
255
224
168
172
124
0
255
164
64
172
124
0
172
124
0
255
164
64
255
164
64
255
164
64
172
124
0
255
164
64
255
164
64
255
164
64
255
164
64
255
224
168
255
224
168
255
224
168
255
224
168
255
224
168
255
224
168
255
224
168
255
224
168
255
224
168
255
224
168
255
224
168
255
224
168
255
224
168
255
224
168
255
224
168
255
224
168
255
224
168
255
224
168
255
224
168
172
124
0
255
164
64
172
124
0
172
124
0
255
164
64
255
164
64
255
164
64
172
124
0
255
164
64
255
164
64
255
164
64
255
164
64
255
224
168
255
224
168
255
224
168
255
224
168
255
224
168
255
224
168
255
224
168
255
224
168
255
224
168
255
224
168
255
224
168
255
224
168
255
224
168
255
224
168
255
224
168
255
224
168
255
224
168
172
124
0
255
164
64
172
124
0
172
124
0
255
164
64
255
164
64
255
164
64
172
124
0
255
164
64
255
164
64
255
164
64
255
164
64
255
224
168
255
224
168
255
224
168
255
224
168
255
224
168
255
224
168
255
224
168
255
224
168
255
224
168
255
224
168
255
224
168
255
224
168
255
224
168
255
224
168
255
224
168
255
224
168
255
224
168
255
224
168
255
224
168
172
124
0
255
164
64
172
124
0
172
124
0
255
164
64
255
164
64
255
164
64
172
124
0
255
164
64
255
164
64
255
164
64
255
164
64
255
224
168
255
224
168
255
224
168
255
224
168
255
224
168
255
224
168
255
224
168
255
224
168
255
224
168
255
224
168
255
224
168
255
224
168
255
224
168
255
224
168
255
224
168
255
224
168
255
160
68
255
160
68
172
124
0
255
160
68
255
160
68
172
124
0
172
124
0
255
160
68
255
160
68
172
124
0
172
124
0
255
160
68
255
160
68
255
160
68
255
224
168
255
224
168
255
224
168
255
224
168
255
224
168
255
224
168
255
224
168
255
224
168
255
224
168
255
224
168
255
224
168
255
224
168
255
224
168
255
224
168
255
224
168
255
224
168
255
224
168
255
224
168
172
124
0
255
164
64
172
124
0
255
164
64
255
164
64
255
164
64
172
124
0
255
164
64
255
164
64
172
124
0
172
124
0
172
124
0
172
124
0
255
224
168
255
224
168
255
224
168
255
224
168
255
224
168
255
224
168
255
224
168
255
224
168
255
224
168
255
224
168
255
224
168
255
224
168
255
224
168
255
224
168
255
224
168
255
224
168
255
224
168
255
224
168
255
224
168
255
224
168
255
224
168
255
224
168
255
224
168
255
224
168
255
224
168
255
224
168
255
224
168
255
224
168
255
224
168
255
224
168
255
224
168
255
224
168
255
224
168
255
224
168
255
224
168
255
224
168
255
224
168
255
224
168
255
224
168
255
224
168
255
224
168
255
224
168
255
224
168
255
224
168
255
224
168
255
224
168
255
224
168
255
224
168
255
224
168
255
224
168
255
224
168
255
224
168
255
224
168
255
224
168
255
224
168
255
224
168
255
224
168
255
224
168
172
124
0
255
164
64
255
164
64
255
164
64
172
124
0
255
164
64
255
164
64
255
164
64
172
124
0
172
124
0
255
164
64
172
124
0
172
124
0
255
224
168
255
224
168
255
224
168
255
224
168
255
224
168
255
224
168
255
224
168
255
224
168
255
224
168
255
224
168
255
224
168
255
224
168
255
224
168
255
224
168
255
224
168
255
224
168
255
224
168
255
224
168
255
224
168
172
124
0
172
124
0
255
160
68
255
160
68
255
160
68
255
160
68
255
160
68
255
160
68
172
124
0
255
160
68
255
160
68
255
160
68
255
224
168
255
224
168
255
224
168
255
224
168
255
224
168
255
224
168
255
224
168
255
224
168
255
224
168
255
224
168
255
224
168
255
224
168
255
224
168
255
224
168
255
224
168
255
224
168
255
224
168
255
224
168
172
124
0
172
124
0
172
124
0
172
124
0
255
164
64
255
164
64
255
164
64
255
164
64
172
124
0
172
124
0
172
124
0
255
224
168
255
224
168
255
224
168
255
224
168
255
224
168
255
224
168
255
224
168
255
224
168
255
224
168
255
224
168
255
224
168
255
224
168
255
224
168
255
224
168
255
224
168
255
224
168
255
224
168
255
224
168
255
224
168
255
224
168
172
124
0
172
124
0
172
124
0
172
124
0
255
164
64
255
164
64
255
164
64
255
164
64
172
124
0
172
124
0
172
124
0
255
224
168
255
224
168
255
224
168
255
224
168
255
224
168
255
224
168
255
224
168
255
224
168
255
224
168
255
224
168
255
224
168
255
224
168
255
224
168
255
224
168
255
224
168
255
224
168
255
224
168
255
224
168
172
124
0
172
124
0
172
124
0
172
124
0
255
164
64
255
164
64
255
164
64
255
164
64
172
124
0
172
124
0
172
124
0
255
224
168
255
224
168
255
224
168
255
224
168
255
224
168
255
224
168
255
224
168
255
224
168
255
224
168
255
224
168
255
224
168
255
224
168
255
224
168
255
224
168
255
224
168
255
224
168
255
224
168
255
224
168
255
224
168
255
224
168
172
124
0
172
124
0
172
124
0
172
124
0
255
164
64
255
164
64
255
164
64
255
164
64
172
124
0
172
124
0
172
124
0
255
224
168
255
224
168
255
224
168
255
224
168
255
224
168
255
224
168
255
224
168
255
224
168
255
224
168
255
224
168
255
224
168
255
224
168
255
224
168
255
224
168
255
224
168
255
224
168
255
224
168
255
224
168
255
224
168
172
124
0
172
124
0
255
164
64
255
164
64
255
164
64
255
164
64
172
124
0
172
124
0
172
124
0
172
124
0
172
124
0
255
224
168
255
224
168
255
224
168
255
224
168
255
224
168
255
224
168
255
224
168
255
224
168
255
224
168
255
224
168
255
224
168
255
224
168
255
224
168
255
224
168
255
224
168
255
224
168
255
224
168
255
224
168
255
224
168
255
224
168
172
124
0
172
124
0
255
164
64
255
164
64
255
164
64
255
164
64
172
124
0
172
124
0
172
124
0
172
124
0
172
124
0
255
224
168
255
224
168
255
224
168
255
224
168
255
224
168
255
224
168
255
224
168
255
224
168
255
224
168
255
224
168
255
224
168
255
224
168
255
224
168
255
224
168
255
224
168
255
224
168
255
224
168
255
224
168
172
124
0
172
124
0
255
164
64
255
164
64
255
164
64
255
164
64
172
124
0
172
124
0
172
124
0
172
124
0
172
124
0
255
224
168
255
224
168
255
224
168
255
224
168
255
224
168
255
224
168
255
224
168
255
224
168
255
224
168
255
224
168
255
224
168
255
224
168
255
224
168
255
224
168
255
224
168
255
224
168
255
224
168
255
224
168
255
224
168
255
224
168
172
124
0
172
124
0
255
164
64
255
164
64
255
164
64
255
164
64
172
124
0
172
124
0
172
124
0
172
124
0
172
124
0
255
224
168
255
224
168
255
224
168
255
224
168
255
224
168
255
224
168
255
224
168
255
224
168
255
224
168
255
224
168
255
224
168
255
224
168
255
224
168
255
224
168
255
224
168
255
224
168
255
224
168
255
224
168
255
160
68
255
160
68
172
124
0
255
160
68
255
160
68
255
160
68
255
160
68
255
160
68
255
160
68
172
124
0
172
124
0
172
124
0
255
224
168
255
224
168
255
224
168
255
224
168
255
224
168
255
224
168
255
224
168
255
224
168
255
224
168
255
224
168
255
224
168
255
224
168
255
224
168
255
224
168
255
224
168
255
224
168
255
224
168
255
224
168
255
224
168
172
124
0
255
164
64
172
124
0
172
124
0
255
164
64
255
164
64
255
164
64
172
124
0
255
164
64
255
164
64
255
164
64
172
124
0
172
124
0
255
224
168
255
224
168
255
224
168
255
224
168
255
224
168
255
224
168
255
224
168
255
224
168
255
224
168
255
224
168
255
224
168
255
224
168
255
224
168
255
224
168
255
224
168
255
224
168
255
224
168
255
224
168
255
224
168
255
224
168
255
224
168
255
224
168
255
224
168
255
224
168
255
224
168
255
224
168
255
224
168
255
224
168
255
224
168
255
224
168
255
224
168
255
224
168
255
224
168
255
224
168
255
224
168
255
224
168
255
224
168
255
224
168
255
224
168
255
224
168
255
224
168
255
224
168
255
224
168
255
224
168
255
224
168
255
224
168
255
224
168
255
224
168
255
224
168
255
224
168
255
224
168
255
224
168
255
224
168
255
224
168
255
224
168
255
224
168
255
224
168
255
224
168
255
224
168
172
124
0
172
124
0
172
124
0
172
124
0
172
124
0
255
164
64
255
164
64
255
164
64
255
164
64
172
124
0
172
124
0
172
124
0
255
224
168
255
224
168
255
224
168
255
224
168
255
224
168
255
224
168
255
224
168
255
224
168
255
224
168
255
224
168
255
224
168
255
224
168
255
224
168
255
224
168
255
224
168
255
224
168
255
224
168
255
224
168
255
224
168
255
224
168
255
160
68
255
160
68
248
56
0
172
124
0
172
124
0
172
124
0
248
56
0
248
56
0
248
56
0
248
56
0
255
224
168
255
224
168
255
224
168
255
224
168
255
224
168
255
224
168
255
224
168
255
224
168
255
224
168
255
224
168
255
224
168
255
224
168
255
224
168
255
224
168
255
224
168
255
224
168
255
224
168
255
224
168
255
224
168
255
224
168
255
164
64
255
164
64
255
164
64
255
164
64
255
164
64
255
164
64
255
164
64
255
164
64
255
224
168
255
224
168
255
224
168
255
224
168
255
224
168
255
224
168
255
224
168
255
224
168
255
224
168
255
224
168
255
224
168
255
224
168
255
224
168
255
224
168
255
224
168
255
224
168
255
224
168
255
224
168
255
224
168
255
224
168
255
224
168
255
224
168
255
224
168
255
164
64
255
164
64
255
164
64
255
164
64
255
164
64
255
164
64
255
164
64
255
164
64
255
224
168
255
224
168
255
224
168
255
224
168
255
224
168
255
224
168
255
224
168
255
224
168
255
224
168
255
224
168
255
224
168
255
224
168
255
224
168
255
224
168
255
224
168
255
224
168
255
224
168
255
224
168
255
224
168
255
224
168
255
224
168
255
164
64
255
164
64
255
164
64
255
164
64
255
164
64
255
164
64
255
164
64
255
164
64
255
224
168
255
224
168
255
224
168
255
224
168
255
224
168
255
224
168
255
224
168
255
224
168
255
224
168
255
224
168
255
224
168
255
224
168
255
224
168
255
224
168
255
224
168
255
224
168
255
224
168
255
224
168
255
224
168
255
224
168
255
224
168
255
224
168
255
224
168
255
164
64
255
164
64
255
164
64
255
164
64
255
164
64
255
164
64
255
164
64
255
164
64
255
224
168
255
224
168
255
224
168
255
224
168
255
224
168
255
224
168
255
224
168
255
224
168
255
224
168
255
224
168
255
224
168
255
224
168
255
224
168
255
224
168
255
224
168
255
224
168
255
224
168
255
224
168
255
224
168
255
224
168
255
224
168
255
224
168
255
224
168
255
164
64
255
164
64
255
164
64
255
164
64
255
164
64
255
164
64
255
164
64
255
164
64
255
224
168
255
224
168
255
224
168
255
224
168
255
224
168
255
224
168
255
224
168
255
224
168
255
224
168
255
224
168
255
224
168
255
224
168
255
224
168
255
224
168
255
224
168
255
224
168
255
224
168
255
224
168
255
224
168
255
224
168
255
224
168
255
224
168
255
224
168
255
164
64
255
164
64
255
164
64
255
164
64
255
164
64
255
164
64
255
164
64
255
164
64
255
224
168
255
224
168
255
224
168
255
224
168
255
224
168
255
224
168
255
224
168
255
224
168
255
224
168
255
224
168
255
224
168
255
224
168
255
224
168
255
224
168
255
224
168
255
224
168
255
224
168
255
224
168
255
224
168
255
224
168
255
224
168
255
164
64
255
164
64
255
164
64
255
164
64
255
164
64
255
164
64
255
164
64
255
164
64
255
224
168
255
224
168
255
224
168
255
224
168
255
224
168
255
224
168
255
224
168
255
224
168
255
224
168
255
224
168
255
224
168
255
224
168
255
224
168
255
224
168
255
224
168
255
224
168
255
224
168
255
224
168
255
224
168
255
224
168
255
224
168
255
224
168
255
224
168
255
164
64
255
164
64
255
164
64
255
164
64
255
164
64
255
164
64
255
164
64
255
164
64
255
224
168
255
224
168
255
224
168
255
224
168
255
224
168
255
224
168
255
224
168
255
224
168
255
224
168
255
224
168
255
224
168
255
224
168
255
224
168
255
224
168
255
224
168
255
224
168
255
224
168
255
224
168
255
224
168
255
224
168
248
56
0
248
56
0
248
56
0
172
124
0
172
124
0
172
124
0
248
56
0
255
160
68
255
160
68
255
160
68
255
224
168
255
224
168
255
224
168
255
224
168
255
224
168
255
224
168
255
224
168
255
224
168
255
224
168
255
224
168
255
224
168
255
224
168
255
224
168
255
224
168
255
224
168
255
224
168
255
224
168
255
224
168
255
224
168
255
224
168
172
124
0
172
124
0
255
164
64
255
164
64
255
164
64
255
164
64
172
124
0
172
124
0
172
124
0
172
124
0
172
124
0
172
124
0
255
224
168
255
224
168
255
224
168
255
224
168
255
224
168
255
224
168
255
224
168
255
224
168
255
224
168
255
224
168
255
224
168
255
224
168
255
224
168
255
224
168
255
224
168
255
224
168
255
224
168
255
224
168
255
224
168
255
224
168
255
224
168
255
224
168
255
224
168
255
224
168
255
224
168
255
224
168
255
224
168
255
224
168
255
224
168
255
224
168
255
224
168
255
224
168
255
224
168
255
224
168
255
224
168
255
224
168
255
224
168
255
224
168
255
224
168
255
224
168
255
224
168
255
224
168
255
224
168
255
224
168
255
224
168
255
224
168
255
224
168
255
224
168
255
224
168
255
224
168
255
224
168
255
224
168
255
224
168
255
224
168
255
224
168
255
224
168
255
224
168
255
224
168
255
224
168
255
224
168
255
224
168
172
124
0
255
164
64
255
164
64
255
164
64
255
164
64
255
164
64
255
164
64
255
164
64
255
164
64
255
224
168
255
224
168
255
224
168
255
224
168
255
224
168
255
224
168
255
224
168
255
224
168
255
224
168
255
224
168
255
224
168
255
224
168
255
224
168
255
224
168
255
224
168
255
224
168
255
224
168
255
224
168
255
224
168
255
224
168
255
224
168
172
124
0
172
124
0
172
124
0
248
56
0
248
56
0
172
124
0
255
160
68
255
160
68
255
160
68
248
56
0
248
56
0
248
56
0
255
224
168
255
224
168
255
224
168
255
224
168
255
224
168
255
224
168
255
224
168
255
224
168
255
224
168
255
224
168
255
224
168
255
224
168
255
224
168
255
224
168
255
224
168
255
224
168
255
224
168
255
224
168
255
224
168
255
224
168
255
224
168
172
124
0
172
124
0
248
56
0
248
56
0
172
124
0
172
124
0
172
124
0
172
124
0
172
124
0
255
224
168
255
224
168
255
224
168
255
224
168
255
224
168
255
224
168
255
224
168
255
224
168
255
224
168
255
224
168
255
224
168
255
224
168
255
224
168
255
224
168
255
224
168
255
224
168
255
224
168
255
224
168
255
224
168
255
224
168
255
224
168
255
224
168
172
124
0
172
124
0
172
124
0
248
56
0
172
124
0
172
124
0
172
124
0
255
224
168
255
224
168
255
224
168
255
224
168
255
224
168
255
224
168
255
224
168
255
224
168
255
224
168
255
224
168
255
224
168
255
224
168
255
224
168
255
224
168
255
224
168
255
224
168
255
224
168
255
224
168
255
224
168
255
224
168
255
164
64
255
164
64
172
124
0
248
56
0
172
124
0
172
124
0
172
124
0
172
124
0
172
124
0
255
224
168
255
224
168
255
224
168
255
224
168
255
224
168
255
224
168
255
224
168
255
224
168
255
224
168
255
224
168
255
224
168
255
224
168
255
224
168
255
224
168
255
224
168
255
224
168
255
224
168
255
224
168
255
224
168
255
224
168
255
224
168
255
224
168
255
224
168
255
224
168
172
124
0
172
124
0
172
124
0
248
56
0
172
124
0
172
124
0
172
124
0
255
224
168
255
224
168
255
224
168
255
224
168
255
224
168
255
224
168
255
224
168
255
224
168
255
224
168
255
224
168
255
224
168
255
224
168
255
224
168
255
224
168
255
224
168
255
224
168
255
224
168
255
224
168
255
224
168
255
224
168
255
224
168
172
124
0
172
124
0
248
56
0
172
124
0
172
124
0
172
124
0
172
124
0
255
224
168
255
224
168
255
224
168
255
224
168
255
224
168
255
224
168
255
224
168
255
224
168
255
224
168
255
224
168
255
224
168
255
224
168
255
224
168
255
224
168
255
224
168
255
224
168
255
224
168
255
224
168
255
224
168
255
224
168
255
224
168
255
224
168
255
224
168
255
224
168
172
124
0
172
124
0
172
124
0
172
124
0
248
56
0
172
124
0
172
124
0
255
164
64
255
164
64
255
224
168
255
224
168
255
224
168
255
224
168
255
224
168
255
224
168
255
224
168
255
224
168
255
224
168
255
224
168
255
224
168
255
224
168
255
224
168
255
224
168
255
224
168
255
224
168
255
224
168
255
224
168
255
224
168
255
224
168
172
124
0
172
124
0
248
56
0
172
124
0
172
124
0
172
124
0
172
124
0
255
224
168
255
224
168
255
224
168
255
224
168
255
224
168
255
224
168
255
224
168
255
224
168
255
224
168
255
224
168
255
224
168
255
224
168
255
224
168
255
224
168
255
224
168
255
224
168
255
224
168
255
224
168
255
224
168
255
224
168
255
224
168
255
224
168
172
124
0
172
124
0
172
124
0
172
124
0
248
56
0
248
56
0
172
124
0
172
124
0
172
124
0
255
224
168
255
224
168
255
224
168
255
224
168
255
224
168
255
224
168
255
224
168
255
224
168
255
224
168
255
224
168
255
224
168
255
224
168
255
224
168
255
224
168
255
224
168
255
224
168
255
224
168
255
224
168
255
224
168
255
224
168
255
224
168
248
56
0
248
56
0
255
160
68
255
160
68
255
160
68
172
124
0
248
56
0
248
56
0
172
124
0
172
124
0
172
124
0
172
124
0
255
224
168
255
224
168
255
224
168
255
224
168
255
224
168
255
224
168
255
224
168
255
224
168
255
224
168
255
224
168
255
224
168
255
224
168
255
224
168
255
224
168
255
224
168
255
224
168
255
224
168
255
224
168
255
224
168
255
224
168
255
224
168
255
164
64
255
164
64
255
164
64
255
164
64
255
164
64
255
164
64
255
164
64
172
124
0
172
124
0
255
224
168
255
224
168
255
224
168
255
224
168
255
224
168
255
224
168
255
224
168
255
224
168
255
224
168
255
224
168
255
224
168
255
224
168
255
224
168
255
224
168
255
224
168
255
224
168
255
224
168
255
224
168
255
224
168
255
224
168
255
224
168
255
224
168
255
224
168
255
224
168
255
224
168
255
224
168
255
224
168
255
224
168
255
224
168
255
224
168
255
224
168
255
224
168
255
224
168
255
224
168
255
224
168
255
224
168
255
224
168
255
224
168
255
224
168
255
224
168
255
224
168
255
224
168
255
224
168
255
224
168
255
224
168
255
224
168
255
224
168
255
224
168
255
224
168
255
224
168
255
224
168
255
224
168
255
224
168
255
224
168
255
224
168
255
224
168
255
224
168
255
224
168
255
224
168
255
224
168
255
224
168
255
224
168
255
224
168
172
124
0
248
56
0
172
124
0
172
124
0
172
124
0
248
56
0
172
124
0
172
124
0
172
124
0
172
124
0
172
124
0
172
124
0
255
224
168
255
224
168
255
224
168
255
224
168
255
224
168
255
224
168
255
224
168
255
224
168
255
224
168
255
224
168
255
224
168
255
224
168
255
224
168
255
224
168
255
224
168
255
224
168
255
224
168
172
124
0
172
124
0
172
124
0
172
124
0
172
124
0
172
124
0
255
160
68
255
160
68
255
160
68
172
124
0
248
56
0
248
56
0
255
224
168
255
224
168
255
224
168
255
224
168
255
224
168
255
224
168
255
224
168
255
224
168
255
224
168
255
224
168
255
224
168
255
224
168
255
224
168
255
224
168
255
224
168
255
224
168
255
164
64
255
164
64
255
164
64
172
124
0
172
124
0
172
124
0
248
56
0
248
56
0
248
56
0
172
124
0
172
124
0
172
124
0
172
124
0
255
164
64
255
164
64
255
164
64
255
224
168
255
224
168
255
224
168
255
224
168
255
224
168
255
224
168
255
224
168
255
224
168
255
224
168
255
224
168
255
224
168
255
224
168
255
224
168
255
224
168
255
224
168
255
224
168
255
224
168
255
224
168
255
224
168
172
124
0
172
124
0
248
56
0
248
56
0
172
124
0
172
124
0
172
124
0
172
124
0
172
124
0
255
224
168
255
224
168
255
224
168
255
224
168
255
224
168
255
224
168
255
224
168
255
224
168
255
224
168
255
224
168
255
224
168
255
224
168
255
224
168
255
224
168
255
224
168
255
224
168
255
224
168
255
224
168
255
164
64
255
164
64
255
164
64
172
124
0
172
124
0
172
124
0
172
124
0
172
124
0
172
124
0
255
164
64
255
164
64
255
224
168
255
224
168
255
224
168
255
224
168
255
224
168
255
224
168
255
224
168
255
224
168
255
224
168
255
224
168
255
224
168
255
224
168
255
224
168
255
224
168
255
224
168
255
224
168
255
224
168
255
224
168
255
224
168
255
224
168
172
124
0
172
124
0
172
124
0
248
56
0
172
124
0
172
124
0
248
56
0
172
124
0
172
124
0
172
124
0
172
124
0
255
224
168
255
224
168
255
224
168
255
224
168
255
224
168
255
224
168
255
224
168
255
224
168
255
224
168
255
224
168
255
224
168
255
224
168
255
224
168
255
224
168
255
224
168
255
224
168
255
224
168
255
224
168
255
224
168
172
124
0
172
124
0
172
124
0
248
56
0
172
124
0
172
124
0
248
56
0
172
124
0
172
124
0
172
124
0
172
124
0
255
224
168
255
224
168
255
224
168
255
224
168
255
224
168
255
224
168
255
224
168
255
224
168
255
224
168
255
224
168
255
224
168
255
224
168
255
224
168
255
224
168
255
224
168
255
224
168
255
224
168
255
224
168
255
224
168
255
224
168
255
164
64
172
124
0
172
124
0
172
124
0
172
124
0
172
124
0
172
124
0
255
164
64
255
164
64
255
164
64
255
164
64
255
224
168
255
224
168
255
224
168
255
224
168
255
224
168
255
224
168
255
224
168
255
224
168
255
224
168
255
224
168
255
224
168
255
224
168
255
224
168
255
224
168
255
224
168
255
224
168
255
224
168
255
224
168
172
124
0
172
124
0
172
124
0
172
124
0
248
56
0
248
56
0
172
124
0
172
124
0
172
124
0
255
224
168
255
224
168
255
224
168
255
224
168
255
224
168
255
224
168
255
224
168
255
224
168
255
224
168
255
224
168
255
224
168
255
224
168
255
224
168
255
224
168
255
224
168
255
224
168
255
224
168
255
224
168
255
224
168
255
164
64
255
164
64
172
124
0
172
124
0
172
124
0
172
124
0
248
56
0
248
56
0
248
56
0
172
124
0
172
124
0
172
124
0
255
164
64
255
164
64
255
164
64
255
164
64
255
224
168
255
224
168
255
224
168
255
224
168
255
224
168
255
224
168
255
224
168
255
224
168
255
224
168
255
224
168
255
224
168
255
224
168
255
224
168
255
224
168
255
224
168
255
224
168
248
56
0
172
124
0
255
160
68
255
160
68
255
160
68
172
124
0
172
124
0
172
124
0
172
124
0
172
124
0
172
124
0
172
124
0
255
224
168
255
224
168
255
224
168
255
224
168
255
224
168
255
224
168
255
224
168
255
224
168
255
224
168
255
224
168
255
224
168
255
224
168
255
224
168
255
224
168
255
224
168
255
224
168
255
224
168
172
124
0
172
124
0
172
124
0
172
124
0
172
124
0
248
56
0
172
124
0
172
124
0
172
124
0
248
56
0
172
124
0
172
124
0
255
224
168
255
224
168
255
224
168
255
224
168
255
224
168
255
224
168
255
224
168
255
224
168
255
224
168
255
224
168
255
224
168
255
224
168
255
224
168
255
224
168
255
224
168
255
224
168
255
224
168
255
224
168
255
224
168
255
224
168
255
224
168
255
224
168
255
224
168
255
224
168
255
224
168
255
224
168
255
224
168
255
224
168
255
224
168
255
224
168
255
224
168
255
224
168
255
224
168
255
224
168
255
224
168
255
224
168
255
224
168
255
224
168
255
224
168
255
224
168
255
224
168
255
224
168
255
224
168
255
224
168
255
224
168
255
224
168
255
224
168
255
224
168
255
224
168
255
224
168
255
224
168
255
224
168
255
224
168
255
224
168
255
224
168
255
224
168
255
224
168
255
224
168
255
224
168
255
224
168
255
224
168
172
124
0
172
124
0
255
224
168
248
56
0
172
124
0
172
124
0
172
124
0
248
56
0
172
124
0
172
124
0
172
124
0
172
124
0
172
124
0
172
124
0
172
124
0
172
124
0
255
224
168
255
224
168
255
224
168
255
224
168
255
224
168
255
224
168
255
224
168
255
224
168
255
224
168
255
224
168
255
224
168
255
224
168
255
224
168
255
224
168
255
224
168
255
224
168
172
124
0
172
124
0
172
124
0
172
124
0
172
124
0
172
124
0
255
160
68
255
160
68
248
56
0
248
56
0
248
56
0
248
56
0
255
224
168
255
224
168
255
224
168
255
224
168
255
224
168
255
224
168
255
224
168
255
224
168
255
224
168
255
224
168
255
224
168
255
224
168
255
224
168
255
224
168
255
224
168
255
224
168
255
164
64
255
164
64
172
124
0
172
124
0
248
56
0
248
56
0
248
56
0
255
164
64
248
56
0
172
124
0
172
124
0
172
124
0
255
164
64
255
164
64
255
164
64
255
164
64
255
224
168
255
224
168
255
224
168
255
224
168
255
224
168
255
224
168
255
224
168
255
224
168
255
224
168
255
224
168
255
224
168
255
224
168
255
224
168
255
224
168
255
224
168
255
224
168
255
224
168
255
224
168
255
164
64
248
56
0
248
56
0
255
164
64
248
56
0
248
56
0
172
124
0
172
124
0
172
124
0
172
124
0
255
224
168
255
224
168
255
224
168
255
224
168
255
224
168
255
224
168
255
224
168
255
224
168
255
224
168
255
224
168
255
224
168
255
224
168
255
224
168
255
224
168
255
224
168
255
224
168
255
224
168
255
224
168
255
224
168
255
164
64
255
164
64
172
124
0
172
124
0
172
124
0
172
124
0
172
124
0
248
56
0
255
164
64
255
164
64
255
164
64
255
224
168
255
224
168
255
224
168
255
224
168
255
224
168
255
224
168
255
224
168
255
224
168
255
224
168
255
224
168
255
224
168
255
224
168
255
224
168
255
224
168
255
224
168
255
224
168
255
224
168
255
224
168
172
124
0
172
124
0
172
124
0
172
124
0
248
56
0
248
56
0
248
56
0
248
56
0
172
124
0
172
124
0
172
124
0
172
124
0
172
124
0
255
224
168
255
224
168
255
224
168
255
224
168
255
224
168
255
224
168
255
224
168
255
224
168
255
224
168
255
224
168
255
224
168
255
224
168
255
224
168
255
224
168
255
224
168
255
224
168
255
224
168
172
124
0
172
124
0
172
124
0
172
124
0
248
56
0
248
56
0
248
56
0
248
56
0
172
124
0
172
124
0
172
124
0
172
124
0
172
124
0
255
224
168
255
224
168
255
224
168
255
224
168
255
224
168
255
224
168
255
224
168
255
224
168
255
224
168
255
224
168
255
224
168
255
224
168
255
224
168
255
224
168
255
224
168
255
224
168
255
224
168
255
224
168
255
164
64
255
164
64
248
56
0
172
124
0
172
124
0
172
124
0
172
124
0
172
124
0
255
164
64
255
164
64
255
164
64
255
224
168
255
224
168
255
224
168
255
224
168
255
224
168
255
224
168
255
224
168
255
224
168
255
224
168
255
224
168
255
224
168
255
224
168
255
224
168
255
224
168
255
224
168
255
224
168
255
224
168
255
224
168
255
224
168
172
124
0
172
124
0
172
124
0
248
56
0
248
56
0
255
164
64
248
56
0
248
56
0
255
164
64
255
164
64
255
224
168
255
224
168
255
224
168
255
224
168
255
224
168
255
224
168
255
224
168
255
224
168
255
224
168
255
224
168
255
224
168
255
224
168
255
224
168
255
224
168
255
224
168
255
224
168
255
224
168
255
224
168
255
164
64
255
164
64
255
164
64
255
164
64
172
124
0
172
124
0
248
56
0
255
164
64
248
56
0
248
56
0
248
56
0
172
124
0
172
124
0
255
164
64
255
164
64
255
164
64
255
224
168
255
224
168
255
224
168
255
224
168
255
224
168
255
224
168
255
224
168
255
224
168
255
224
168
255
224
168
255
224
168
255
224
168
255
224
168
255
224
168
255
224
168
255
224
168
248
56
0
248
56
0
248
56
0
255
160
68
255
160
68
172
124
0
172
124
0
172
124
0
172
124
0
172
124
0
172
124
0
172
124
0
255
224
168
255
224
168
255
224
168
255
224
168
255
224
168
255
224
168
255
224
168
255
224
168
255
224
168
255
224
168
255
224
168
255
224
168
255
224
168
255
224
168
255
224
168
255
224
168
172
124
0
172
124
0
172
124
0
172
124
0
172
124
0
172
124
0
172
124
0
248
56
0
172
124
0
172
124
0
172
124
0
248
56
0
248
56
0
255
224
168
172
124
0
172
124
0
255
224
168
255
224
168
255
224
168
255
224
168
255
224
168
255
224
168
255
224
168
255
224
168
255
224
168
255
224
168
255
224
168
255
224
168
255
224
168
255
224
168
255
224
168
255
224
168
255
224
168
255
224
168
255
224
168
255
224
168
255
224
168
255
224
168
255
224
168
255
224
168
255
224
168
255
224
168
255
224
168
255
224
168
255
224
168
255
224
168
255
224
168
255
224
168
255
224
168
255
224
168
255
224
168
255
224
168
255
224
168
255
224
168
255
224
168
255
224
168
255
224
168
255
224
168
255
224
168
255
224
168
255
224
168
255
224
168
255
224
168
255
224
168
255
224
168
255
224
168
255
224
168
255
224
168
255
224
168
255
224
168
255
224
168
255
224
168
255
224
168
255
224
168
172
124
0
172
124
0
255
224
168
248
56
0
248
56
0
248
56
0
248
56
0
248
56
0
172
124
0
172
124
0
172
124
0
172
124
0
172
124
0
172
124
0
255
164
64
255
164
64
255
164
64
255
224
168
255
224
168
255
224
168
255
224
168
255
224
168
255
224
168
255
224
168
255
224
168
255
224
168
255
224
168
255
224
168
255
224
168
255
224
168
255
224
168
255
224
168
255
224
168
172
124
0
172
124
0
172
124
0
172
124
0
248
56
0
248
56
0
248
56
0
248
56
0
248
56
0
248
56
0
255
224
168
255
224
168
255
224
168
255
224
168
255
224
168
255
224
168
255
224
168
255
224
168
255
224
168
255
224
168
255
224
168
255
224
168
255
224
168
255
224
168
255
224
168
255
224
168
255
224
168
255
224
168
172
124
0
172
124
0
255
224
168
248
56
0
248
56
0
248
56
0
248
56
0
248
56
0
248
56
0
248
56
0
248
56
0
255
224
168
255
164
64
255
164
64
255
164
64
255
224
168
255
224
168
255
224
168
255
224
168
255
224
168
255
224
168
255
224
168
255
224
168
255
224
168
255
224
168
255
224
168
255
224
168
255
224
168
255
224
168
255
224
168
255
224
168
255
224
168
255
224
168
248
56
0
248
56
0
248
56
0
248
56
0
248
56
0
172
124
0
172
124
0
172
124
0
172
124
0
172
124
0
255
224
168
255
224
168
255
224
168
255
224
168
255
224
168
255
224
168
255
224
168
255
224
168
255
224
168
255
224
168
255
224
168
255
224
168
255
224
168
255
224
168
255
224
168
255
224
168
255
224
168
255
224
168
255
224
168
255
224
168
248
56
0
248
56
0
248
56
0
248
56
0
248
56
0
248
56
0
248
56
0
172
124
0
172
124
0
172
124
0
255
224
168
255
224
168
255
224
168
255
224
168
255
224
168
255
224
168
255
224
168
255
224
168
255
224
168
255
224
168
255
224
168
255
224
168
255
224
168
255
224
168
255
224
168
255
224
168
255
224
168
255
224
168
255
164
64
255
164
64
172
124
0
248
56
0
255
164
64
248
56
0
248
56
0
255
164
64
248
56
0
172
124
0
255
164
64
255
164
64
255
164
64
255
224
168
255
224
168
255
224
168
255
224
168
255
224
168
255
224
168
255
224
168
255
224
168
255
224
168
255
224
168
255
224
168
255
224
168
255
224
168
255
224
168
255
224
168
255
224
168
255
224
168
255
164
64
255
164
64
172
124
0
248
56
0
255
164
64
248
56
0
248
56
0
255
164
64
248
56
0
172
124
0
255
164
64
255
164
64
255
164
64
255
224
168
255
224
168
255
224
168
255
224
168
255
224
168
255
224
168
255
224
168
255
224
168
255
224
168
255
224
168
255
224
168
255
224
168
255
224
168
255
224
168
255
224
168
255
224
168
255
224
168
255
224
168
172
124
0
172
124
0
248
56
0
248
56
0
248
56
0
248
56
0
248
56
0
248
56
0
248
56
0
248
56
0
255
224
168
255
224
168
255
224
168
255
224
168
255
224
168
255
224
168
255
224
168
255
224
168
255
224
168
255
224
168
255
224
168
255
224
168
255
224
168
255
224
168
255
224
168
255
224
168
255
224
168
255
224
168
255
224
168
255
224
168
172
124
0
172
124
0
172
124
0
172
124
0
248
56
0
248
56
0
248
56
0
248
56
0
248
56
0
248
56
0
255
224
168
255
224
168
255
224
168
255
224
168
255
224
168
255
224
168
255
224
168
255
224
168
255
224
168
255
224
168
255
224
168
255
224
168
255
224
168
255
224
168
255
224
168
255
224
168
255
224
168
255
224
168
255
164
64
255
164
64
255
164
64
255
224
168
248
56
0
248
56
0
248
56
0
248
56
0
248
56
0
248
56
0
248
56
0
248
56
0
255
224
168
172
124
0
172
124
0
255
224
168
255
224
168
255
224
168
255
224
168
255
224
168
255
224
168
255
224
168
255
224
168
255
224
168
255
224
168
255
224
168
255
224
168
255
224
168
255
224
168
255
224
168
255
224
168
255
224
168
255
224
168
248
56
0
248
56
0
248
56
0
248
56
0
248
56
0
172
124
0
172
124
0
172
124
0
172
124
0
172
124
0
255
224
168
255
224
168
255
224
168
255
224
168
255
224
168
255
224
168
255
224
168
255
224
168
255
224
168
255
224
168
255
224
168
255
224
168
255
224
168
255
224
168
255
224
168
255
224
168
255
164
64
255
164
64
172
124
0
172
124
0
172
124
0
172
124
0
172
124
0
172
124
0
248
56
0
248
56
0
248
56
0
248
56
0
248
56
0
248
56
0
255
224
168
172
124
0
172
124
0
255
224
168
255
224
168
255
224
168
255
224
168
255
224
168
255
224
168
255
224
168
255
224
168
255
224
168
255
224
168
255
224
168
255
224
168
255
224
168
255
224
168
255
224
168
255
224
168
255
224
168
255
224
168
255
224
168
255
224
168
255
224
168
255
224
168
255
224
168
255
224
168
255
224
168
255
224
168
255
224
168
255
224
168
255
224
168
255
224
168
255
224
168
255
224
168
255
224
168
255
224
168
255
224
168
255
224
168
255
224
168
255
224
168
255
224
168
255
224
168
255
224
168
255
224
168
255
224
168
255
224
168
255
224
168
255
224
168
255
224
168
255
224
168
255
224
168
255
224
168
255
224
168
255
224
168
255
224
168
255
224
168
255
224
168
255
224
168
255
224
168
255
224
168
172
124
0
172
124
0
248
56
0
255
164
64
248
56
0
248
56
0
255
164
64
248
56
0
248
56
0
172
124
0
248
56
0
248
56
0
248
56
0
255
164
64
255
164
64
255
164
64
255
164
64
255
224
168
255
224
168
255
224
168
255
224
168
255
224
168
255
224
168
255
224
168
255
224
168
255
224
168
255
224
168
255
224
168
255
224
168
255
224
168
255
224
168
255
224
168
255
224
168
255
224
168
248
56
0
248
56
0
248
56
0
248
56
0
172
124
0
172
124
0
172
124
0
248
56
0
248
56
0
255
224
168
255
224
168
255
224
168
255
224
168
255
224
168
255
224
168
255
224
168
255
224
168
255
224
168
255
224
168
255
224
168
255
224
168
255
224
168
255
224
168
255
224
168
255
224
168
255
224
168
255
224
168
172
124
0
172
124
0
248
56
0
248
56
0
248
56
0
248
56
0
248
56
0
248
56
0
248
56
0
248
56
0
248
56
0
248
56
0
255
224
168
255
224
168
255
224
168
255
224
168
255
224
168
255
224
168
255
224
168
255
224
168
255
224
168
255
224
168
255
224
168
255
224
168
255
224
168
255
224
168
255
224
168
255
224
168
255
224
168
255
224
168
255
224
168
255
224
168
255
224
168
248
56
0
248
56
0
248
56
0
255
164
64
255
164
64
255
164
64
172
124
0
172
124
0
248
56
0
248
56
0
255
224
168
255
224
168
255
224
168
255
224
168
255
224
168
255
224
168
255
224
168
255
224
168
255
224
168
255
224
168
255
224
168
255
224
168
255
224
168
255
224
168
255
224
168
255
224
168
255
224
168
255
224
168
255
224
168
255
224
168
248
56
0
248
56
0
248
56
0
248
56
0
248
56
0
248
56
0
248
56
0
248
56
0
172
124
0
172
124
0
255
224
168
255
224
168
255
224
168
255
224
168
255
224
168
255
224
168
255
224
168
255
224
168
255
224
168
255
224
168
255
224
168
255
224
168
255
224
168
255
224
168
255
224
168
255
224
168
255
224
168
255
224
168
255
164
64
255
164
64
255
164
64
248
56
0
248
56
0
248
56
0
248
56
0
248
56
0
248
56
0
255
164
64
255
164
64
255
164
64
255
164
64
255
224
168
255
224
168
255
224
168
255
224
168
255
224
168
255
224
168
255
224
168
255
224
168
255
224
168
255
224
168
255
224
168
255
224
168
255
224
168
255
224
168
255
224
168
255
224
168
255
224
168
255
164
64
255
164
64
255
164
64
248
56
0
248
56
0
248
56
0
248
56
0
248
56
0
248
56
0
255
164
64
255
164
64
255
164
64
255
164
64
255
224
168
255
224
168
255
224
168
255
224
168
255
224
168
255
224
168
255
224
168
255
224
168
255
224
168
255
224
168
255
224
168
255
224
168
255
224
168
255
224
168
255
224
168
255
224
168
255
224
168
255
224
168
172
124
0
248
56
0
248
56
0
248
56
0
248
56
0
248
56
0
248
56
0
248
56
0
248
56
0
248
56
0
255
224
168
255
224
168
255
224
168
255
224
168
255
224
168
255
224
168
255
224
168
255
224
168
255
224
168
255
224
168
255
224
168
255
224
168
255
224
168
255
224
168
255
224
168
255
224
168
255
224
168
255
224
168
255
224
168
255
224
168
248
56
0
172
124
0
172
124
0
255
164
64
255
164
64
255
164
64
248
56
0
248
56
0
248
56
0
248
56
0
255
224
168
255
224
168
255
224
168
255
224
168
255
224
168
255
224
168
255
224
168
255
224
168
255
224
168
255
224
168
255
224
168
255
224
168
255
224
168
255
224
168
255
224
168
255
224
168
255
224
168
255
224
168
255
224
168
255
224
168
255
224
168
248
56
0
248
56
0
248
56
0
248
56
0
248
56
0
248
56
0
248
56
0
248
56
0
248
56
0
172
124
0
172
124
0
172
124
0
255
224
168
255
224
168
255
224
168
255
224
168
255
224
168
255
224
168
255
224
168
255
224
168
255
224
168
255
224
168
255
224
168
255
224
168
255
224
168
255
224
168
255
224
168
255
224
168
255
224
168
255
224
168
248
56
0
172
124
0
172
124
0
172
124
0
248
56
0
248
56
0
248
56
0
248
56
0
248
56
0
255
224
168
255
224
168
255
224
168
255
224
168
255
224
168
255
224
168
255
224
168
255
224
168
255
224
168
255
224
168
255
224
168
255
224
168
255
224
168
255
224
168
255
224
168
255
224
168
255
224
168
255
164
64
255
164
64
255
164
64
255
164
64
248
56
0
248
56
0
172
124
0
248
56
0
248
56
0
255
164
64
248
56
0
248
56
0
255
164
64
248
56
0
172
124
0
172
124
0
172
124
0
255
224
168
255
224
168
255
224
168
255
224
168
255
224
168
255
224
168
255
224
168
255
224
168
255
224
168
255
224
168
255
224
168
255
224
168
255
224
168
255
224
168
255
224
168
255
224
168
255
224
168
255
224
168
255
224
168
255
224
168
255
224
168
255
224
168
255
224
168
255
224
168
255
224
168
255
224
168
255
224
168
255
224
168
255
224
168
255
224
168
255
224
168
255
224
168
255
224
168
255
224
168
255
224
168
255
224
168
255
224
168
255
224
168
255
224
168
255
224
168
255
224
168
255
224
168
255
224
168
255
224
168
255
224
168
255
224
168
255
224
168
255
224
168
255
224
168
255
224
168
255
224
168
255
224
168
255
224
168
255
224
168
255
224
168
255
224
168
255
224
168
255
224
168
172
124
0
172
124
0
248
56
0
248
56
0
248
56
0
248
56
0
248
56
0
248
56
0
248
56
0
248
56
0
248
56
0
248
56
0
172
124
0
172
124
0
255
164
64
255
164
64
255
224
168
255
224
168
255
224
168
255
224
168
255
224
168
255
224
168
255
224
168
255
224
168
255
224
168
255
224
168
255
224
168
255
224
168
255
224
168
255
224
168
255
224
168
255
224
168
255
224
168
255
224
168
248
56
0
248
56
0
248
56
0
172
124
0
172
124
0
172
124
0
172
124
0
172
124
0
255
224
168
255
224
168
255
224
168
255
224
168
255
224
168
255
224
168
255
224
168
255
224
168
255
224
168
255
224
168
255
224
168
255
224
168
255
224
168
255
224
168
255
224
168
255
224
168
255
224
168
255
224
168
255
224
168
172
124
0
172
124
0
248
56
0
248
56
0
248
56
0
248
56
0
248
56
0
248
56
0
248
56
0
248
56
0
248
56
0
248
56
0
248
56
0
255
224
168
255
224
168
255
224
168
255
224
168
255
224
168
255
224
168
255
224
168
255
224
168
255
224
168
255
224
168
255
224
168
255
224
168
255
224
168
255
224
168
255
224
168
255
224
168
255
224
168
255
224
168
255
224
168
255
224
168
255
224
168
248
56
0
248
56
0
248
56
0
255
164
64
255
164
64
172
124
0
248
56
0
248
56
0
255
224
168
255
224
168
255
224
168
255
224
168
255
224
168
255
224
168
255
224
168
255
224
168
255
224
168
255
224
168
255
224
168
255
224
168
255
224
168
255
224
168
255
224
168
255
224
168
255
224
168
255
224
168
255
224
168
255
224
168
255
224
168
255
224
168
248
56
0
248
56
0
248
56
0
248
56
0
248
56
0
248
56
0
248
56
0
172
124
0
172
124
0
172
124
0
255
224
168
255
224
168
255
224
168
255
224
168
255
224
168
255
224
168
255
224
168
255
224
168
255
224
168
255
224
168
255
224
168
255
224
168
255
224
168
255
224
168
255
224
168
255
224
168
255
224
168
255
164
64
255
164
64
248
56
0
248
56
0
248
56
0
248
56
0
248
56
0
248
56
0
248
56
0
248
56
0
255
164
64
255
164
64
255
164
64
255
224
168
255
224
168
255
224
168
255
224
168
255
224
168
255
224
168
255
224
168
255
224
168
255
224
168
255
224
168
255
224
168
255
224
168
255
224
168
255
224
168
255
224
168
255
224
168
255
224
168
255
164
64
255
164
64
248
56
0
248
56
0
248
56
0
248
56
0
248
56
0
248
56
0
248
56
0
248
56
0
255
164
64
255
164
64
255
164
64
255
224
168
255
224
168
255
224
168
255
224
168
255
224
168
255
224
168
255
224
168
255
224
168
255
224
168
255
224
168
255
224
168
255
224
168
255
224
168
255
224
168
255
224
168
255
224
168
255
224
168
172
124
0
172
124
0
248
56
0
248
56
0
248
56
0
248
56
0
248
56
0
248
56
0
248
56
0
248
56
0
255
224
168
255
224
168
255
224
168
255
224
168
255
224
168
255
224
168
255
224
168
255
224
168
255
224
168
255
224
168
255
224
168
255
224
168
255
224
168
255
224
168
255
224
168
255
224
168
255
224
168
255
224
168
255
224
168
255
224
168
255
224
168
255
224
168
248
56
0
172
124
0
255
164
64
255
164
64
248
56
0
248
56
0
248
56
0
248
56
0
255
224
168
255
224
168
255
224
168
255
224
168
255
224
168
255
224
168
255
224
168
255
224
168
255
224
168
255
224
168
255
224
168
255
224
168
255
224
168
255
224
168
255
224
168
255
224
168
255
224
168
255
224
168
255
224
168
255
224
168
255
224
168
248
56
0
248
56
0
248
56
0
248
56
0
248
56
0
248
56
0
248
56
0
248
56
0
248
56
0
248
56
0
172
124
0
172
124
0
172
124
0
255
224
168
255
224
168
255
224
168
255
224
168
255
224
168
255
224
168
255
224
168
255
224
168
255
224
168
255
224
168
255
224
168
255
224
168
255
224
168
255
224
168
255
224
168
255
224
168
255
224
168
255
224
168
255
224
168
172
124
0
172
124
0
172
124
0
172
124
0
248
56
0
248
56
0
248
56
0
248
56
0
255
224
168
255
224
168
255
224
168
255
224
168
255
224
168
255
224
168
255
224
168
255
224
168
255
224
168
255
224
168
255
224
168
255
224
168
255
224
168
255
224
168
255
224
168
255
224
168
255
224
168
255
224
168
255
164
64
255
164
64
172
124
0
248
56
0
248
56
0
248
56
0
248
56
0
248
56
0
248
56
0
248
56
0
248
56
0
248
56
0
248
56
0
172
124
0
172
124
0
172
124
0
255
224
168
255
224
168
255
224
168
255
224
168
255
224
168
255
224
168
255
224
168
255
224
168
255
224
168
255
224
168
255
224
168
255
224
168
255
224
168
255
224
168
255
224
168
255
224
168
255
224
168
255
224
168
255
224
168
255
224
168
255
224
168
255
224
168
255
224
168
255
224
168
255
224
168
255
224
168
255
224
168
255
224
168
255
224
168
255
224
168
255
224
168
255
224
168
255
224
168
255
224
168
255
224
168
255
224
168
255
224
168
255
224
168
255
224
168
255
224
168
255
224
168
255
224
168
255
224
168
255
224
168
255
224
168
255
224
168
255
224
168
255
224
168
255
224
168
255
224
168
255
224
168
255
224
168
255
224
168
255
224
168
255
224
168
255
224
168
255
224
168
255
224
168
172
124
0
172
124
0
248
56
0
248
56
0
248
56
0
248
56
0
248
56
0
248
56
0
248
56
0
248
56
0
248
56
0
172
124
0
172
124
0
172
124
0
172
124
0
255
224
168
255
224
168
255
224
168
255
224
168
255
224
168
255
224
168
255
224
168
255
224
168
255
224
168
255
224
168
255
224
168
255
224
168
255
224
168
255
224
168
255
224
168
255
224
168
255
224
168
255
224
168
255
224
168
255
224
168
248
56
0
172
124
0
172
124
0
172
124
0
248
56
0
248
56
0
172
124
0
172
124
0
172
124
0
172
124
0
255
224
168
255
224
168
255
224
168
255
224
168
255
224
168
255
224
168
255
224
168
255
224
168
255
224
168
255
224
168
255
224
168
255
224
168
255
224
168
255
224
168
255
224
168
255
224
168
172
124
0
172
124
0
248
56
0
248
56
0
248
56
0
248
56
0
255
224
168
255
224
168
248
56
0
248
56
0
248
56
0
172
124
0
172
124
0
172
124
0
255
224
168
255
224
168
255
224
168
255
224
168
255
224
168
255
224
168
255
224
168
255
224
168
255
224
168
255
224
168
255
224
168
255
224
168
255
224
168
255
224
168
255
224
168
255
224
168
255
224
168
255
224
168
255
224
168
255
224
168
172
124
0
172
124
0
172
124
0
248
56
0
248
56
0
248
56
0
248
56
0
255
224
168
255
224
168
255
224
168
255
224
168
255
224
168
255
224
168
255
224
168
255
224
168
255
224
168
255
224
168
255
224
168
255
224
168
255
224
168
255
224
168
255
224
168
255
224
168
255
224
168
255
224
168
255
224
168
255
224
168
255
224
168
255
224
168
255
224
168
255
224
168
172
124
0
172
124
0
172
124
0
172
124
0
255
224
168
255
224
168
255
224
168
172
124
0
172
124
0
255
224
168
255
224
168
255
224
168
255
224
168
255
224
168
255
224
168
255
224
168
255
224
168
255
224
168
255
224
168
255
224
168
255
224
168
255
224
168
255
224
168
255
224
168
255
224
168
255
224
168
255
224
168
255
224
168
248
56
0
248
56
0
248
56
0
248
56
0
255
224
168
248
56
0
248
56
0
248
56
0
248
56
0
255
224
168
255
224
168
255
224
168
255
224
168
255
224
168
255
224
168
255
224
168
255
224
168
255
224
168
255
224
168
255
224
168
255
224
168
255
224
168
255
224
168
255
224
168
255
224
168
255
224
168
255
224
168
255
224
168
255
224
168
255
224
168
248
56
0
248
56
0
248
56
0
248
56
0
255
224
168
248
56
0
248
56
0
248
56
0
248
56
0
255
224
168
255
224
168
255
224
168
255
224
168
255
224
168
255
224
168
255
224
168
255
224
168
255
224
168
255
224
168
255
224
168
255
224
168
255
224
168
255
224
168
255
224
168
255
224
168
255
224
168
255
224
168
255
224
168
172
124
0
172
124
0
255
224
168
255
224
168
255
224
168
172
124
0
172
124
0
172
124
0
172
124
0
255
224
168
255
224
168
255
224
168
255
224
168
255
224
168
255
224
168
255
224
168
255
224
168
255
224
168
255
224
168
255
224
168
255
224
168
255
224
168
255
224
168
255
224
168
255
224
168
255
224
168
255
224
168
255
224
168
255
224
168
255
224
168
255
224
168
255
224
168
255
224
168
248
56
0
248
56
0
248
56
0
172
124
0
172
124
0
172
124
0
172
124
0
255
224
168
255
224
168
255
224
168
255
224
168
255
224
168
255
224
168
255
224
168
255
224
168
255
224
168
255
224
168
255
224
168
255
224
168
255
224
168
255
224
168
255
224
168
255
224
168
255
224
168
255
224
168
255
224
168
255
224
168
172
124
0
172
124
0
248
56
0
248
56
0
248
56
0
248
56
0
255
224
168
255
224
168
248
56
0
248
56
0
248
56
0
172
124
0
172
124
0
172
124
0
255
224
168
255
224
168
255
224
168
255
224
168
255
224
168
255
224
168
255
224
168
255
224
168
255
224
168
255
224
168
255
224
168
255
224
168
255
224
168
255
224
168
255
224
168
255
224
168
172
124
0
172
124
0
172
124
0
248
56
0
248
56
0
172
124
0
172
124
0
172
124
0
248
56
0
248
56
0
255
224
168
255
224
168
255
224
168
255
224
168
255
224
168
255
224
168
255
224
168
255
224
168
255
224
168
255
224
168
255
224
168
255
224
168
255
224
168
255
224
168
255
224
168
255
224
168
255
224
168
255
224
168
255
224
168
255
224
168
172
124
0
172
124
0
172
124
0
248
56
0
248
56
0
248
56
0
248
56
0
248
56
0
248
56
0
248
56
0
248
56
0
248
56
0
172
124
0
172
124
0
172
124
0
255
224
168
255
224
168
255
224
168
255
224
168
255
224
168
255
224
168
255
224
168
255
224
168
255
224
168
255
224
168
255
224
168
255
224
168
255
224
168
255
224
168
255
224
168
255
224
168
255
224
168
255
224
168
255
224
168
255
224
168
255
224
168
255
224
168
255
224
168
255
224
168
255
224
168
255
224
168
255
224
168
255
224
168
255
224
168
255
224
168
255
224
168
255
224
168
255
224
168
255
224
168
255
224
168
255
224
168
255
224
168
255
224
168
255
224
168
255
224
168
255
224
168
255
224
168
255
224
168
255
224
168
255
224
168
255
224
168
255
224
168
255
224
168
255
224
168
255
224
168
255
224
168
255
224
168
255
224
168
255
224
168
255
224
168
255
224
168
255
224
168
255
224
168
255
224
168
255
224
168
255
224
168
255
224
168
255
224
168
248
56
0
248
56
0
248
56
0
248
56
0
248
56
0
248
56
0
248
56
0
172
124
0
172
124
0
172
124
0
172
124
0
255
224
168
255
224
168
255
224
168
255
224
168
255
224
168
255
224
168
255
224
168
255
224
168
255
224
168
255
224
168
255
224
168
255
224
168
255
224
168
255
224
168
255
224
168
255
224
168
255
224
168
255
224
168
255
224
168
255
224
168
255
224
168
255
224
168
248
56
0
172
124
0
172
124
0
172
124
0
172
124
0
172
124
0
172
124
0
255
224
168
255
224
168
255
224
168
255
224
168
255
224
168
255
224
168
255
224
168
255
224
168
255
224
168
255
224
168
255
224
168
255
224
168
255
224
168
255
224
168
255
224
168
255
224
168
255
224
168
255
224
168
255
224
168
255
224
168
255
224
168
255
224
168
255
224
168
255
224
168
255
224
168
255
224
168
172
124
0
172
124
0
172
124
0
172
124
0
255
224
168
255
224
168
255
224
168
255
224
168
255
224
168
255
224
168
255
224
168
255
224
168
255
224
168
255
224
168
255
224
168
255
224
168
255
224
168
255
224
168
255
224
168
255
224
168
255
224
168
255
224
168
255
224
168
172
124
0
172
124
0
172
124
0
172
124
0
172
124
0
172
124
0
172
124
0
172
124
0
255
224
168
255
224
168
255
224
168
255
224
168
255
224
168
255
224
168
255
224
168
255
224
168
255
224
168
255
224
168
255
224
168
255
224
168
255
224
168
255
224
168
255
224
168
255
224
168
255
224
168
255
224
168
255
224
168
255
224
168
255
224
168
255
224
168
255
224
168
172
124
0
172
124
0
172
124
0
172
124
0
172
124
0
255
224
168
255
224
168
255
224
168
255
224
168
255
224
168
255
224
168
255
224
168
255
224
168
255
224
168
255
224
168
255
224
168
255
224
168
255
224
168
255
224
168
255
224
168
255
224
168
255
224
168
255
224
168
255
224
168
255
224
168
255
224
168
255
224
168
255
224
168
172
124
0
172
124
0
172
124
0
172
124
0
255
224
168
255
224
168
255
224
168
172
124
0
172
124
0
172
124
0
172
124
0
255
224
168
255
224
168
255
224
168
255
224
168
255
224
168
255
224
168
255
224
168
255
224
168
255
224
168
255
224
168
255
224
168
255
224
168
255
224
168
255
224
168
255
224
168
255
224
168
255
224
168
255
224
168
255
224
168
172
124
0
172
124
0
172
124
0
172
124
0
255
224
168
255
224
168
255
224
168
172
124
0
172
124
0
172
124
0
172
124
0
255
224
168
255
224
168
255
224
168
255
224
168
255
224
168
255
224
168
255
224
168
255
224
168
255
224
168
255
224
168
255
224
168
255
224
168
255
224
168
255
224
168
255
224
168
255
224
168
255
224
168
255
224
168
255
224
168
255
224
168
255
224
168
255
224
168
255
224
168
172
124
0
172
124
0
172
124
0
172
124
0
172
124
0
255
224
168
255
224
168
255
224
168
255
224
168
255
224
168
255
224
168
255
224
168
255
224
168
255
224
168
255
224
168
255
224
168
255
224
168
255
224
168
255
224
168
255
224
168
255
224
168
255
224
168
255
224
168
255
224
168
255
224
168
255
224
168
255
224
168
255
224
168
172
124
0
172
124
0
172
124
0
172
124
0
172
124
0
172
124
0
172
124
0
172
124
0
255
224
168
255
224
168
255
224
168
255
224
168
255
224
168
255
224
168
255
224
168
255
224
168
255
224
168
255
224
168
255
224
168
255
224
168
255
224
168
255
224
168
255
224
168
255
224
168
255
224
168
255
224
168
255
224
168
172
124
0
172
124
0
172
124
0
172
124
0
255
224
168
255
224
168
255
224
168
255
224
168
255
224
168
255
224
168
255
224
168
255
224
168
255
224
168
255
224
168
255
224
168
255
224
168
255
224
168
255
224
168
255
224
168
255
224
168
255
224
168
255
224
168
255
224
168
255
224
168
255
224
168
255
224
168
255
224
168
255
224
168
255
224
168
255
224
168
172
124
0
172
124
0
172
124
0
172
124
0
172
124
0
248
56
0
248
56
0
255
224
168
255
224
168
255
224
168
255
224
168
255
224
168
255
224
168
255
224
168
255
224
168
255
224
168
255
224
168
255
224
168
255
224
168
255
224
168
255
224
168
255
224
168
255
224
168
255
224
168
255
224
168
255
224
168
255
224
168
255
224
168
255
224
168
172
124
0
172
124
0
172
124
0
248
56
0
248
56
0
248
56
0
248
56
0
248
56
0
248
56
0
248
56
0
248
56
0
255
224
168
255
224
168
255
224
168
255
224
168
255
224
168
255
224
168
255
224
168
255
224
168
255
224
168
255
224
168
255
224
168
255
224
168
255
224
168
255
224
168
255
224
168
255
224
168
255
224
168
255
224
168
255
224
168
255
224
168
255
224
168
255
224
168
255
224
168
255
224
168
255
224
168
255
224
168
255
224
168
255
224
168
255
224
168
255
224
168
255
224
168
255
224
168
255
224
168
255
224
168
255
224
168
255
224
168
255
224
168
255
224
168
255
224
168
255
224
168
255
224
168
255
224
168
255
224
168
255
224
168
255
224
168
255
224
168
255
224
168
255
224
168
255
224
168
255
224
168
255
224
168
255
224
168
255
224
168
255
224
168
255
224
168
255
224
168
255
224
168
255
224
168
255
224
168
255
224
168
255
224
168
255
224
168
255
224
168
255
224
168
255
224
168
255
224
168
255
224
168
255
224
168
255
224
168
255
224
168
255
224
168
248
56
0
248
56
0
248
56
0
248
56
0
248
56
0
255
224
168
172
124
0
172
124
0
255
224
168
255
224
168
255
224
168
255
224
168
255
224
168
255
224
168
255
224
168
255
224
168
255
224
168
255
224
168
255
224
168
255
224
168
255
224
168
255
224
168
255
224
168
255
224
168
255
224
168
255
224
168
255
224
168
255
224
168
255
224
168
255
224
168
255
224
168
172
124
0
172
124
0
172
124
0
172
124
0
172
124
0
255
224
168
255
224
168
255
224
168
255
224
168
255
224
168
255
224
168
255
224
168
255
224
168
255
224
168
255
224
168
255
224
168
255
224
168
255
224
168
255
224
168
255
224
168
255
224
168
255
224
168
255
224
168
255
224
168
255
224
168
255
224
168
255
224
168
255
224
168
255
224
168
255
224
168
255
224
168
172
124
0
172
124
0
172
124
0
172
124
0
255
224
168
255
224
168
255
224
168
255
224
168
255
224
168
255
224
168
255
224
168
255
224
168
255
224
168
255
224
168
255
224
168
255
224
168
255
224
168
255
224
168
255
224
168
255
224
168
255
224
168
255
224
168
255
224
168
255
224
168
255
224
168
255
224
168
255
224
168
172
124
0
172
124
0
172
124
0
172
124
0
172
124
0
255
224
168
255
224
168
255
224
168
255
224
168
255
224
168
255
224
168
255
224
168
255
224
168
255
224
168
255
224
168
255
224
168
255
224
168
255
224
168
255
224
168
255
224
168
255
224
168
255
224
168
255
224
168
255
224
168
255
224
168
255
224
168
255
224
168
255
224
168
255
224
168
255
224
168
255
224
168
255
224
168
255
224
168
255
224
168
255
224
168
255
224
168
255
224
168
255
224
168
255
224
168
255
224
168
255
224
168
255
224
168
255
224
168
255
224
168
255
224
168
255
224
168
255
224
168
255
224
168
255
224
168
255
224
168
255
224
168
255
224
168
255
224
168
255
224
168
255
224
168
172
124
0
172
124
0
172
124
0
172
124
0
172
124
0
255
224
168
255
224
168
255
224
168
172
124
0
172
124
0
172
124
0
172
124
0
172
124
0
255
224
168
255
224
168
255
224
168
255
224
168
255
224
168
255
224
168
255
224
168
255
224
168
255
224
168
255
224
168
255
224
168
255
224
168
255
224
168
255
224
168
255
224
168
255
224
168
255
224
168
172
124
0
172
124
0
172
124
0
172
124
0
172
124
0
255
224
168
255
224
168
255
224
168
172
124
0
172
124
0
172
124
0
172
124
0
172
124
0
255
224
168
255
224
168
255
224
168
255
224
168
255
224
168
255
224
168
255
224
168
255
224
168
255
224
168
255
224
168
255
224
168
255
224
168
255
224
168
255
224
168
255
224
168
255
224
168
255
224
168
255
224
168
255
224
168
255
224
168
255
224
168
255
224
168
255
224
168
255
224
168
255
224
168
255
224
168
255
224
168
255
224
168
255
224
168
255
224
168
255
224
168
255
224
168
255
224
168
255
224
168
255
224
168
255
224
168
255
224
168
255
224
168
255
224
168
255
224
168
255
224
168
255
224
168
255
224
168
255
224
168
255
224
168
255
224
168
255
224
168
255
224
168
255
224
168
255
224
168
172
124
0
172
124
0
172
124
0
172
124
0
172
124
0
255
224
168
255
224
168
255
224
168
255
224
168
255
224
168
255
224
168
255
224
168
255
224
168
255
224
168
255
224
168
255
224
168
255
224
168
255
224
168
255
224
168
255
224
168
255
224
168
255
224
168
255
224
168
255
224
168
255
224
168
255
224
168
255
224
168
255
224
168
172
124
0
172
124
0
172
124
0
172
124
0
255
224
168
255
224
168
255
224
168
255
224
168
255
224
168
255
224
168
255
224
168
255
224
168
255
224
168
255
224
168
255
224
168
255
224
168
255
224
168
255
224
168
255
224
168
255
224
168
255
224
168
255
224
168
255
224
168
255
224
168
255
224
168
255
224
168
255
224
168
255
224
168
255
224
168
255
224
168
172
124
0
172
124
0
172
124
0
172
124
0
172
124
0
255
224
168
255
224
168
255
224
168
255
224
168
255
224
168
255
224
168
255
224
168
255
224
168
255
224
168
255
224
168
255
224
168
255
224
168
255
224
168
255
224
168
255
224
168
255
224
168
255
224
168
255
224
168
255
224
168
255
224
168
255
224
168
255
224
168
255
224
168
172
124
0
172
124
0
255
224
168
248
56
0
248
56
0
248
56
0
248
56
0
248
56
0
255
224
168
255
224
168
255
224
168
255
224
168
255
224
168
255
224
168
255
224
168
255
224
168
255
224
168
255
224
168
255
224
168
255
224
168
255
224
168
255
224
168
255
224
168
255
224
168
255
224
168
255
224
168
255
224
168
255
224
168
255
224
168
255
224
168
255
224
168
255
224
168
255
224
168
255
224
168
255
224
168
255
224
168
255
224
168
255
224
168
255
224
168
255
224
168
255
224
168
255
224
168
255
224
168
255
224
168
255
224
168
255
224
168
255
224
168
255
224
168
255
224
168
255
224
168
248
56
0
248
56
0
248
56
0
248
56
0
248
56
0
255
224
168
255
224
168
255
224
168
255
224
168
255
224
168
255
224
168
255
224
168
255
224
168
255
224
168
255
224
168
255
224
168
255
224
168
255
224
168
255
224
168
255
224
168
255
224
168
255
224
168
255
224
168
255
224
168
255
224
168
255
224
168
255
224
168
255
224
168
255
224
168
255
224
168
255
224
168
255
224
168
255
224
168
255
224
168
255
224
168
255
224
168
255
224
168
255
224
168
255
224
168
255
224
168
255
224
168
255
224
168
255
224
168
255
224
168
255
224
168
255
224
168
255
224
168
255
224
168
255
224
168
255
224
168
255
224
168
255
224
168
255
224
168
255
224
168
255
224
168
255
224
168
255
224
168
255
224
168
255
224
168
255
224
168
255
224
168
255
224
168
255
224
168
255
224
168
255
224
168
255
224
168
255
224
168
255
224
168
255
224
168
255
224
168
255
224
168
255
224
168
255
224
168
255
224
168
255
224
168
255
224
168
255
224
168
255
224
168
255
224
168
255
224
168
255
224
168
255
224
168
255
224
168
255
224
168
255
224
168
255
224
168
255
224
168
255
224
168
255
224
168
255
224
168
255
224
168
255
224
168
255
224
168
255
224
168
255
224
168
255
224
168
255
224
168
255
224
168
255
224
168
255
224
168
255
224
168
255
224
168
255
224
168
255
224
168
255
224
168
255
224
168
255
224
168
255
224
168
255
224
168
255
224
168
255
224
168
255
224
168
255
224
168
255
224
168
255
224
168
255
224
168
255
224
168
255
224
168
255
224
168
255
224
168
255
224
168
255
224
168
255
224
168
255
224
168
255
224
168
255
224
168
255
224
168
255
224
168
255
224
168
255
224
168
255
224
168
255
224
168
255
224
168
255
224
168
255
224
168
255
224
168
255
224
168
255
224
168
255
224
168
255
224
168
255
224
168
255
224
168
255
224
168
255
224
168
255
224
168
255
224
168
255
224
168
255
224
168
255
224
168
255
224
168
255
224
168
255
224
168
255
224
168
255
224
168
255
224
168
255
224
168
255
224
168
255
224
168
255
224
168
255
224
168
255
224
168
255
224
168
255
224
168
255
224
168
255
224
168
255
224
168
255
224
168
255
224
168
255
224
168
255
224
168
255
224
168
255
224
168
255
224
168
255
224
168
255
224
168
255
224
168
255
224
168
255
224
168
255
224
168
255
224
168
255
224
168
255
224
168
255
224
168
255
224
168
255
224
168
255
224
168
255
224
168
255
224
168
255
224
168
255
224
168
255
224
168
255
224
168
255
224
168
255
224
168
255
224
168
255
224
168
255
224
168
255
224
168
255
224
168
255
224
168
255
224
168
255
224
168
255
224
168
255
224
168
255
224
168
255
224
168
255
224
168
255
224
168
255
224
168
255
224
168
255
224
168
255
224
168
255
224
168
255
224
168
255
224
168
255
224
168
255
224
168
255
224
168
255
224
168
255
224
168
255
224
168
255
224
168
255
224
168
255
224
168
255
224
168
255
224
168
255
224
168
255
224
168
255
224
168
255
224
168
255
224
168
255
224
168
255
224
168
255
224
168
255
224
168
255
224
168
255
224
168
255
224
168
255
224
168
255
224
168
255
224
168
255
224
168
255
224
168
255
224
168
255
224
168
255
224
168
255
224
168
255
224
168
255
224
168
255
224
168
255
224
168
255
224
168
255
224
168
255
224
168
255
224
168
255
224
168
255
224
168
255
224
168
255
224
168
255
224
168
255
224
168
255
224
168
255
224
168
255
224
168
255
224
168
255
224
168
255
224
168
255
224
168
255
224
168
255
224
168
255
224
168
255
224
168
255
224
168
255
224
168
255
224
168
255
224
168
255
224
168
255
224
168
255
224
168
255
224
168
255
224
168
255
224
168
255
224
168
255
224
168
255
224
168
255
224
168
255
224
168
255
224
168
255
224
168
255
224
168
255
224
168
255
224
168
255
224
168
255
224
168
255
224
168
255
224
168
255
224
168
255
224
168
255
224
168
255
224
168
255
224
168
255
224
168
255
224
168
255
224
168
255
224
168
255
224
168
255
224
168
255
224
168
255
224
168
255
224
168
255
224
168
255
224
168
255
224
168
255
224
168
255
224
168
255
224
168
255
224
168
255
224
168
255
224
168
255
224
168
255
224
168
255
224
168
255
224
168
255
224
168
255
224
168
255
224
168
255
224
168
255
224
168
255
224
168
255
224
168
255
224
168
255
224
168
255
224
168
255
224
168
255
224
168
255
224
168
255
224
168
255
224
168
255
224
168
255
224
168
255
224
168
255
224
168
255
224
168
255
224
168
255
224
168
255
224
168
255
224
168
255
224
168
255
224
168
255
224
168
255
224
168
255
224
168
255
224
168
255
224
168
255
224
168
255
224
168
255
224
168
255
224
168
255
224
168
255
224
168
255
224
168
255
224
168
255
224
168
255
224
168
255
224
168
255
224
168
255
224
168
255
224
168
255
224
168
255
224
168
255
224
168
255
224
168
255
224
168
255
224
168
255
224
168
255
224
168
255
224
168
255
224
168
255
224
168
255
224
168
255
224
168
255
224
168
255
224
168
255
224
168
255
224
168
255
224
168
255
224
168
255
224
168
255
224
168
255
224
168
248
56
0
248
56
0
248
56
0
248
56
0
248
56
0
255
224
168
255
224
168
255
224
168
255
224
168
255
224
168
255
224
168
255
224
168
255
164
64
255
164
64
248
56
0
248
56
0
248
56
0
248
56
0
248
56
0
248
56
0
248
56
0
255
164
64
255
164
64
255
224
168
255
224
168
255
224
168
255
224
168
255
224
168
255
224
168
255
224
168
255
224
168
255
224
168
255
224
168
255
224
168
255
224
168
255
224
168
255
224
168
255
224
168
255
224
168
255
224
168
255
224
168
255
224
168
255
224
168
255
224
168
255
224
168
255
224
168
255
224
168
255
224
168
255
224
168
255
224
168
255
224
168
255
224
168
255
224
168
255
224
168
255
224
168
255
224
168
255
224
168
255
224
168
255
224
168
255
224
168
255
224
168
255
224
168
255
224
168
255
224
168
255
224
168
255
224
168
255
224
168
255
224
168
255
224
168
255
224
168
255
224
168
255
224
168
255
224
168
255
224
168
255
224
168
255
224
168
255
224
168
255
224
168
255
224
168
255
224
168
255
224
168
255
224
168
255
224
168
255
224
168
255
224
168
255
224
168
255
224
168
255
224
168
255
224
168
255
224
168
255
224
168
255
224
168
255
224
168
255
224
168
255
224
168
255
224
168
255
224
168
255
224
168
255
224
168
255
224
168
255
224
168
255
224
168
255
224
168
255
224
168
255
224
168
255
224
168
255
224
168
255
224
168
255
224
168
255
224
168
255
224
168
255
224
168
255
224
168
255
224
168
255
224
168
255
224
168
255
224
168
255
224
168
255
224
168
255
224
168
255
224
168
255
224
168
255
224
168
255
224
168
255
224
168
255
224
168
255
224
168
255
224
168
255
224
168
255
224
168
255
224
168
255
224
168
255
224
168
255
224
168
255
224
168
255
224
168
255
224
168
255
224
168
255
224
168
255
224
168
255
224
168
255
224
168
255
224
168
255
224
168
255
224
168
255
224
168
255
224
168
255
224
168
255
224
168
255
224
168
255
224
168
255
224
168
255
224
168
255
224
168
255
224
168
255
224
168
255
224
168
255
224
168
255
224
168
255
224
168
255
224
168
255
224
168
255
224
168
255
224
168
255
224
168
255
224
168
255
224
168
255
224
168
255
224
168
255
224
168
255
224
168
255
224
168
255
224
168
255
224
168
255
224
168
255
224
168
255
224
168
255
224
168
255
224
168
255
224
168
255
224
168
255
224
168
255
224
168
255
224
168
255
224
168
255
224
168
255
224
168
255
224
168
255
224
168
255
224
168
255
224
168
255
224
168
255
224
168
255
224
168
255
224
168
255
224
168
255
224
168
255
224
168
255
224
168
255
224
168
255
224
168
255
224
168
255
224
168
255
224
168
255
224
168
255
224
168
255
224
168
255
224
168
255
224
168
255
224
168
255
224
168
255
224
168
255
224
168
255
224
168
255
224
168
255
224
168
255
224
168
255
224
168
255
224
168
255
224
168
255
224
168
255
224
168
255
224
168
255
224
168
255
224
168
255
224
168
255
224
168
255
224
168
255
224
168
255
224
168
255
224
168
255
224
168
255
224
168
255
224
168
255
224
168
255
224
168
255
224
168
255
224
168
255
224
168
255
224
168
255
224
168
255
224
168
255
224
168
255
224
168
255
224
168
255
224
168
255
224
168
255
224
168
255
224
168
255
224
168
255
224
168
255
224
168
255
224
168
255
224
168
255
224
168
255
224
168
255
224
168
255
224
168
255
224
168
255
224
168
255
224
168
255
224
168
255
224
168
255
224
168
255
224
168
255
224
168
255
224
168
255
224
168
255
224
168
255
224
168
255
224
168
255
224
168
255
224
168
255
224
168
255
224
168
255
224
168
255
224
168
255
224
168
255
224
168
255
224
168
255
224
168
255
224
168
255
224
168
255
224
168
255
224
168
255
224
168
255
224
168
255
224
168
255
224
168
255
224
168
255
224
168
255
224
168
255
224
168
255
224
168
255
224
168
255
224
168
255
224
168
255
224
168
255
224
168
255
224
168
255
224
168
255
224
168
255
224
168
255
224
168
255
224
168
255
224
168
255
224
168
255
224
168
255
224
168
255
224
168
255
224
168
255
224
168
255
224
168
255
224
168
255
224
168
255
224
168
255
224
168
255
224
168
255
224
168
255
224
168
255
224
168
255
224
168
255
224
168
255
224
168
255
224
168
255
224
168
255
224
168
255
224
168
255
224
168
255
224
168
255
224
168
255
224
168
255
224
168
255
224
168
255
224
168
255
224
168
255
224
168
255
224
168
255
224
168
255
224
168
255
224
168
255
224
168
255
224
168
255
224
168
255
224
168
255
224
168
255
224
168
255
224
168
255
224
168
255
224
168
255
224
168
255
224
168
255
224
168
255
224
168
255
224
168
255
224
168
255
224
168
255
224
168
255
224
168
255
224
168
255
224
168
255
224
168
255
224
168
255
224
168
255
224
168
255
224
168
255
224
168
255
224
168
255
224
168
255
224
168
255
224
168
255
224
168
255
224
168
255
224
168
255
224
168
255
224
168
255
224
168
255
224
168
255
224
168
255
224
168
255
224
168
255
224
168
255
224
168
255
224
168
255
224
168
255
224
168
255
224
168
255
224
168
255
224
168
255
224
168
255
224
168
255
224
168
255
224
168
255
224
168
255
224
168
255
224
168
255
224
168
255
224
168
255
224
168
255
224
168
255
224
168
255
224
168
255
164
64
255
164
64
248
56
0
248
56
0
248
56
0
248
56
0
248
56
0
248
56
0
248
56
0
255
164
64
255
164
64
255
224
168
255
224
168
255
164
64
255
164
64
255
164
64
172
124
0
255
164
64
172
124
0
255
164
64
255
164
64
172
124
0
255
164
64
172
124
0
255
164
64
255
164
64
255
164
64
255
164
64
255
224
168
255
224
168
255
224
168
255
224
168
255
224
168
255
224
168
255
224
168
255
224
168
255
224
168
255
224
168
255
224
168
255
224
168
255
224
168
255
224
168
255
224
168
255
224
168
255
224
168
255
224
168
255
224
168
255
224
168
255
224
168
255
224
168
255
224
168
255
224
168
255
224
168
255
224
168
255
224
168
255
224
168
255
224
168
255
224
168
255
224
168
255
224
168
255
224
168
255
224
168
255
224
168
255
224
168
255
224
168
255
224
168
255
224
168
255
224
168
255
224
168
255
224
168
255
224
168
255
224
168
255
224
168
255
224
168
255
224
168
255
224
168
255
224
168
255
224
168
255
224
168
255
224
168
255
224
168
255
224
168
255
224
168
255
224
168
255
224
168
255
224
168
255
224
168
255
224
168
255
224
168
255
224
168
255
224
168
255
224
168
255
224
168
255
224
168
255
224
168
255
224
168
255
224
168
255
224
168
255
224
168
255
224
168
255
224
168
255
224
168
255
224
168
255
224
168
255
224
168
255
224
168
255
224
168
255
224
168
255
224
168
255
224
168
255
224
168
255
224
168
255
224
168
255
224
168
255
224
168
255
224
168
255
224
168
255
224
168
255
224
168
255
224
168
255
224
168
255
224
168
255
224
168
255
224
168
255
224
168
255
224
168
255
224
168
255
224
168
255
224
168
255
224
168
255
224
168
255
224
168
255
224
168
255
224
168
255
224
168
255
224
168
255
224
168
255
224
168
255
224
168
255
224
168
255
224
168
255
224
168
255
224
168
255
224
168
255
224
168
255
224
168
255
224
168
255
224
168
255
224
168
255
224
168
255
224
168
255
224
168
255
224
168
255
224
168
255
224
168
255
224
168
255
224
168
255
224
168
255
224
168
255
224
168
255
224
168
255
224
168
255
224
168
255
224
168
255
224
168
255
224
168
255
224
168
255
224
168
255
224
168
255
224
168
255
224
168
255
224
168
255
224
168
255
224
168
255
224
168
255
224
168
255
224
168
255
224
168
255
224
168
255
224
168
255
224
168
255
224
168
255
224
168
255
224
168
255
224
168
255
224
168
255
224
168
255
224
168
255
224
168
255
224
168
255
224
168
255
224
168
255
224
168
255
224
168
255
224
168
255
224
168
255
224
168
255
224
168
255
224
168
255
224
168
255
224
168
255
224
168
255
224
168
255
224
168
255
224
168
255
224
168
255
224
168
255
224
168
255
224
168
255
224
168
255
224
168
255
224
168
255
224
168
255
224
168
255
224
168
255
224
168
255
224
168
255
224
168
255
224
168
255
224
168
255
224
168
255
224
168
255
224
168
255
224
168
255
224
168
255
224
168
255
224
168
255
224
168
255
224
168
255
224
168
255
224
168
255
224
168
255
224
168
255
224
168
255
224
168
255
224
168
255
224
168
255
224
168
255
224
168
255
224
168
255
224
168
255
224
168
255
224
168
255
224
168
255
224
168
255
224
168
255
224
168
255
224
168
255
224
168
255
224
168
255
224
168
255
224
168
255
224
168
255
224
168
255
224
168
255
224
168
255
224
168
255
224
168
255
224
168
255
224
168
255
224
168
255
224
168
255
224
168
255
224
168
255
224
168
255
224
168
255
224
168
255
224
168
255
224
168
255
224
168
255
224
168
255
224
168
255
224
168
255
224
168
255
224
168
255
224
168
255
224
168
255
224
168
255
224
168
255
224
168
255
224
168
255
224
168
255
224
168
255
224
168
255
224
168
255
224
168
255
224
168
255
224
168
255
224
168
255
224
168
255
224
168
255
224
168
255
224
168
255
224
168
255
224
168
255
224
168
255
224
168
255
224
168
255
224
168
255
224
168
255
224
168
255
224
168
255
224
168
255
224
168
255
224
168
255
224
168
255
224
168
255
224
168
255
224
168
255
224
168
255
224
168
255
224
168
255
224
168
255
224
168
255
224
168
255
224
168
255
224
168
255
224
168
255
224
168
255
224
168
255
224
168
255
224
168
255
224
168
255
224
168
255
224
168
255
224
168
255
224
168
255
224
168
255
224
168
255
224
168
255
224
168
255
224
168
255
224
168
255
224
168
255
224
168
255
224
168
255
224
168
255
224
168
255
224
168
255
224
168
255
224
168
255
224
168
255
224
168
255
224
168
255
224
168
255
224
168
255
224
168
255
224
168
255
224
168
255
224
168
255
224
168
255
224
168
255
224
168
255
224
168
255
224
168
255
224
168
255
224
168
255
224
168
255
224
168
255
224
168
255
224
168
255
224
168
255
224
168
255
224
168
255
224
168
255
224
168
255
224
168
255
224
168
255
224
168
255
224
168
255
224
168
255
224
168
255
224
168
255
224
168
255
224
168
255
224
168
255
224
168
255
224
168
255
224
168
255
224
168
255
224
168
255
224
168
255
224
168
255
224
168
255
224
168
255
224
168
255
224
168
255
224
168
255
224
168
255
224
168
255
224
168
255
224
168
255
224
168
255
224
168
255
224
168
255
224
168
255
224
168
255
224
168
255
224
168
255
224
168
255
224
168
255
224
168
255
224
168
255
164
64
255
164
64
255
164
64
172
124
0
255
164
64
172
124
0
255
164
64
255
164
64
172
124
0
255
164
64
172
124
0
255
164
64
255
164
64
255
164
64
255
164
64
255
164
64
255
164
64
172
124
0
172
124
0
255
164
64
172
124
0
255
164
64
255
164
64
172
124
0
255
164
64
172
124
0
172
124
0
255
164
64
255
164
64
255
164
64
255
224
168
255
224
168
255
224
168
255
224
168
255
224
168
255
224
168
255
224
168
255
224
168
255
224
168
255
224
168
255
224
168
255
224
168
255
224
168
255
224
168
255
224
168
255
224
168
255
224
168
255
224
168
255
224
168
255
224
168
255
224
168
255
224
168
255
224
168
255
224
168
255
224
168
255
224
168
255
224
168
255
224
168
255
224
168
255
224
168
255
224
168
255
224
168
255
224
168
255
224
168
255
224
168
255
224
168
255
224
168
255
224
168
255
224
168
255
224
168
255
224
168
255
224
168
255
224
168
255
224
168
255
224
168
255
224
168
255
224
168
255
224
168
255
224
168
255
224
168
255
224
168
255
224
168
255
224
168
255
224
168
255
224
168
255
224
168
255
224
168
255
224
168
255
224
168
255
224
168
255
224
168
255
224
168
255
224
168
255
224
168
255
224
168
255
224
168
255
224
168
255
224
168
255
224
168
255
224
168
255
224
168
255
224
168
255
224
168
255
224
168
255
224
168
255
224
168
255
224
168
255
224
168
255
224
168
255
224
168
255
224
168
255
224
168
255
224
168
255
224
168
255
224
168
255
224
168
255
224
168
255
224
168
255
224
168
255
224
168
255
224
168
255
224
168
255
224
168
255
224
168
255
224
168
255
224
168
255
224
168
255
224
168
255
224
168
255
224
168
255
224
168
255
224
168
255
224
168
255
224
168
255
224
168
255
224
168
255
224
168
255
224
168
255
224
168
255
224
168
255
224
168
255
224
168
255
224
168
255
224
168
255
224
168
255
224
168
255
224
168
255
224
168
255
224
168
255
224
168
255
224
168
255
224
168
255
224
168
255
224
168
255
224
168
255
224
168
255
224
168
255
224
168
255
224
168
255
224
168
255
224
168
255
224
168
255
224
168
255
224
168
255
224
168
255
224
168
255
224
168
255
224
168
255
224
168
255
224
168
255
224
168
255
224
168
255
224
168
255
224
168
255
224
168
255
224
168
255
224
168
255
224
168
255
224
168
255
224
168
255
224
168
255
224
168
255
224
168
255
224
168
255
224
168
255
224
168
255
224
168
255
224
168
255
224
168
255
224
168
255
224
168
255
224
168
255
224
168
255
224
168
255
224
168
255
224
168
255
224
168
255
224
168
255
224
168
255
224
168
255
224
168
255
224
168
255
224
168
255
224
168
255
224
168
255
224
168
255
224
168
255
224
168
255
224
168
255
224
168
255
224
168
255
224
168
255
224
168
255
224
168
255
224
168
255
224
168
255
224
168
255
224
168
255
224
168
255
224
168
255
224
168
255
224
168
255
224
168
255
224
168
255
224
168
255
224
168
255
224
168
255
224
168
255
224
168
255
224
168
255
224
168
255
224
168
255
224
168
255
224
168
255
224
168
255
224
168
255
224
168
255
224
168
255
224
168
255
224
168
255
224
168
255
224
168
255
224
168
255
224
168
255
224
168
255
224
168
255
224
168
255
224
168
255
224
168
255
224
168
255
224
168
255
224
168
255
224
168
255
224
168
255
224
168
255
224
168
255
224
168
255
224
168
255
224
168
255
224
168
255
224
168
255
224
168
255
224
168
255
224
168
255
224
168
255
224
168
255
224
168
255
224
168
255
224
168
255
224
168
255
224
168
255
224
168
255
224
168
255
224
168
255
224
168
255
224
168
255
224
168
255
224
168
255
224
168
255
224
168
255
224
168
255
224
168
255
224
168
255
224
168
255
224
168
255
224
168
255
224
168
255
224
168
255
224
168
255
224
168
255
224
168
255
224
168
255
224
168
255
224
168
255
224
168
255
224
168
255
224
168
255
224
168
255
224
168
255
224
168
255
224
168
255
224
168
255
224
168
255
224
168
255
224
168
255
224
168
255
224
168
255
224
168
255
224
168
255
224
168
255
224
168
255
224
168
255
224
168
255
224
168
255
224
168
255
224
168
255
224
168
255
224
168
255
224
168
255
224
168
255
224
168
255
224
168
255
224
168
255
224
168
255
224
168
255
224
168
255
224
168
255
224
168
255
224
168
255
224
168
255
224
168
255
224
168
255
224
168
255
224
168
255
224
168
255
224
168
255
224
168
255
224
168
255
224
168
255
224
168
255
224
168
255
224
168
255
224
168
255
224
168
255
224
168
255
224
168
255
224
168
255
224
168
255
224
168
255
224
168
255
224
168
255
224
168
255
224
168
255
224
168
255
224
168
255
224
168
255
224
168
255
224
168
255
224
168
255
224
168
255
224
168
255
224
168
255
224
168
255
224
168
255
224
168
255
224
168
255
224
168
255
224
168
255
224
168
255
224
168
255
224
168
255
224
168
255
224
168
255
224
168
255
224
168
255
224
168
255
224
168
255
224
168
255
224
168
255
224
168
255
224
168
255
224
168
255
224
168
255
224
168
255
224
168
255
224
168
255
224
168
255
224
168
255
224
168
255
224
168
255
224
168
255
224
168
255
224
168
255
224
168
255
224
168
255
224
168
255
224
168
255
224
168
255
224
168
255
224
168
255
224
168
255
224
168
255
224
168
255
224
168
255
224
168
255
164
64
255
164
64
172
124
0
172
124
0
255
164
64
172
124
0
255
164
64
255
164
64
172
124
0
255
164
64
172
124
0
172
124
0
255
164
64
255
164
64
255
164
64
255
164
64
255
164
64
172
124
0
172
124
0
172
124
0
255
164
64
255
164
64
255
164
64
255
164
64
172
124
0
172
124
0
172
124
0
255
164
64
255
164
64
255
164
64
255
224
168
255
224
168
255
224
168
255
224
168
255
224
168
255
224
168
255
224
168
255
224
168
255
224
168
255
224
168
255
224
168
255
224
168
255
224
168
255
224
168
255
224
168
255
224
168
255
224
168
255
224
168
255
224
168
255
224
168
255
224
168
255
224
168
255
224
168
255
224
168
255
224
168
255
224
168
255
224
168
255
224
168
255
224
168
255
224
168
255
224
168
255
224
168
255
224
168
255
224
168
255
224
168
255
224
168
255
224
168
255
224
168
255
224
168
255
224
168
255
224
168
255
224
168
255
224
168
255
224
168
255
224
168
255
224
168
255
224
168
255
224
168
255
224
168
255
224
168
255
224
168
255
224
168
255
224
168
255
224
168
255
224
168
255
224
168
255
224
168
255
224
168
255
224
168
255
224
168
255
224
168
255
224
168
255
224
168
255
224
168
255
224
168
255
224
168
255
224
168
255
224
168
255
224
168
255
224
168
255
224
168
255
224
168
255
224
168
255
224
168
255
224
168
255
224
168
255
224
168
255
224
168
255
224
168
255
224
168
255
224
168
255
224
168
255
224
168
255
224
168
255
224
168
255
224
168
255
224
168
255
224
168
255
224
168
255
224
168
255
224
168
255
224
168
255
224
168
255
224
168
255
224
168
255
224
168
255
224
168
255
224
168
255
224
168
255
224
168
255
224
168
255
224
168
255
224
168
255
224
168
255
224
168
255
224
168
255
224
168
255
224
168
255
224
168
255
224
168
255
224
168
255
224
168
255
224
168
255
224
168
255
224
168
255
224
168
255
224
168
255
224
168
255
224
168
255
224
168
255
224
168
255
224
168
255
224
168
255
224
168
255
224
168
255
224
168
255
224
168
255
224
168
255
224
168
255
224
168
255
224
168
255
224
168
255
224
168
255
224
168
255
224
168
255
224
168
255
224
168
255
224
168
255
224
168
255
224
168
255
224
168
255
224
168
255
224
168
255
224
168
255
224
168
255
224
168
255
224
168
255
224
168
255
224
168
255
224
168
255
224
168
255
224
168
255
224
168
255
224
168
255
224
168
255
224
168
255
224
168
255
224
168
255
224
168
255
224
168
255
224
168
255
224
168
255
224
168
255
224
168
255
224
168
255
224
168
255
224
168
255
224
168
255
224
168
255
224
168
255
224
168
255
224
168
255
224
168
255
224
168
255
224
168
255
224
168
255
224
168
255
224
168
255
224
168
255
224
168
255
224
168
255
224
168
255
224
168
255
224
168
255
224
168
255
224
168
255
224
168
255
224
168
255
224
168
255
224
168
255
224
168
255
224
168
255
224
168
255
224
168
255
224
168
255
224
168
255
224
168
255
224
168
255
224
168
255
224
168
255
224
168
255
224
168
255
224
168
255
224
168
255
224
168
255
224
168
255
224
168
255
224
168
255
224
168
255
224
168
255
224
168
255
224
168
255
224
168
255
224
168
255
224
168
255
224
168
255
224
168
255
224
168
255
224
168
255
224
168
255
224
168
255
224
168
255
224
168
255
224
168
255
224
168
255
224
168
255
224
168
255
224
168
255
224
168
255
224
168
255
224
168
255
224
168
255
224
168
255
224
168
255
224
168
255
224
168
255
224
168
255
224
168
255
224
168
255
224
168
255
224
168
255
224
168
255
224
168
255
224
168
255
224
168
255
224
168
255
224
168
255
224
168
255
224
168
255
224
168
255
224
168
255
224
168
255
224
168
255
224
168
255
224
168
255
224
168
255
224
168
255
224
168
255
224
168
255
224
168
255
224
168
255
224
168
255
224
168
255
224
168
255
224
168
255
224
168
255
224
168
255
224
168
255
224
168
255
224
168
255
224
168
255
224
168
255
224
168
255
224
168
255
224
168
255
224
168
255
224
168
255
224
168
255
224
168
255
224
168
255
224
168
255
224
168
255
224
168
255
224
168
255
224
168
255
224
168
255
224
168
255
224
168
255
224
168
255
224
168
255
224
168
255
224
168
255
224
168
255
224
168
255
224
168
255
224
168
255
224
168
255
224
168
255
224
168
255
224
168
255
224
168
255
224
168
255
224
168
255
224
168
255
224
168
255
224
168
255
224
168
255
224
168
255
224
168
255
224
168
255
224
168
255
224
168
255
224
168
255
224
168
255
224
168
255
224
168
255
224
168
255
224
168
255
224
168
255
224
168
255
224
168
255
224
168
255
224
168
255
224
168
255
224
168
255
224
168
255
224
168
255
224
168
255
224
168
255
224
168
255
224
168
255
224
168
255
224
168
255
224
168
255
224
168
255
224
168
255
224
168
255
224
168
255
224
168
255
224
168
255
224
168
255
224
168
255
224
168
255
224
168
255
224
168
255
224
168
255
224
168
255
224
168
255
224
168
255
224
168
255
224
168
255
224
168
255
224
168
255
224
168
255
224
168
255
224
168
255
224
168
255
224
168
255
224
168
255
224
168
255
224
168
255
224
168
255
224
168
255
224
168
255
224
168
255
224
168
255
224
168
255
224
168
255
224
168
255
224
168
255
224
168
255
224
168
255
224
168
255
224
168
255
224
168
255
164
64
255
164
64
172
124
0
172
124
0
172
124
0
255
164
64
255
164
64
255
164
64
255
164
64
172
124
0
172
124
0
172
124
0
255
164
64
255
164
64
255
164
64
255
224
168
255
224
168
172
124
0
172
124
0
172
124
0
172
124
0
255
164
64
255
164
64
172
124
0
172
124
0
172
124
0
172
124
0
172
124
0
255
224
168
255
224
168
255
224
168
255
224
168
255
224
168
255
224
168
255
224
168
255
224
168
255
224
168
255
224
168
255
224
168
255
224
168
255
224
168
255
224
168
255
224
168
255
224
168
255
224
168
255
224
168
255
224
168
255
224
168
255
224
168
255
224
168
255
224
168
255
224
168
255
224
168
255
224
168
255
224
168
255
224
168
255
224
168
255
224
168
255
224
168
255
224
168
255
224
168
255
224
168
255
224
168
255
224
168
255
224
168
255
224
168
255
224
168
255
224
168
255
224
168
255
224
168
255
224
168
255
224
168
255
224
168
255
224
168
255
224
168
255
224
168
255
224
168
255
224
168
255
224
168
255
224
168
255
224
168
255
224
168
255
224
168
255
224
168
255
224
168
255
224
168
255
224
168
255
224
168
255
224
168
255
224
168
255
224
168
255
224
168
255
224
168
255
224
168
255
224
168
255
224
168
255
224
168
255
224
168
255
224
168
255
224
168
255
224
168
255
224
168
255
224
168
255
224
168
255
224
168
255
224
168
255
224
168
255
224
168
255
224
168
255
224
168
255
224
168
255
224
168
255
224
168
255
224
168
255
224
168
255
224
168
255
224
168
255
224
168
255
224
168
255
224
168
255
224
168
255
224
168
255
224
168
255
224
168
255
224
168
255
224
168
255
224
168
255
224
168
255
224
168
255
224
168
255
224
168
255
224
168
255
224
168
255
224
168
255
224
168
255
224
168
255
224
168
255
224
168
255
224
168
255
224
168
255
224
168
255
224
168
255
224
168
255
224
168
255
224
168
255
224
168
255
224
168
255
224
168
255
224
168
255
224
168
255
224
168
255
224
168
255
224
168
255
224
168
255
224
168
255
224
168
255
224
168
255
224
168
255
224
168
255
224
168
255
224
168
255
224
168
255
224
168
255
224
168
255
224
168
255
224
168
255
224
168
255
224
168
255
224
168
255
224
168
255
224
168
255
224
168
255
224
168
255
224
168
255
224
168
255
224
168
255
224
168
255
224
168
255
224
168
255
224
168
255
224
168
255
224
168
255
224
168
255
224
168
255
224
168
255
224
168
255
224
168
255
224
168
255
224
168
255
224
168
255
224
168
255
224
168
255
224
168
255
224
168
255
224
168
255
224
168
255
224
168
255
224
168
255
224
168
255
224
168
255
224
168
255
224
168
255
224
168
255
224
168
255
224
168
255
224
168
255
224
168
255
224
168
255
224
168
255
224
168
255
224
168
255
224
168
255
224
168
255
224
168
255
224
168
255
224
168
255
224
168
255
224
168
255
224
168
255
224
168
255
224
168
255
224
168
255
224
168
255
224
168
255
224
168
255
224
168
255
224
168
255
224
168
255
224
168
255
224
168
255
224
168
255
224
168
255
224
168
255
224
168
255
224
168
255
224
168
255
224
168
255
224
168
255
224
168
255
224
168
255
224
168
255
224
168
255
224
168
255
224
168
255
224
168
255
224
168
255
224
168
255
224
168
255
224
168
255
224
168
255
224
168
255
224
168
255
224
168
255
224
168
255
224
168
255
224
168
255
224
168
255
224
168
255
224
168
255
224
168
255
224
168
255
224
168
255
224
168
255
224
168
255
224
168
255
224
168
255
224
168
255
224
168
255
224
168
255
224
168
255
224
168
255
224
168
255
224
168
255
224
168
255
224
168
255
224
168
255
224
168
255
224
168
255
224
168
255
224
168
255
224
168
255
224
168
255
224
168
255
224
168
255
224
168
255
224
168
255
224
168
255
224
168
255
224
168
255
224
168
255
224
168
255
224
168
255
224
168
255
224
168
255
224
168
255
224
168
255
224
168
255
224
168
255
224
168
255
224
168
255
224
168
255
224
168
255
224
168
255
224
168
255
224
168
255
224
168
255
224
168
255
224
168
255
224
168
255
224
168
255
224
168
255
224
168
255
224
168
255
224
168
255
224
168
255
224
168
255
224
168
255
224
168
255
224
168
255
224
168
255
224
168
255
224
168
255
224
168
255
224
168
255
224
168
255
224
168
255
224
168
255
224
168
255
224
168
255
224
168
255
224
168
255
224
168
255
224
168
255
224
168
255
224
168
255
224
168
255
224
168
255
224
168
255
224
168
255
224
168
255
224
168
255
224
168
255
224
168
255
224
168
255
224
168
255
224
168
255
224
168
255
224
168
255
224
168
255
224
168
255
224
168
255
224
168
255
224
168
255
224
168
255
224
168
255
224
168
255
224
168
255
224
168
255
224
168
255
224
168
255
224
168
255
224
168
255
224
168
255
224
168
255
224
168
255
224
168
255
224
168
255
224
168
255
224
168
255
224
168
255
224
168
255
224
168
255
224
168
255
224
168
255
224
168
255
224
168
255
224
168
255
224
168
255
224
168
255
224
168
255
224
168
255
224
168
255
224
168
255
224
168
255
224
168
255
224
168
255
224
168
255
224
168
255
224
168
255
224
168
255
224
168
255
224
168
255
224
168
255
224
168
255
224
168
255
224
168
255
224
168
255
224
168
255
224
168
255
224
168
255
224
168
255
224
168
255
224
168
255
224
168
255
224
168
255
224
168
255
224
168
172
124
0
172
124
0
172
124
0
172
124
0
255
164
64
255
164
64
172
124
0
172
124
0
172
124
0
172
124
0
172
124
0
255
224
168
255
224
168
255
224
168
255
224
168
255
224
168
172
124
0
255
164
64
172
124
0
172
124
0
172
124
0
172
124
0
255
164
64
172
124
0
172
124
0
255
224
168
255
224
168
255
224
168
255
224
168
255
224
168
255
224
168
255
224
168
255
224
168
255
224
168
255
224
168
255
224
168
255
224
168
255
224
168
255
224
168
255
224
168
255
224
168
255
224
168
255
224
168
255
224
168
255
224
168
255
224
168
255
224
168
255
224
168
255
224
168
255
224
168
255
224
168
255
224
168
255
224
168
255
224
168
255
224
168
255
224
168
255
224
168
255
224
168
255
224
168
255
224
168
255
224
168
255
224
168
255
224
168
255
224
168
255
224
168
255
224
168
255
224
168
255
224
168
255
224
168
255
224
168
255
224
168
255
224
168
255
224
168
255
224
168
255
224
168
255
224
168
255
224
168
255
224
168
255
224
168
255
224
168
255
224
168
255
224
168
255
224
168
255
224
168
255
224
168
255
224
168
255
224
168
255
224
168
255
224
168
255
224
168
255
224
168
255
224
168
255
224
168
255
224
168
255
224
168
255
224
168
255
224
168
255
224
168
255
224
168
255
224
168
255
224
168
255
224
168
255
224
168
255
224
168
255
224
168
255
224
168
255
224
168
255
224
168
255
224
168
255
224
168
255
224
168
255
224
168
255
224
168
255
224
168
255
224
168
255
224
168
255
224
168
255
224
168
255
224
168
255
224
168
255
224
168
255
224
168
255
224
168
255
224
168
255
224
168
255
224
168
255
224
168
255
224
168
255
224
168
255
224
168
255
224
168
255
224
168
255
224
168
255
224
168
255
224
168
255
224
168
255
224
168
255
224
168
255
224
168
255
224
168
255
224
168
255
224
168
255
224
168
255
224
168
255
224
168
255
224
168
255
224
168
255
224
168
255
224
168
255
224
168
255
224
168
255
224
168
255
224
168
255
224
168
255
224
168
255
224
168
255
224
168
255
224
168
255
224
168
255
224
168
255
224
168
255
224
168
255
224
168
255
224
168
255
224
168
255
224
168
255
224
168
255
224
168
255
224
168
255
224
168
255
224
168
255
224
168
255
224
168
255
224
168
255
224
168
255
224
168
255
224
168
255
224
168
255
224
168
255
224
168
255
224
168
255
224
168
255
224
168
255
224
168
255
224
168
255
224
168
255
224
168
255
224
168
255
224
168
255
224
168
255
224
168
255
224
168
255
224
168
255
224
168
255
224
168
255
224
168
255
224
168
255
224
168
255
224
168
255
224
168
255
224
168
255
224
168
255
224
168
255
224
168
255
224
168
255
224
168
255
224
168
255
224
168
255
224
168
255
224
168
255
224
168
255
224
168
255
224
168
255
224
168
255
224
168
255
224
168
255
224
168
255
224
168
255
224
168
255
224
168
255
224
168
255
224
168
255
224
168
255
224
168
255
224
168
255
224
168
255
224
168
255
224
168
255
224
168
255
224
168
255
224
168
255
224
168
255
224
168
255
224
168
255
224
168
255
224
168
255
224
168
255
224
168
255
224
168
255
224
168
255
224
168
255
224
168
255
224
168
255
224
168
255
224
168
255
224
168
255
224
168
255
224
168
255
224
168
255
224
168
255
224
168
255
224
168
255
224
168
255
224
168
255
224
168
255
224
168
255
224
168
255
224
168
255
224
168
255
224
168
255
224
168
255
224
168
255
224
168
255
224
168
255
224
168
255
224
168
255
224
168
255
224
168
255
224
168
255
224
168
255
224
168
255
224
168
255
224
168
255
224
168
255
224
168
255
224
168
255
224
168
255
224
168
255
224
168
255
224
168
255
224
168
255
224
168
255
224
168
255
224
168
255
224
168
255
224
168
255
224
168
255
224
168
255
224
168
255
224
168
255
224
168
255
224
168
255
224
168
255
224
168
255
224
168
255
224
168
255
224
168
255
224
168
255
224
168
255
224
168
255
224
168
255
224
168
255
224
168
255
224
168
255
224
168
255
224
168
255
224
168
255
224
168
255
224
168
255
224
168
255
224
168
255
224
168
255
224
168
255
224
168
255
224
168
255
224
168
255
224
168
255
224
168
255
224
168
255
224
168
255
224
168
255
224
168
255
224
168
255
224
168
255
224
168
255
224
168
255
224
168
255
224
168
255
224
168
255
224
168
255
224
168
255
224
168
255
224
168
255
224
168
255
224
168
255
224
168
255
224
168
255
224
168
255
224
168
255
224
168
255
224
168
255
224
168
255
224
168
255
224
168
255
224
168
255
224
168
255
224
168
255
224
168
255
224
168
255
224
168
255
224
168
255
224
168
255
224
168
255
224
168
255
224
168
255
224
168
255
224
168
255
224
168
255
224
168
255
224
168
255
224
168
255
224
168
255
224
168
255
224
168
255
224
168
255
224
168
255
224
168
255
224
168
255
224
168
255
224
168
255
224
168
255
224
168
255
224
168
255
224
168
255
224
168
255
224
168
255
224
168
255
224
168
255
224
168
255
224
168
255
224
168
255
224
168
255
224
168
255
224
168
255
224
168
255
224
168
255
224
168
255
224
168
255
224
168
255
224
168
255
224
168
255
224
168
255
224
168
255
224
168
255
224
168
255
224
168
255
224
168
255
224
168
255
224
168
255
224
168
255
224
168
255
224
168
255
224
168
255
224
168
255
224
168
255
224
168
172
124
0
255
164
64
172
124
0
172
124
0
172
124
0
172
124
0
255
164
64
172
124
0
172
124
0
255
224
168
255
224
168
255
224
168
255
224
168
255
224
168
255
224
168
172
124
0
255
164
64
255
164
64
255
164
64
255
164
64
255
164
64
255
164
64
172
124
0
172
124
0
255
224
168
255
224
168
255
224
168
255
224
168
255
224
168
255
224
168
255
224
168
255
224
168
255
224
168
255
224
168
255
224
168
255
224
168
255
224
168
255
224
168
255
224
168
255
224
168
255
224
168
255
224
168
255
224
168
255
224
168
255
224
168
255
224
168
255
224
168
255
224
168
255
224
168
255
224
168
255
224
168
255
224
168
255
224
168
255
224
168
255
224
168
255
224
168
255
224
168
255
224
168
255
224
168
255
224
168
255
224
168
255
224
168
255
224
168
255
224
168
255
224
168
255
224
168
255
224
168
255
224
168
255
224
168
255
224
168
255
224
168
255
224
168
255
224
168
255
224
168
255
224
168
255
224
168
255
224
168
255
224
168
255
224
168
255
224
168
255
224
168
255
224
168
255
224
168
255
224
168
255
224
168
255
224
168
255
224
168
255
224
168
255
224
168
255
224
168
255
224
168
255
224
168
255
224
168
255
224
168
255
224
168
255
224
168
255
224
168
255
224
168
255
224
168
255
224
168
255
224
168
255
224
168
255
224
168
255
224
168
255
224
168
255
224
168
255
224
168
255
224
168
255
224
168
255
224
168
255
224
168
255
224
168
255
224
168
255
224
168
255
224
168
255
224
168
255
224
168
255
224
168
255
224
168
255
224
168
255
224
168
255
224
168
255
224
168
255
224
168
255
224
168
255
224
168
255
224
168
255
224
168
255
224
168
255
224
168
255
224
168
255
224
168
255
224
168
255
224
168
255
224
168
255
224
168
255
224
168
255
224
168
255
224
168
255
224
168
255
224
168
255
224
168
255
224
168
255
224
168
255
224
168
255
224
168
255
224
168
255
224
168
255
224
168
255
224
168
255
224
168
255
224
168
255
224
168
255
224
168
255
224
168
255
224
168
255
224
168
255
224
168
255
224
168
255
224
168
255
224
168
255
224
168
255
224
168
255
224
168
255
224
168
255
224
168
255
224
168
255
224
168
255
224
168
255
224
168
255
224
168
255
224
168
255
224
168
255
224
168
255
224
168
255
224
168
255
224
168
255
224
168
255
224
168
255
224
168
255
224
168
255
224
168
255
224
168
255
224
168
255
224
168
255
224
168
255
224
168
255
224
168
255
224
168
255
224
168
255
224
168
255
224
168
255
224
168
255
224
168
255
224
168
255
224
168
255
224
168
255
224
168
255
224
168
255
224
168
255
224
168
255
224
168
255
224
168
255
224
168
255
224
168
255
224
168
255
224
168
255
224
168
255
224
168
255
224
168
255
224
168
255
224
168
255
224
168
255
224
168
255
224
168
255
224
168
255
224
168
255
224
168
255
224
168
255
224
168
255
224
168
255
224
168
255
224
168
255
224
168
255
224
168
255
224
168
255
224
168
255
224
168
255
224
168
255
224
168
255
224
168
255
224
168
255
224
168
255
224
168
255
224
168
255
224
168
255
224
168
255
224
168
255
224
168
255
224
168
255
224
168
255
224
168
255
224
168
255
224
168
255
224
168
255
224
168
255
224
168
255
224
168
255
224
168
255
224
168
255
224
168
255
224
168
255
224
168
255
224
168
255
224
168
255
224
168
255
224
168
255
224
168
255
224
168
255
224
168
255
224
168
255
224
168
255
224
168
255
224
168
255
224
168
255
224
168
255
224
168
255
224
168
255
224
168
255
224
168
255
224
168
255
224
168
255
224
168
255
224
168
255
224
168
255
224
168
255
224
168
255
224
168
255
224
168
255
224
168
255
224
168
255
224
168
255
224
168
255
224
168
255
224
168
255
224
168
255
224
168
255
224
168
255
224
168
255
224
168
255
224
168
255
224
168
255
224
168
255
224
168
255
224
168
255
224
168
255
224
168
255
224
168
255
224
168
255
224
168
255
224
168
255
224
168
255
224
168
255
224
168
255
224
168
255
224
168
255
224
168
255
224
168
255
224
168
255
224
168
255
224
168
255
224
168
255
224
168
255
224
168
255
224
168
255
224
168
255
224
168
255
224
168
255
224
168
255
224
168
255
224
168
255
224
168
255
224
168
255
224
168
255
224
168
255
224
168
255
224
168
255
224
168
255
224
168
255
224
168
255
224
168
255
224
168
255
224
168
255
224
168
255
224
168
255
224
168
255
224
168
255
224
168
255
224
168
255
224
168
255
224
168
255
224
168
255
224
168
255
224
168
255
224
168
255
224
168
255
224
168
255
224
168
255
224
168
255
224
168
255
224
168
255
224
168
255
224
168
255
224
168
255
224
168
255
224
168
255
224
168
255
224
168
255
224
168
255
224
168
255
224
168
255
224
168
255
224
168
255
224
168
255
224
168
255
224
168
255
224
168
255
224
168
255
224
168
255
224
168
255
224
168
255
224
168
255
224
168
255
224
168
255
224
168
255
224
168
255
224
168
255
224
168
255
224
168
255
224
168
255
224
168
255
224
168
255
224
168
255
224
168
255
224
168
255
224
168
255
224
168
255
224
168
255
224
168
255
224
168
255
224
168
255
224
168
255
224
168
255
224
168
255
224
168
255
224
168
255
224
168
255
224
168
255
224
168
255
224
168
255
224
168
255
224
168
255
224
168
255
224
168
255
224
168
172
124
0
255
164
64
255
164
64
255
164
64
255
164
64
255
164
64
255
164
64
172
124
0
172
124
0
255
224
168
255
224
168
255
224
168
255
224
168
255
224
168
248
56
0
248
56
0
248
56
0
255
164
64
255
164
64
255
164
64
255
164
64
248
56
0
248
56
0
248
56
0
248
56
0
255
224
168
255
224
168
255
224
168
255
224
168
255
224
168
255
224
168
255
224
168
255
224
168
255
224
168
255
224
168
255
224
168
255
224
168
255
224
168
255
224
168
255
224
168
255
224
168
255
224
168
255
224
168
255
224
168
255
224
168
255
224
168
255
224
168
255
224
168
255
224
168
255
224
168
255
224
168
255
224
168
255
224
168
255
224
168
255
224
168
255
224
168
255
224
168
255
224
168
255
224
168
255
224
168
255
224
168
255
224
168
255
224
168
255
224
168
255
224
168
255
224
168
255
224
168
255
224
168
255
224
168
255
224
168
255
224
168
255
224
168
255
224
168
255
224
168
255
224
168
255
224
168
255
224
168
255
224
168
255
224
168
255
224
168
255
224
168
255
224
168
255
224
168
255
224
168
255
224
168
255
224
168
255
224
168
255
224
168
255
224
168
255
224
168
255
224
168
255
224
168
255
224
168
255
224
168
255
224
168
255
224
168
255
224
168
255
224
168
255
224
168
255
224
168
255
224
168
255
224
168
255
224
168
255
224
168
255
224
168
255
224
168
255
224
168
255
224
168
255
224
168
255
224
168
255
224
168
255
224
168
255
224
168
255
224
168
255
224
168
255
224
168
255
224
168
255
224
168
255
224
168
255
224
168
255
224
168
255
224
168
255
224
168
255
224
168
255
224
168
255
224
168
255
224
168
255
224
168
255
224
168
255
224
168
255
224
168
255
224
168
255
224
168
255
224
168
255
224
168
255
224
168
255
224
168
255
224
168
255
224
168
255
224
168
255
224
168
255
224
168
255
224
168
255
224
168
255
224
168
255
224
168
255
224
168
255
224
168
255
224
168
255
224
168
255
224
168
255
224
168
255
224
168
255
224
168
255
224
168
255
224
168
255
224
168
255
224
168
255
224
168
255
224
168
255
224
168
255
224
168
255
224
168
255
224
168
255
224
168
255
224
168
255
224
168
255
224
168
255
224
168
255
224
168
255
224
168
255
224
168
255
224
168
255
224
168
255
224
168
255
224
168
255
224
168
255
224
168
255
224
168
255
224
168
255
224
168
255
224
168
255
224
168
255
224
168
255
224
168
255
224
168
255
224
168
255
224
168
255
224
168
255
224
168
255
224
168
255
224
168
255
224
168
255
224
168
255
224
168
255
224
168
255
224
168
255
224
168
255
224
168
255
224
168
255
224
168
255
224
168
255
224
168
255
224
168
255
224
168
255
224
168
255
224
168
255
224
168
255
224
168
255
224
168
255
224
168
255
224
168
255
224
168
255
224
168
255
224
168
255
224
168
255
224
168
255
224
168
255
224
168
255
224
168
255
224
168
255
224
168
255
224
168
255
224
168
255
224
168
255
224
168
255
224
168
255
224
168
255
224
168
255
224
168
255
224
168
255
224
168
255
224
168
255
224
168
255
224
168
255
224
168
255
224
168
255
224
168
255
224
168
255
224
168
255
224
168
255
224
168
255
224
168
255
224
168
255
224
168
255
224
168
255
224
168
255
224
168
255
224
168
255
224
168
255
224
168
255
224
168
255
224
168
255
224
168
255
224
168
255
224
168
255
224
168
255
224
168
255
224
168
255
224
168
255
224
168
255
224
168
255
224
168
255
224
168
255
224
168
255
224
168
255
224
168
255
224
168
255
224
168
255
224
168
255
224
168
255
224
168
255
224
168
255
224
168
255
224
168
255
224
168
255
224
168
255
224
168
255
224
168
255
224
168
255
224
168
255
224
168
255
224
168
255
224
168
255
224
168
255
224
168
255
224
168
255
224
168
255
224
168
255
224
168
255
224
168
255
224
168
255
224
168
255
224
168
255
224
168
255
224
168
255
224
168
255
224
168
255
224
168
255
224
168
255
224
168
255
224
168
255
224
168
255
224
168
255
224
168
255
224
168
255
224
168
255
224
168
255
224
168
255
224
168
255
224
168
255
224
168
255
224
168
255
224
168
255
224
168
255
224
168
255
224
168
255
224
168
255
224
168
255
224
168
255
224
168
255
224
168
255
224
168
255
224
168
255
224
168
255
224
168
255
224
168
255
224
168
255
224
168
255
224
168
255
224
168
255
224
168
255
224
168
255
224
168
255
224
168
255
224
168
255
224
168
255
224
168
255
224
168
255
224
168
255
224
168
255
224
168
255
224
168
255
224
168
255
224
168
255
224
168
255
224
168
255
224
168
255
224
168
255
224
168
255
224
168
255
224
168
255
224
168
255
224
168
255
224
168
255
224
168
255
224
168
255
224
168
255
224
168
255
224
168
255
224
168
255
224
168
255
224
168
255
224
168
255
224
168
255
224
168
255
224
168
255
224
168
255
224
168
255
224
168
255
224
168
255
224
168
255
224
168
255
224
168
255
224
168
255
224
168
255
224
168
255
224
168
255
224
168
255
224
168
255
224
168
255
224
168
255
224
168
255
224
168
255
224
168
255
224
168
255
224
168
255
224
168
255
224
168
255
224
168
255
224
168
255
224
168
255
224
168
255
224
168
255
224
168
255
224
168
255
224
168
255
224
168
255
224
168
255
224
168
255
224
168
255
224
168
255
224
168
255
224
168
248
56
0
248
56
0
248
56
0
255
164
64
255
164
64
255
164
64
255
164
64
248
56
0
248
56
0
248
56
0
248
56
0
255
224
168
255
224
168
255
224
168
172
124
0
172
124
0
248
56
0
248
56
0
172
124
0
172
124
0
172
124
0
172
124
0
248
56
0
248
56
0
172
124
0
172
124
0
172
124
0
255
224
168
255
224
168
255
224
168
255
224
168
255
224
168
255
224
168
255
224
168
255
224
168
255
224
168
255
224
168
255
224
168
255
224
168
255
224
168
255
224
168
255
224
168
255
224
168
255
224
168
255
224
168
255
224
168
255
224
168
255
224
168
255
224
168
255
224
168
255
224
168
255
224
168
255
224
168
255
224
168
255
224
168
255
224
168
255
224
168
255
224
168
255
224
168
255
224
168
255
224
168
255
224
168
255
224
168
255
224
168
255
224
168
255
224
168
255
224
168
255
224
168
255
224
168
255
224
168
255
224
168
255
224
168
255
224
168
255
224
168
255
224
168
255
224
168
255
224
168
255
224
168
255
224
168
255
224
168
255
224
168
255
224
168
255
224
168
255
224
168
255
224
168
255
224
168
255
224
168
255
224
168
255
224
168
255
224
168
255
224
168
255
224
168
255
224
168
255
224
168
255
224
168
255
224
168
255
224
168
255
224
168
255
224
168
255
224
168
255
224
168
255
224
168
255
224
168
255
224
168
255
224
168
255
224
168
255
224
168
255
224
168
255
224
168
255
224
168
255
224
168
255
224
168
255
224
168
255
224
168
255
224
168
255
224
168
255
224
168
255
224
168
255
224
168
255
224
168
255
224
168
255
224
168
255
224
168
255
224
168
255
224
168
255
224
168
255
224
168
255
224
168
255
224
168
255
224
168
255
224
168
255
224
168
255
224
168
255
224
168
255
224
168
255
224
168
255
224
168
255
224
168
255
224
168
255
224
168
255
224
168
255
224
168
255
224
168
255
224
168
255
224
168
255
224
168
255
224
168
255
224
168
255
224
168
255
224
168
255
224
168
255
224
168
255
224
168
255
224
168
255
224
168
255
224
168
255
224
168
255
224
168
255
224
168
255
224
168
255
224
168
255
224
168
255
224
168
255
224
168
255
224
168
255
224
168
255
224
168
255
224
168
255
224
168
255
224
168
255
224
168
255
224
168
255
224
168
255
224
168
255
224
168
255
224
168
255
224
168
255
224
168
255
224
168
255
224
168
255
224
168
255
224
168
255
224
168
255
224
168
255
224
168
255
224
168
255
224
168
255
224
168
255
224
168
255
224
168
255
224
168
255
224
168
255
224
168
255
224
168
255
224
168
255
224
168
255
224
168
255
224
168
255
224
168
255
224
168
255
224
168
255
224
168
255
224
168
255
224
168
255
224
168
255
224
168
255
224
168
255
224
168
255
224
168
255
224
168
255
224
168
255
224
168
255
224
168
255
224
168
255
224
168
255
224
168
255
224
168
255
224
168
255
224
168
255
224
168
255
224
168
255
224
168
255
224
168
255
224
168
255
224
168
255
224
168
255
224
168
255
224
168
255
224
168
255
224
168
255
224
168
255
224
168
255
224
168
255
224
168
255
224
168
255
224
168
255
224
168
255
224
168
255
224
168
255
224
168
255
224
168
255
224
168
255
224
168
255
224
168
255
224
168
255
224
168
255
224
168
255
224
168
255
224
168
255
224
168
255
224
168
255
224
168
255
224
168
255
224
168
255
224
168
255
224
168
255
224
168
255
224
168
255
224
168
255
224
168
255
224
168
255
224
168
255
224
168
255
224
168
255
224
168
255
224
168
255
224
168
255
224
168
255
224
168
255
224
168
255
224
168
255
224
168
255
224
168
255
224
168
255
224
168
255
224
168
255
224
168
255
224
168
255
224
168
255
224
168
255
224
168
255
224
168
255
224
168
255
224
168
255
224
168
255
224
168
255
224
168
255
224
168
255
224
168
255
224
168
255
224
168
255
224
168
255
224
168
255
224
168
255
224
168
255
224
168
255
224
168
255
224
168
255
224
168
255
224
168
255
224
168
255
224
168
255
224
168
255
224
168
255
224
168
255
224
168
255
224
168
255
224
168
255
224
168
255
224
168
255
224
168
255
224
168
255
224
168
255
224
168
255
224
168
255
224
168
255
224
168
255
224
168
255
224
168
255
224
168
255
224
168
255
224
168
255
224
168
255
224
168
255
224
168
255
224
168
255
224
168
255
224
168
255
224
168
255
224
168
255
224
168
255
224
168
255
224
168
255
224
168
255
224
168
255
224
168
255
224
168
255
224
168
255
224
168
255
224
168
255
224
168
255
224
168
255
224
168
255
224
168
255
224
168
255
224
168
255
224
168
255
224
168
255
224
168
255
224
168
255
224
168
255
224
168
255
224
168
255
224
168
255
224
168
255
224
168
255
224
168
255
224
168
255
224
168
255
224
168
255
224
168
255
224
168
255
224
168
255
224
168
255
224
168
255
224
168
255
224
168
255
224
168
255
224
168
255
224
168
255
224
168
255
224
168
255
224
168
255
224
168
255
224
168
255
224
168
255
224
168
255
224
168
255
224
168
255
224
168
255
224
168
255
224
168
255
224
168
255
224
168
255
224
168
255
224
168
255
224
168
255
224
168
255
224
168
255
224
168
255
224
168
255
224
168
255
224
168
255
224
168
255
224
168
255
224
168
255
224
168
255
224
168
255
224
168
255
224
168
255
224
168
255
224
168
255
224
168
255
224
168
172
124
0
172
124
0
248
56
0
248
56
0
172
124
0
172
124
0
172
124
0
172
124
0
248
56
0
248
56
0
172
124
0
172
124
0
172
124
0
255
224
168
255
224
168
172
124
0
172
124
0
172
124
0
248
56
0
248
56
0
172
124
0
172
124
0
248
56
0
248
56
0
172
124
0
172
124
0
172
124
0
172
124
0
255
224
168
255
224
168
255
224
168
255
224
168
255
224
168
255
224
168
255
224
168
255
224
168
255
224
168
255
224
168
255
224
168
255
224
168
255
224
168
255
224
168
255
224
168
255
224
168
255
224
168
255
224
168
255
224
168
255
224
168
255
224
168
255
224
168
255
224
168
255
224
168
255
224
168
255
224
168
255
224
168
255
224
168
255
224
168
255
224
168
255
224
168
255
224
168
255
224
168
255
224
168
255
224
168
255
224
168
255
224
168
255
224
168
255
224
168
255
224
168
255
224
168
255
224
168
255
224
168
255
224
168
255
224
168
255
224
168
255
224
168
255
224
168
255
224
168
255
224
168
255
224
168
255
224
168
255
224
168
255
224
168
255
224
168
255
224
168
255
224
168
255
224
168
255
224
168
255
224
168
255
224
168
255
224
168
255
224
168
255
224
168
255
224
168
255
224
168
255
224
168
255
224
168
255
224
168
255
224
168
255
224
168
255
224
168
255
224
168
255
224
168
255
224
168
255
224
168
255
224
168
255
224
168
255
224
168
255
224
168
255
224
168
255
224
168
255
224
168
255
224
168
255
224
168
255
224
168
255
224
168
255
224
168
255
224
168
255
224
168
255
224
168
255
224
168
255
224
168
255
224
168
255
224
168
255
224
168
255
224
168
255
224
168
255
224
168
255
224
168
255
224
168
255
224
168
255
224
168
255
224
168
255
224
168
255
224
168
255
224
168
255
224
168
255
224
168
255
224
168
255
224
168
255
224
168
255
224
168
255
224
168
255
224
168
255
224
168
255
224
168
255
224
168
255
224
168
255
224
168
255
224
168
255
224
168
255
224
168
255
224
168
255
224
168
255
224
168
255
224
168
255
224
168
255
224
168
255
224
168
255
224
168
255
224
168
255
224
168
255
224
168
255
224
168
255
224
168
255
224
168
255
224
168
255
224
168
255
224
168
255
224
168
255
224
168
255
224
168
255
224
168
255
224
168
255
224
168
255
224
168
255
224
168
255
224
168
255
224
168
255
224
168
255
224
168
255
224
168
255
224
168
255
224
168
255
224
168
255
224
168
255
224
168
255
224
168
255
224
168
255
224
168
255
224
168
255
224
168
255
224
168
255
224
168
255
224
168
255
224
168
255
224
168
255
224
168
255
224
168
255
224
168
255
224
168
255
224
168
255
224
168
255
224
168
255
224
168
255
224
168
255
224
168
255
224
168
255
224
168
255
224
168
255
224
168
255
224
168
255
224
168
255
224
168
255
224
168
255
224
168
255
224
168
255
224
168
255
224
168
255
224
168
255
224
168
255
224
168
255
224
168
255
224
168
255
224
168
255
224
168
255
224
168
255
224
168
255
224
168
255
224
168
255
224
168
255
224
168
255
224
168
255
224
168
255
224
168
255
224
168
255
224
168
255
224
168
255
224
168
255
224
168
255
224
168
255
224
168
255
224
168
255
224
168
255
224
168
255
224
168
255
224
168
255
224
168
255
224
168
255
224
168
255
224
168
255
224
168
255
224
168
255
224
168
255
224
168
255
224
168
255
224
168
255
224
168
255
224
168
255
224
168
255
224
168
255
224
168
255
224
168
255
224
168
255
224
168
255
224
168
255
224
168
255
224
168
255
224
168
255
224
168
255
224
168
255
224
168
255
224
168
255
224
168
255
224
168
255
224
168
255
224
168
255
224
168
255
224
168
255
224
168
255
224
168
255
224
168
255
224
168
255
224
168
255
224
168
255
224
168
255
224
168
255
224
168
255
224
168
255
224
168
255
224
168
255
224
168
255
224
168
255
224
168
255
224
168
255
224
168
255
224
168
255
224
168
255
224
168
255
224
168
255
224
168
255
224
168
255
224
168
255
224
168
255
224
168
255
224
168
255
224
168
255
224
168
255
224
168
255
224
168
255
224
168
255
224
168
255
224
168
255
224
168
255
224
168
255
224
168
255
224
168
255
224
168
255
224
168
255
224
168
255
224
168
255
224
168
255
224
168
255
224
168
255
224
168
255
224
168
255
224
168
255
224
168
255
224
168
255
224
168
255
224
168
255
224
168
255
224
168
255
224
168
255
224
168
255
224
168
255
224
168
255
224
168
255
224
168
255
224
168
255
224
168
255
224
168
255
224
168
255
224
168
255
224
168
255
224
168
255
224
168
255
224
168
255
224
168
255
224
168
255
224
168
255
224
168
255
224
168
255
224
168
255
224
168
255
224
168
255
224
168
255
224
168
255
224
168
255
224
168
255
224
168
255
224
168
255
224
168
255
224
168
255
224
168
255
224
168
255
224
168
255
224
168
255
224
168
255
224
168
255
224
168
255
224
168
255
224
168
255
224
168
255
224
168
255
224
168
255
224
168
255
224
168
255
224
168
255
224
168
255
224
168
255
224
168
255
224
168
255
224
168
255
224
168
255
224
168
255
224
168
255
224
168
255
224
168
255
224
168
255
224
168
255
224
168
255
224
168
255
224
168
255
224
168
255
224
168
255
224
168
255
224
168
255
224
168
255
224
168
255
224
168
255
224
168
255
224
168
255
224
168
255
224
168
255
224
168
172
124
0
172
124
0
172
124
0
248
56
0
248
56
0
172
124
0
172
124
0
248
56
0
248
56
0
172
124
0
172
124
0
172
124
0
172
124
0
255
224
168
255
224
168
172
124
0
172
124
0
172
124
0
248
56
0
255
164
64
248
56
0
248
56
0
255
164
64
248
56
0
172
124
0
172
124
0
172
124
0
172
124
0
255
224
168
255
224
168
255
224
168
255
224
168
255
224
168
255
224
168
255
224
168
255
224
168
255
224
168
255
224
168
255
224
168
255
224
168
255
224
168
255
224
168
255
224
168
255
224
168
255
224
168
255
224
168
255
224
168
255
224
168
255
224
168
255
224
168
255
224
168
255
224
168
255
224
168
255
224
168
255
224
168
255
224
168
255
224
168
255
224
168
255
224
168
255
224
168
255
224
168
255
224
168
255
224
168
255
224
168
255
224
168
255
224
168
255
224
168
255
224
168
255
224
168
255
224
168
255
224
168
255
224
168
255
224
168
255
224
168
255
224
168
255
224
168
255
224
168
255
224
168
255
224
168
255
224
168
255
224
168
255
224
168
255
224
168
255
224
168
255
224
168
255
224
168
255
224
168
255
224
168
255
224
168
255
224
168
255
224
168
255
224
168
255
224
168
255
224
168
255
224
168
255
224
168
255
224
168
255
224
168
255
224
168
255
224
168
255
224
168
255
224
168
255
224
168
255
224
168
255
224
168
255
224
168
255
224
168
255
224
168
255
224
168
255
224
168
255
224
168
255
224
168
255
224
168
255
224
168
255
224
168
255
224
168
255
224
168
255
224
168
255
224
168
255
224
168
255
224
168
255
224
168
255
224
168
255
224
168
255
224
168
255
224
168
255
224
168
255
224
168
255
224
168
255
224
168
255
224
168
255
224
168
255
224
168
255
224
168
255
224
168
255
224
168
255
224
168
255
224
168
255
224
168
255
224
168
255
224
168
255
224
168
255
224
168
255
224
168
255
224
168
255
224
168
255
224
168
255
224
168
255
224
168
255
224
168
255
224
168
255
224
168
255
224
168
255
224
168
255
224
168
255
224
168
255
224
168
255
224
168
255
224
168
255
224
168
255
224
168
255
224
168
255
224
168
255
224
168
255
224
168
255
224
168
255
224
168
255
224
168
255
224
168
255
224
168
255
224
168
255
224
168
255
224
168
255
224
168
255
224
168
255
224
168
255
224
168
255
224
168
255
224
168
255
224
168
255
224
168
255
224
168
255
224
168
255
224
168
255
224
168
255
224
168
255
224
168
255
224
168
255
224
168
255
224
168
255
224
168
255
224
168
255
224
168
255
224
168
255
224
168
255
224
168
255
224
168
255
224
168
255
224
168
255
224
168
255
224
168
255
224
168
255
224
168
255
224
168
255
224
168
255
224
168
255
224
168
255
224
168
255
224
168
255
224
168
255
224
168
255
224
168
255
224
168
255
224
168
255
224
168
255
224
168
255
224
168
255
224
168
255
224
168
255
224
168
255
224
168
255
224
168
255
224
168
255
224
168
255
224
168
255
224
168
255
224
168
255
224
168
255
224
168
255
224
168
255
224
168
255
224
168
255
224
168
255
224
168
255
224
168
255
224
168
255
224
168
255
224
168
255
224
168
255
224
168
255
224
168
255
224
168
255
224
168
255
224
168
255
224
168
255
224
168
255
224
168
255
224
168
255
224
168
255
224
168
255
224
168
255
224
168
255
224
168
255
224
168
255
224
168
255
224
168
255
224
168
255
224
168
255
224
168
255
224
168
255
224
168
255
224
168
255
224
168
255
224
168
255
224
168
255
224
168
255
224
168
255
224
168
255
224
168
255
224
168
255
224
168
255
224
168
255
224
168
255
224
168
255
224
168
255
224
168
255
224
168
255
224
168
255
224
168
255
224
168
255
224
168
255
224
168
255
224
168
255
224
168
255
224
168
255
224
168
255
224
168
255
224
168
255
224
168
255
224
168
255
224
168
255
224
168
255
224
168
255
224
168
255
224
168
255
224
168
255
224
168
255
224
168
255
224
168
255
224
168
255
224
168
255
224
168
255
224
168
255
224
168
255
224
168
255
224
168
255
224
168
255
224
168
255
224
168
255
224
168
255
224
168
255
224
168
255
224
168
255
224
168
255
224
168
255
224
168
255
224
168
255
224
168
255
224
168
255
224
168
255
224
168
255
224
168
255
224
168
255
224
168
255
224
168
255
224
168
255
224
168
255
224
168
255
224
168
255
224
168
255
224
168
255
224
168
255
224
168
255
224
168
255
224
168
255
224
168
255
224
168
255
224
168
255
224
168
255
224
168
255
224
168
255
224
168
255
224
168
255
224
168
255
224
168
255
224
168
255
224
168
255
224
168
255
224
168
255
224
168
255
224
168
255
224
168
255
224
168
255
224
168
255
224
168
255
224
168
255
224
168
255
224
168
255
224
168
255
224
168
255
224
168
255
224
168
255
224
168
255
224
168
255
224
168
255
224
168
255
224
168
255
224
168
255
224
168
255
224
168
255
224
168
255
224
168
255
224
168
255
224
168
255
224
168
255
224
168
255
224
168
255
224
168
255
224
168
255
224
168
255
224
168
255
224
168
255
224
168
255
224
168
255
224
168
255
224
168
255
224
168
255
224
168
255
224
168
255
224
168
255
224
168
255
224
168
255
224
168
255
224
168
255
224
168
255
224
168
255
224
168
255
224
168
255
224
168
255
224
168
255
224
168
255
224
168
255
224
168
255
224
168
255
224
168
172
124
0
172
124
0
172
124
0
248
56
0
255
164
64
248
56
0
248
56
0
255
164
64
248
56
0
172
124
0
172
124
0
172
124
0
172
124
0
255
224
168
255
224
168
172
124
0
172
124
0
172
124
0
248
56
0
248
56
0
248
56
0
248
56
0
248
56
0
248
56
0
172
124
0
172
124
0
172
124
0
172
124
0
255
224
168
255
224
168
255
224
168
255
224
168
255
224
168
255
224
168
255
224
168
255
224
168
255
224
168
255
224
168
255
224
168
255
224
168
255
224
168
255
224
168
255
224
168
255
224
168
255
224
168
255
224
168
255
224
168
255
224
168
255
224
168
255
224
168
255
224
168
255
224
168
255
224
168
255
224
168
255
224
168
255
224
168
255
224
168
255
224
168
255
224
168
255
224
168
255
224
168
255
224
168
255
224
168
255
224
168
255
224
168
255
224
168
255
224
168
255
224
168
255
224
168
255
224
168
255
224
168
255
224
168
255
224
168
255
224
168
255
224
168
255
224
168
255
224
168
255
224
168
255
224
168
255
224
168
255
224
168
255
224
168
255
224
168
255
224
168
255
224
168
255
224
168
255
224
168
255
224
168
255
224
168
255
224
168
255
224
168
255
224
168
255
224
168
255
224
168
255
224
168
255
224
168
255
224
168
255
224
168
255
224
168
255
224
168
255
224
168
255
224
168
255
224
168
255
224
168
255
224
168
255
224
168
255
224
168
255
224
168
255
224
168
255
224
168
255
224
168
255
224
168
255
224
168
255
224
168
255
224
168
255
224
168
255
224
168
255
224
168
255
224
168
255
224
168
255
224
168
255
224
168
255
224
168
255
224
168
255
224
168
255
224
168
255
224
168
255
224
168
255
224
168
255
224
168
255
224
168
255
224
168
255
224
168
255
224
168
255
224
168
255
224
168
255
224
168
255
224
168
255
224
168
255
224
168
255
224
168
255
224
168
255
224
168
255
224
168
255
224
168
255
224
168
255
224
168
255
224
168
255
224
168
255
224
168
255
224
168
255
224
168
255
224
168
255
224
168
255
224
168
255
224
168
255
224
168
255
224
168
255
224
168
255
224
168
255
224
168
255
224
168
255
224
168
255
224
168
255
224
168
255
224
168
255
224
168
255
224
168
255
224
168
255
224
168
255
224
168
255
224
168
255
224
168
255
224
168
255
224
168
255
224
168
255
224
168
255
224
168
255
224
168
255
224
168
255
224
168
255
224
168
255
224
168
255
224
168
255
224
168
255
224
168
255
224
168
255
224
168
255
224
168
255
224
168
255
224
168
255
224
168
255
224
168
255
224
168
255
224
168
255
224
168
255
224
168
255
224
168
255
224
168
255
224
168
255
224
168
255
224
168
255
224
168
255
224
168
255
224
168
255
224
168
255
224
168
255
224
168
255
224
168
255
224
168
255
224
168
255
224
168
255
224
168
255
224
168
255
224
168
255
224
168
255
224
168
255
224
168
255
224
168
255
224
168
255
224
168
255
224
168
255
224
168
255
224
168
255
224
168
255
224
168
255
224
168
255
224
168
255
224
168
255
224
168
255
224
168
255
224
168
255
224
168
255
224
168
255
224
168
255
224
168
255
224
168
255
224
168
255
224
168
255
224
168
255
224
168
255
224
168
255
224
168
255
224
168
255
224
168
255
224
168
255
224
168
255
224
168
255
224
168
255
224
168
255
224
168
255
224
168
255
224
168
255
224
168
255
224
168
255
224
168
255
224
168
255
224
168
255
224
168
255
224
168
255
224
168
255
224
168
255
224
168
255
224
168
255
224
168
255
224
168
255
224
168
255
224
168
255
224
168
255
224
168
255
224
168
255
224
168
255
224
168
255
224
168
255
224
168
255
224
168
255
224
168
255
224
168
255
224
168
255
224
168
255
224
168
255
224
168
255
224
168
255
224
168
255
224
168
255
224
168
255
224
168
255
224
168
255
224
168
255
224
168
255
224
168
255
224
168
255
224
168
255
224
168
255
224
168
255
224
168
255
224
168
255
224
168
255
224
168
255
224
168
255
224
168
255
224
168
255
224
168
255
224
168
255
224
168
255
224
168
255
224
168
255
224
168
255
224
168
255
224
168
255
224
168
255
224
168
255
224
168
255
224
168
255
224
168
255
224
168
255
224
168
255
224
168
255
224
168
255
224
168
255
224
168
255
224
168
255
224
168
255
224
168
255
224
168
255
224
168
255
224
168
255
224
168
255
224
168
255
224
168
255
224
168
255
224
168
255
224
168
255
224
168
255
224
168
255
224
168
255
224
168
255
224
168
255
224
168
255
224
168
255
224
168
255
224
168
255
224
168
255
224
168
255
224
168
255
224
168
255
224
168
255
224
168
255
224
168
255
224
168
255
224
168
255
224
168
255
224
168
255
224
168
255
224
168
255
224
168
255
224
168
255
224
168
255
224
168
255
224
168
255
224
168
255
224
168
255
224
168
255
224
168
255
224
168
255
224
168
255
224
168
255
224
168
255
224
168
255
224
168
255
224
168
255
224
168
255
224
168
255
224
168
255
224
168
255
224
168
255
224
168
255
224
168
255
224
168
255
224
168
255
224
168
255
224
168
255
224
168
255
224
168
255
224
168
255
224
168
255
224
168
255
224
168
255
224
168
255
224
168
255
224
168
255
224
168
255
224
168
255
224
168
255
224
168
255
224
168
255
224
168
255
224
168
255
224
168
255
224
168
255
224
168
255
224
168
255
224
168
255
224
168
255
224
168
172
124
0
172
124
0
172
124
0
248
56
0
248
56
0
248
56
0
248
56
0
248
56
0
248
56
0
172
124
0
172
124
0
172
124
0
172
124
0
255
224
168
255
224
168
255
224
168
172
124
0
172
124
0
248
56
0
248
56
0
248
56
0
248
56
0
248
56
0
248
56
0
172
124
0
172
124
0
172
124
0
255
224
168
255
224
168
255
224
168
255
224
168
255
224
168
255
224
168
255
224
168
255
224
168
255
224
168
255
224
168
255
224
168
255
224
168
255
224
168
255
224
168
255
224
168
255
224
168
255
224
168
255
224
168
255
224
168
255
224
168
255
224
168
255
224
168
255
224
168
255
224
168
255
224
168
255
224
168
255
224
168
255
224
168
255
224
168
255
224
168
255
224
168
255
224
168
255
224
168
255
224
168
255
224
168
255
224
168
255
224
168
255
224
168
255
224
168
255
224
168
255
224
168
255
224
168
255
224
168
255
224
168
255
224
168
255
224
168
255
224
168
255
224
168
255
224
168
255
224
168
255
224
168
255
224
168
255
224
168
255
224
168
255
224
168
255
224
168
255
224
168
255
224
168
255
224
168
255
224
168
255
224
168
255
224
168
255
224
168
255
224
168
255
224
168
255
224
168
255
224
168
255
224
168
255
224
168
255
224
168
255
224
168
255
224
168
255
224
168
255
224
168
255
224
168
255
224
168
255
224
168
255
224
168
255
224
168
255
224
168
255
224
168
255
224
168
255
224
168
255
224
168
255
224
168
255
224
168
255
224
168
255
224
168
255
224
168
255
224
168
255
224
168
255
224
168
255
224
168
255
224
168
255
224
168
255
224
168
255
224
168
255
224
168
255
224
168
255
224
168
255
224
168
255
224
168
255
224
168
255
224
168
255
224
168
255
224
168
255
224
168
255
224
168
255
224
168
255
224
168
255
224
168
255
224
168
255
224
168
255
224
168
255
224
168
255
224
168
255
224
168
255
224
168
255
224
168
255
224
168
255
224
168
255
224
168
255
224
168
255
224
168
255
224
168
255
224
168
255
224
168
255
224
168
255
224
168
255
224
168
255
224
168
255
224
168
255
224
168
255
224
168
255
224
168
255
224
168
255
224
168
255
224
168
255
224
168
255
224
168
255
224
168
255
224
168
255
224
168
255
224
168
255
224
168
255
224
168
255
224
168
255
224
168
255
224
168
255
224
168
255
224
168
255
224
168
255
224
168
255
224
168
255
224
168
255
224
168
255
224
168
255
224
168
255
224
168
255
224
168
255
224
168
255
224
168
255
224
168
255
224
168
255
224
168
255
224
168
255
224
168
255
224
168
255
224
168
255
224
168
255
224
168
255
224
168
255
224
168
255
224
168
255
224
168
255
224
168
255
224
168
255
224
168
255
224
168
255
224
168
255
224
168
255
224
168
255
224
168
255
224
168
255
224
168
255
224
168
255
224
168
255
224
168
255
224
168
255
224
168
255
224
168
255
224
168
255
224
168
255
224
168
255
224
168
255
224
168
255
224
168
255
224
168
255
224
168
255
224
168
255
224
168
255
224
168
255
224
168
255
224
168
255
224
168
255
224
168
255
224
168
255
224
168
255
224
168
255
224
168
255
224
168
255
224
168
255
224
168
255
224
168
255
224
168
255
224
168
255
224
168
255
224
168
255
224
168
255
224
168
255
224
168
255
224
168
255
224
168
255
224
168
255
224
168
255
224
168
255
224
168
255
224
168
255
224
168
255
224
168
255
224
168
255
224
168
255
224
168
255
224
168
255
224
168
255
224
168
255
224
168
255
224
168
255
224
168
255
224
168
255
224
168
255
224
168
255
224
168
255
224
168
255
224
168
255
224
168
255
224
168
255
224
168
255
224
168
255
224
168
255
224
168
255
224
168
255
224
168
255
224
168
255
224
168
255
224
168
255
224
168
255
224
168
255
224
168
255
224
168
255
224
168
255
224
168
255
224
168
255
224
168
255
224
168
255
224
168
255
224
168
255
224
168
255
224
168
255
224
168
255
224
168
255
224
168
255
224
168
255
224
168
255
224
168
255
224
168
255
224
168
255
224
168
255
224
168
255
224
168
255
224
168
255
224
168
255
224
168
255
224
168
255
224
168
255
224
168
255
224
168
255
224
168
255
224
168
255
224
168
255
224
168
255
224
168
255
224
168
255
224
168
255
224
168
255
224
168
255
224
168
255
224
168
255
224
168
255
224
168
255
224
168
255
224
168
255
224
168
255
224
168
255
224
168
255
224
168
255
224
168
255
224
168
255
224
168
255
224
168
255
224
168
255
224
168
255
224
168
255
224
168
255
224
168
255
224
168
255
224
168
255
224
168
255
224
168
255
224
168
255
224
168
255
224
168
255
224
168
255
224
168
255
224
168
255
224
168
255
224
168
255
224
168
255
224
168
255
224
168
255
224
168
255
224
168
255
224
168
255
224
168
255
224
168
255
224
168
255
224
168
255
224
168
255
224
168
255
224
168
255
224
168
255
224
168
255
224
168
255
224
168
255
224
168
255
224
168
255
224
168
255
224
168
255
224
168
255
224
168
255
224
168
255
224
168
255
224
168
255
224
168
255
224
168
255
224
168
255
224
168
255
224
168
255
224
168
255
224
168
255
224
168
255
224
168
255
224
168
255
224
168
255
224
168
255
224
168
255
224
168
255
224
168
255
224
168
255
224
168
255
224
168
255
224
168
255
224
168
255
224
168
255
224
168
255
224
168
255
224
168
255
224
168
255
224
168
172
124
0
172
124
0
248
56
0
248
56
0
248
56
0
248
56
0
248
56
0
248
56
0
172
124
0
172
124
0
172
124
0
255
224
168
255
224
168
255
224
168
255
224
168
255
224
168
255
224
168
255
224
168
255
224
168
255
224
168
255
224
168
255
224
168
255
224
168
255
224
168
255
224
168
255
224
168
255
224
168
255
224
168
255
224
168
255
224
168
255
224
168
255
224
168
255
224
168
255
224
168
255
224
168
255
224
168
255
224
168
255
224
168
255
224
168
255
224
168
255
224
168
255
224
168
255
224
168
255
224
168
255
224
168
255
224
168
255
224
168
255
224
168
255
224
168
248
56
0
248
56
0
248
56
0
248
56
0
248
56
0
248
56
0
255
224
168
255
224
168
255
224
168
255
224
168
255
224
168
255
224
168
255
224
168
255
224
168
255
224
168
255
224
168
255
224
168
255
224
168
255
224
168
255
224
168
255
224
168
255
224
168
255
224
168
255
224
168
255
224
168
255
224
168
255
224
168
255
224
168
255
224
168
255
224
168
248
56
0
248
56
0
248
56
0
248
56
0
248
56
0
248
56
0
255
224
168
255
224
168
255
224
168
255
224
168
255
224
168
255
224
168
255
224
168
255
224
168
255
224
168
255
224
168
255
224
168
255
224
168
255
224
168
255
224
168
255
224
168
255
224
168
255
224
168
255
224
168
255
224
168
255
224
168
255
224
168
255
224
168
248
56
0
248
56
0
248
56
0
248
56
0
248
56
0
248
56
0
255
224
168
255
224
168
255
224
168
255
224
168
255
224
168
255
224
168
255
224
168
255
224
168
255
224
168
255
224
168
255
224
168
255
224
168
255
224
168
255
224
168
255
224
168
255
224
168
255
224
168
255
224
168
255
224
168
255
224
168
255
224
168
255
224
168
255
224
168
255
224
168
248
56
0
248
56
0
248
56
0
248
56
0
248
56
0
248
56
0
255
224
168
255
224
168
255
224
168
255
224
168
255
224
168
255
224
168
255
224
168
255
224
168
255
224
168
255
224
168
255
224
168
255
224
168
255
224
168
255
224
168
255
224
168
255
224
168
255
224
168
255
224
168
255
224
168
255
224
168
255
224
168
255
224
168
255
224
168
255
224
168
248
56
0
248
56
0
248
56
0
248
56
0
248
56
0
248
56
0
255
224
168
255
224
168
255
224
168
255
224
168
255
224
168
255
224
168
255
224
168
255
224
168
255
224
168
255
224
168
255
224
168
255
224
168
255
224
168
255
224
168
255
224
168
255
224
168
255
224
168
255
224
168
255
224
168
255
224
168
255
224
168
255
224
168
255
224
168
255
224
168
248
56
0
248
56
0
248
56
0
248
56
0
248
56
0
248
56
0
255
224
168
255
224
168
255
224
168
255
224
168
255
224
168
255
224
168
255
224
168
255
224
168
255
224
168
255
224
168
255
224
168
255
224
168
255
224
168
255
224
168
255
224
168
255
224
168
255
224
168
255
224
168
255
224
168
255
224
168
255
224
168
255
224
168
255
224
168
255
224
168
255
224
168
248
56
0
248
56
0
248
56
0
248
56
0
248
56
0
248
56
0
255
224
168
255
224
168
255
224
168
255
224
168
255
224
168
255
224
168
255
224
168
255
224
168
255
224
168
255
224
168
255
224
168
255
224
168
255
224
168
255
224
168
255
224
168
255
224
168
255
224
168
255
224
168
255
224
168
255
224
168
255
224
168
255
224
168
255
224
168
255
224
168
248
56
0
248
56
0
248
56
0
248
56
0
248
56
0
248
56
0
255
224
168
255
224
168
255
224
168
255
224
168
255
224
168
255
224
168
255
224
168
255
224
168
255
224
168
255
224
168
255
224
168
255
224
168
255
224
168
255
224
168
255
224
168
255
224
168
255
224
168
255
224
168
255
224
168
255
224
168
255
224
168
255
224
168
255
224
168
255
224
168
248
56
0
248
56
0
248
56
0
248
56
0
248
56
0
248
56
0
255
224
168
255
224
168
255
224
168
255
224
168
255
224
168
255
224
168
255
224
168
255
224
168
255
224
168
255
224
168
255
224
168
255
224
168
255
224
168
255
224
168
255
224
168
255
224
168
255
224
168
255
224
168
255
224
168
255
224
168
255
224
168
255
224
168
255
224
168
255
224
168
248
56
0
248
56
0
248
56
0
248
56
0
248
56
0
248
56
0
255
224
168
255
224
168
255
224
168
255
224
168
255
224
168
255
224
168
255
224
168
255
224
168
255
224
168
255
224
168
255
224
168
255
224
168
255
224
168
255
224
168
255
224
168
255
224
168
255
224
168
255
224
168
255
224
168
255
224
168
255
224
168
255
224
168
248
56
0
248
56
0
248
56
0
248
56
0
248
56
0
248
56
0
255
224
168
255
224
168
255
224
168
255
224
168
255
224
168
255
224
168
255
224
168
255
224
168
255
224
168
255
224
168
255
224
168
255
224
168
255
224
168
255
224
168
255
224
168
255
224
168
255
224
168
255
224
168
255
224
168
255
224
168
255
224
168
255
224
168
255
224
168
255
224
168
248
56
0
248
56
0
248
56
0
248
56
0
248
56
0
248
56
0
255
224
168
255
224
168
255
224
168
255
224
168
255
224
168
255
224
168
255
224
168
255
224
168
255
224
168
255
224
168
255
224
168
255
224
168
255
224
168
255
224
168
255
224
168
255
224
168
255
224
168
255
224
168
255
224
168
255
224
168
255
224
168
255
224
168
255
224
168
255
224
168
255
224
168
255
224
168
255
224
168
255
224
168
255
224
168
255
224
168
255
224
168
255
224
168
255
224
168
255
224
168
255
224
168
255
224
168
255
224
168
255
224
168
255
224
168
255
224
168
255
224
168
255
224
168
255
224
168
255
224
168
255
224
168
255
224
168
255
224
168
255
224
168
255
224
168
255
224
168
255
224
168
255
224
168
255
224
168
255
224
168
255
224
168
255
224
168
255
224
168
255
224
168
255
224
168
255
224
168
255
224
168
255
224
168
255
224
168
255
224
168
255
224
168
255
224
168
255
224
168
255
224
168
255
224
168
248
56
0
248
56
0
248
56
0
248
56
0
248
56
0
248
56
0
248
56
0
248
56
0
248
56
0
248
56
0
255
224
168
255
224
168
255
224
168
255
224
168
255
224
168
255
224
168
255
224
168
255
224
168
255
224
168
255
224
168
255
224
168
255
224
168
255
224
168
255
224
168
255
224
168
255
224
168
255
224
168
255
224
168
255
224
168
255
224
168
248
56
0
248
56
0
248
56
0
248
56
0
248
56
0
248
56
0
248
56
0
248
56
0
248
56
0
248
56
0
255
224
168
255
224
168
255
224
168
255
224
168
255
224
168
255
224
168
255
224
168
255
224
168
255
224
168
255
224
168
255
224
168
255
224
168
255
224
168
255
224
168
255
224
168
255
224
168
255
224
168
255
224
168
248
56
0
248
56
0
248
56
0
248
56
0
248
56
0
248
56
0
248
56
0
248
56
0
248
56
0
248
56
0
255
224
168
255
224
168
255
224
168
255
224
168
255
224
168
255
224
168
255
224
168
255
224
168
255
224
168
255
224
168
255
224
168
255
224
168
255
224
168
255
224
168
255
224
168
255
224
168
255
224
168
255
224
168
255
224
168
255
224
168
248
56
0
248
56
0
248
56
0
248
56
0
248
56
0
248
56
0
248
56
0
248
56
0
248
56
0
248
56
0
255
224
168
255
224
168
255
224
168
255
224
168
255
224
168
255
224
168
255
224
168
255
224
168
255
224
168
255
224
168
255
224
168
255
224
168
255
224
168
255
224
168
255
224
168
255
224
168
255
224
168
255
224
168
255
224
168
255
224
168
248
56
0
248
56
0
248
56
0
248
56
0
248
56
0
248
56
0
248
56
0
248
56
0
248
56
0
248
56
0
255
224
168
255
224
168
255
224
168
255
224
168
255
224
168
255
224
168
255
224
168
255
224
168
255
224
168
255
224
168
255
224
168
255
224
168
255
224
168
255
224
168
255
224
168
255
224
168
255
224
168
255
224
168
255
224
168
255
224
168
248
56
0
248
56
0
248
56
0
248
56
0
248
56
0
248
56
0
248
56
0
248
56
0
248
56
0
248
56
0
255
224
168
255
224
168
255
224
168
255
224
168
255
224
168
255
224
168
255
224
168
255
224
168
255
224
168
255
224
168
255
224
168
255
224
168
255
224
168
255
224
168
255
224
168
255
224
168
255
224
168
255
224
168
255
224
168
255
224
168
255
224
168
255
224
168
255
224
168
248
56
0
248
56
0
248
56
0
248
56
0
248
56
0
248
56
0
248
56
0
248
56
0
248
56
0
248
56
0
255
224
168
255
224
168
255
224
168
255
224
168
255
224
168
255
224
168
255
224
168
255
224
168
255
224
168
255
224
168
255
224
168
255
224
168
255
224
168
255
224
168
255
224
168
255
224
168
255
224
168
255
224
168
255
224
168
255
224
168
248
56
0
248
56
0
248
56
0
248
56
0
248
56
0
248
56
0
248
56
0
248
56
0
248
56
0
248
56
0
255
224
168
255
224
168
255
224
168
255
224
168
255
224
168
255
224
168
255
224
168
255
224
168
255
224
168
255
224
168
255
224
168
255
224
168
255
224
168
255
224
168
255
224
168
255
224
168
255
224
168
255
224
168
255
224
168
255
224
168
248
56
0
248
56
0
248
56
0
248
56
0
248
56
0
248
56
0
248
56
0
248
56
0
248
56
0
248
56
0
255
224
168
255
224
168
255
224
168
255
224
168
255
224
168
255
224
168
255
224
168
255
224
168
255
224
168
255
224
168
255
224
168
255
224
168
255
224
168
255
224
168
255
224
168
255
224
168
255
224
168
255
224
168
255
224
168
255
224
168
248
56
0
248
56
0
248
56
0
248
56
0
248
56
0
248
56
0
248
56
0
248
56
0
248
56
0
248
56
0
255
224
168
255
224
168
255
224
168
255
224
168
255
224
168
255
224
168
255
224
168
255
224
168
255
224
168
255
224
168
255
224
168
255
224
168
255
224
168
255
224
168
255
224
168
255
224
168
255
224
168
255
224
168
248
56
0
248
56
0
248
56
0
248
56
0
248
56
0
248
56
0
248
56
0
248
56
0
248
56
0
248
56
0
255
224
168
255
224
168
255
224
168
255
224
168
255
224
168
255
224
168
255
224
168
255
224
168
255
224
168
255
224
168
255
224
168
255
224
168
255
224
168
255
224
168
255
224
168
255
224
168
255
224
168
255
224
168
255
224
168
255
224
168
248
56
0
248
56
0
248
56
0
248
56
0
248
56
0
248
56
0
248
56
0
248
56
0
248
56
0
248
56
0
255
224
168
255
224
168
255
224
168
255
224
168
255
224
168
255
224
168
255
224
168
255
224
168
255
224
168
255
224
168
255
224
168
255
224
168
255
224
168
255
224
168
255
224
168
255
224
168
255
224
168
255
224
168
255
224
168
255
224
168
255
224
168
255
224
168
255
224
168
255
224
168
255
224
168
255
224
168
255
224
168
255
224
168
255
224
168
255
224
168
255
224
168
255
224
168
255
224
168
255
224
168
255
224
168
255
224
168
255
224
168
255
224
168
255
224
168
255
224
168
255
224
168
255
224
168
255
224
168
255
224
168
255
224
168
255
224
168
255
224
168
255
224
168
255
224
168
255
224
168
255
224
168
255
224
168
255
224
168
255
224
168
255
224
168
255
224
168
255
224
168
255
224
168
255
224
168
255
224
168
255
224
168
255
224
168
255
224
168
255
224
168
255
224
168
255
224
168
255
224
168
255
224
168
255
160
68
172
124
0
255
160
68
255
160
68
172
124
0
172
124
0
172
124
0
172
124
0
255
224
168
255
224
168
255
224
168
255
224
168
255
224
168
255
224
168
255
224
168
255
224
168
255
224
168
255
224
168
255
224
168
255
224
168
255
224
168
255
224
168
255
224
168
255
224
168
255
224
168
255
224
168
255
224
168
255
224
168
255
224
168
255
224
168
255
160
68
172
124
0
255
160
68
255
160
68
172
124
0
172
124
0
172
124
0
172
124
0
255
224
168
255
224
168
255
224
168
255
224
168
255
224
168
255
224
168
255
224
168
255
224
168
255
224
168
255
224
168
255
224
168
255
224
168
255
224
168
255
224
168
255
224
168
255
224
168
255
224
168
255
224
168
255
224
168
255
224
168
255
160
68
172
124
0
255
160
68
255
160
68
172
124
0
172
124
0
172
124
0
172
124
0
255
224
168
255
224
168
255
224
168
255
224
168
255
224
168
255
224
168
255
224
168
255
224
168
255
224
168
255
224
168
255
224
168
255
224
168
255
224
168
255
224
168
255
224
168
255
224
168
255
224
168
255
224
168
255
224
168
255
224
168
255
224
168
255
224
168
255
160
68
172
124
0
255
160
68
255
160
68
172
124
0
172
124
0
172
124
0
172
124
0
255
224
168
255
224
168
255
224
168
255
224
168
255
224
168
255
224
168
255
224
168
255
224
168
255
224
168
255
224
168
255
224
168
255
224
168
255
224
168
255
224
168
255
224
168
255
224
168
255
224
168
255
224
168
255
224
168
255
224
168
255
224
168
255
224
168
255
160
68
172
124
0
255
160
68
255
160
68
172
124
0
172
124
0
172
124
0
172
124
0
255
224
168
255
224
168
255
224
168
255
224
168
255
224
168
255
224
168
255
224
168
255
224
168
255
224
168
255
224
168
255
224
168
255
224
168
255
224
168
255
224
168
255
224
168
255
224
168
255
224
168
255
224
168
255
224
168
255
224
168
255
224
168
255
224
168
255
160
68
172
124
0
255
160
68
255
160
68
172
124
0
172
124
0
172
124
0
172
124
0
255
224
168
255
224
168
255
224
168
255
224
168
255
224
168
255
224
168
255
224
168
255
224
168
255
224
168
255
224
168
255
224
168
255
224
168
255
224
168
255
224
168
255
224
168
255
224
168
255
224
168
255
224
168
255
224
168
255
224
168
255
224
168
255
224
168
255
224
168
172
124
0
172
124
0
172
124
0
255
160
68
255
160
68
172
124
0
255
160
68
255
160
68
255
224
168
255
224
168
255
224
168
255
224
168
255
224
168
255
224
168
255
224
168
255
224
168
255
224
168
255
224
168
255
224
168
255
224
168
255
224
168
255
224
168
255
224
168
255
224
168
255
224
168
255
224
168
255
224
168
255
224
168
255
224
168
255
224
168
172
124
0
172
124
0
172
124
0
255
160
68
255
160
68
172
124
0
255
160
68
255
160
68
255
224
168
255
224
168
255
224
168
255
224
168
255
224
168
255
224
168
255
224
168
255
224
168
255
224
168
255
224
168
255
224
168
255
224
168
255
224
168
255
224
168
255
224
168
255
224
168
255
224
168
255
224
168
255
224
168
255
224
168
255
224
168
255
224
168
172
124
0
172
124
0
172
124
0
255
160
68
255
160
68
172
124
0
255
160
68
255
160
68
255
224
168
255
224
168
255
224
168
255
224
168
255
224
168
255
224
168
255
224
168
255
224
168
255
224
168
255
224
168
255
224
168
255
224
168
255
224
168
255
224
168
255
224
168
255
224
168
255
224
168
255
224
168
255
224
168
255
224
168
255
224
168
255
224
168
172
124
0
172
124
0
172
124
0
255
160
68
255
160
68
172
124
0
255
160
68
255
160
68
255
224
168
255
224
168
255
224
168
255
224
168
255
224
168
255
224
168
255
224
168
255
224
168
255
224
168
255
224
168
255
224
168
255
224
168
255
224
168
255
224
168
255
224
168
255
224
168
255
224
168
255
224
168
255
224
168
255
224
168
172
124
0
172
124
0
172
124
0
255
160
68
255
160
68
172
124
0
255
160
68
255
160
68
255
224
168
255
224
168
255
224
168
255
224
168
255
224
168
255
224
168
255
224
168
255
224
168
255
224
168
255
224
168
255
224
168
255
224
168
255
224
168
255
224
168
255
224
168
255
224
168
255
224
168
255
224
168
255
224
168
255
224
168
255
224
168
255
224
168
172
124
0
172
124
0
172
124
0
255
160
68
255
160
68
172
124
0
255
160
68
255
160
68
255
224
168
255
224
168
255
224
168
255
224
168
255
224
168
255
224
168
255
224
168
255
224
168
255
224
168
255
224
168
255
224
168
255
224
168
255
224
168
255
224
168
255
224
168
255
224
168
255
224
168
255
224
168
255
224
168
255
224
168
255
224
168
255
224
168
255
224
168
255
224
168
255
224
168
255
224
168
255
224
168
255
224
168
255
224
168
255
224
168
255
224
168
255
224
168
255
224
168
255
224
168
255
224
168
255
224
168
255
224
168
255
224
168
255
224
168
255
224
168
255
224
168
255
224
168
255
224
168
255
224
168
255
224
168
255
224
168
255
224
168
255
224
168
255
224
168
255
224
168
255
224
168
255
224
168
255
224
168
255
224
168
255
224
168
255
224
168
255
224
168
255
224
168
255
224
168
255
224
168
255
224
168
255
224
168
255
224
168
255
224
168
255
224
168
255
224
168
255
224
168
255
224
168
255
160
68
255
160
68
255
160
68
172
124
0
255
160
68
255
160
68
255
160
68
172
124
0
255
160
68
172
124
0
172
124
0
255
224
168
255
224
168
255
224
168
255
224
168
255
224
168
255
224
168
255
224
168
255
224
168
255
224
168
255
224
168
255
224
168
255
224
168
255
224
168
255
224
168
255
224
168
255
224
168
255
224
168
255
224
168
255
224
168
255
160
68
255
160
68
255
160
68
172
124
0
255
160
68
255
160
68
255
160
68
172
124
0
255
160
68
172
124
0
172
124
0
255
224
168
255
224
168
255
224
168
255
224
168
255
224
168
255
224
168
255
224
168
255
224
168
255
224
168
255
224
168
255
224
168
255
224
168
255
224
168
255
224
168
255
224
168
255
224
168
255
224
168
255
160
68
255
160
68
255
160
68
172
124
0
255
160
68
255
160
68
255
160
68
172
124
0
255
160
68
172
124
0
172
124
0
255
224
168
255
224
168
255
224
168
255
224
168
255
224
168
255
224
168
255
224
168
255
224
168
255
224
168
255
224
168
255
224
168
255
224
168
255
224
168
255
224
168
255
224
168
255
224
168
255
224
168
255
224
168
255
224
168
255
160
68
255
160
68
255
160
68
172
124
0
255
160
68
255
160
68
255
160
68
172
124
0
255
160
68
172
124
0
172
124
0
255
224
168
255
224
168
255
224
168
255
224
168
255
224
168
255
224
168
255
224
168
255
224
168
255
224
168
255
224
168
255
224
168
255
224
168
255
224
168
255
224
168
255
224
168
255
224
168
255
224
168
255
224
168
255
224
168
255
160
68
255
160
68
255
160
68
172
124
0
255
160
68
255
160
68
255
160
68
172
124
0
255
160
68
172
124
0
172
124
0
255
224
168
255
224
168
255
224
168
255
224
168
255
224
168
255
224
168
255
224
168
255
224
168
255
224
168
255
224
168
255
224
168
255
224
168
255
224
168
255
224
168
255
224
168
255
224
168
255
224
168
255
224
168
255
224
168
255
160
68
255
160
68
255
160
68
172
124
0
255
160
68
255
160
68
255
160
68
172
124
0
255
160
68
172
124
0
172
124
0
255
224
168
255
224
168
255
224
168
255
224
168
255
224
168
255
224
168
255
224
168
255
224
168
255
224
168
255
224
168
255
224
168
255
224
168
255
224
168
255
224
168
255
224
168
255
224
168
255
224
168
255
224
168
255
224
168
255
224
168
255
224
168
172
124
0
255
160
68
172
124
0
255
160
68
255
160
68
255
160
68
172
124
0
255
160
68
255
160
68
255
160
68
255
160
68
255
224
168
255
224
168
255
224
168
255
224
168
255
224
168
255
224
168
255
224
168
255
224
168
255
224
168
255
224
168
255
224
168
255
224
168
255
224
168
255
224
168
255
224
168
255
224
168
255
224
168
255
224
168
255
224
168
172
124
0
255
160
68
172
124
0
255
160
68
255
160
68
255
160
68
172
124
0
255
160
68
255
160
68
255
160
68
255
160
68
255
224
168
255
224
168
255
224
168
255
224
168
255
224
168
255
224
168
255
224
168
255
224
168
255
224
168
255
224
168
255
224
168
255
224
168
255
224
168
255
224
168
255
224
168
255
224
168
255
224
168
255
224
168
255
224
168
172
124
0
255
160
68
172
124
0
255
160
68
255
160
68
255
160
68
172
124
0
255
160
68
255
160
68
255
160
68
255
160
68
255
224
168
255
224
168
255
224
168
255
224
168
255
224
168
255
224
168
255
224
168
255
224
168
255
224
168
255
224
168
255
224
168
255
224
168
255
224
168
255
224
168
255
224
168
255
224
168
255
224
168
255
224
168
255
224
168
172
124
0
255
160
68
172
124
0
255
160
68
255
160
68
255
160
68
172
124
0
255
160
68
255
160
68
255
160
68
255
160
68
255
224
168
255
224
168
255
224
168
255
224
168
255
224
168
255
224
168
255
224
168
255
224
168
255
224
168
255
224
168
255
224
168
255
224
168
255
224
168
255
224
168
255
224
168
255
224
168
255
224
168
172
124
0
255
160
68
172
124
0
255
160
68
255
160
68
255
160
68
172
124
0
255
160
68
255
160
68
255
160
68
255
160
68
255
224
168
255
224
168
255
224
168
255
224
168
255
224
168
255
224
168
255
224
168
255
224
168
255
224
168
255
224
168
255
224
168
255
224
168
255
224
168
255
224
168
255
224
168
255
224
168
255
224
168
255
224
168
255
224
168
172
124
0
255
160
68
172
124
0
255
160
68
255
160
68
255
160
68
172
124
0
255
160
68
255
160
68
255
160
68
255
160
68
255
224
168
255
224
168
255
224
168
255
224
168
255
224
168
255
224
168
255
224
168
255
224
168
255
224
168
255
224
168
255
224
168
255
224
168
255
224
168
255
224
168
255
224
168
255
224
168
255
224
168
255
224
168
255
224
168
255
224
168
255
224
168
255
224
168
255
224
168
255
224
168
255
224
168
255
224
168
255
224
168
255
224
168
255
224
168
255
224
168
255
224
168
255
224
168
255
224
168
255
224
168
255
224
168
255
224
168
255
224
168
255
224
168
255
224
168
255
224
168
255
224
168
255
224
168
255
224
168
255
224
168
255
224
168
255
224
168
255
224
168
255
224
168
255
224
168
255
224
168
255
224
168
255
224
168
255
224
168
255
224
168
255
224
168
255
224
168
255
224
168
255
224
168
255
224
168
255
224
168
255
224
168
255
224
168
255
224
168
255
224
168
255
224
168
255
160
68
255
160
68
255
160
68
172
124
0
255
160
68
255
160
68
255
160
68
172
124
0
172
124
0
255
160
68
172
124
0
172
124
0
255
224
168
255
224
168
255
224
168
255
224
168
255
224
168
255
224
168
255
224
168
255
224
168
255
224
168
255
224
168
255
224
168
255
224
168
255
224
168
255
224
168
255
224
168
255
224
168
255
224
168
255
224
168
255
160
68
255
160
68
255
160
68
172
124
0
255
160
68
255
160
68
255
160
68
172
124
0
172
124
0
255
160
68
172
124
0
172
124
0
255
224
168
255
224
168
255
224
168
255
224
168
255
224
168
255
224
168
255
224
168
255
224
168
255
224
168
255
224
168
255
224
168
255
224
168
255
224
168
255
224
168
255
224
168
255
224
168
255
160
68
255
160
68
255
160
68
172
124
0
255
160
68
255
160
68
255
160
68
172
124
0
172
124
0
255
160
68
172
124
0
172
124
0
255
224
168
255
224
168
255
224
168
255
224
168
255
224
168
255
224
168
255
224
168
255
224
168
255
224
168
255
224
168
255
224
168
255
224
168
255
224
168
255
224
168
255
224
168
255
224
168
255
224
168
255
224
168
255
160
68
255
160
68
255
160
68
172
124
0
255
160
68
255
160
68
255
160
68
172
124
0
172
124
0
255
160
68
172
124
0
172
124
0
255
224
168
255
224
168
255
224
168
255
224
168
255
224
168
255
224
168
255
224
168
255
224
168
255
224
168
255
224
168
255
224
168
255
224
168
255
224
168
255
224
168
255
224
168
255
224
168
255
224
168
255
224
168
255
160
68
255
160
68
255
160
68
172
124
0
255
160
68
255
160
68
255
160
68
172
124
0
172
124
0
255
160
68
172
124
0
172
124
0
255
224
168
255
224
168
255
224
168
255
224
168
255
224
168
255
224
168
255
224
168
255
224
168
255
224
168
255
224
168
255
224
168
255
224
168
255
224
168
255
224
168
255
224
168
255
224
168
255
224
168
255
224
168
255
160
68
255
160
68
255
160
68
172
124
0
255
160
68
255
160
68
255
160
68
172
124
0
172
124
0
255
160
68
172
124
0
172
124
0
255
224
168
255
224
168
255
224
168
255
224
168
255
224
168
255
224
168
255
224
168
255
224
168
255
224
168
255
224
168
255
224
168
255
224
168
255
224
168
255
224
168
255
224
168
255
224
168
255
224
168
255
224
168
255
224
168
255
224
168
255
224
168
172
124
0
255
160
68
172
124
0
172
124
0
255
160
68
255
160
68
255
160
68
172
124
0
255
160
68
255
160
68
255
160
68
255
160
68
255
224
168
255
224
168
255
224
168
255
224
168
255
224
168
255
224
168
255
224
168
255
224
168
255
224
168
255
224
168
255
224
168
255
224
168
255
224
168
255
224
168
255
224
168
255
224
168
255
224
168
255
224
168
172
124
0
255
160
68
172
124
0
172
124
0
255
160
68
255
160
68
255
160
68
172
124
0
255
160
68
255
160
68
255
160
68
255
160
68
255
224
168
255
224
168
255
224
168
255
224
168
255
224
168
255
224
168
255
224
168
255
224
168
255
224
168
255
224
168
255
224
168
255
224
168
255
224
168
255
224
168
255
224
168
255
224
168
255
224
168
255
224
168
172
124
0
255
160
68
172
124
0
172
124
0
255
160
68
255
160
68
255
160
68
172
124
0
255
160
68
255
160
68
255
160
68
255
160
68
255
224
168
255
224
168
255
224
168
255
224
168
255
224
168
255
224
168
255
224
168
255
224
168
255
224
168
255
224
168
255
224
168
255
224
168
255
224
168
255
224
168
255
224
168
255
224
168
255
224
168
255
224
168
172
124
0
255
160
68
172
124
0
172
124
0
255
160
68
255
160
68
255
160
68
172
124
0
255
160
68
255
160
68
255
160
68
255
160
68
255
224
168
255
224
168
255
224
168
255
224
168
255
224
168
255
224
168
255
224
168
255
224
168
255
224
168
255
224
168
255
224
168
255
224
168
255
224
168
255
224
168
255
224
168
255
224
168
172
124
0
255
160
68
172
124
0
172
124
0
255
160
68
255
160
68
255
160
68
172
124
0
255
160
68
255
160
68
255
160
68
255
160
68
255
224
168
255
224
168
255
224
168
255
224
168
255
224
168
255
224
168
255
224
168
255
224
168
255
224
168
255
224
168
255
224
168
255
224
168
255
224
168
255
224
168
255
224
168
255
224
168
255
224
168
255
224
168
172
124
0
255
160
68
172
124
0
172
124
0
255
160
68
255
160
68
255
160
68
172
124
0
255
160
68
255
160
68
255
160
68
255
160
68
255
224
168
255
224
168
255
224
168
255
224
168
255
224
168
255
224
168
255
224
168
255
224
168
255
224
168
255
224
168
255
224
168
255
224
168
255
224
168
255
224
168
255
224
168
255
224
168
255
224
168
255
224
168
255
224
168
255
224
168
255
224
168
255
224
168
255
224
168
255
224
168
255
224
168
255
224
168
255
224
168
255
224
168
255
224
168
255
224
168
255
224
168
255
224
168
255
224
168
255
224
168
255
224
168
255
224
168
255
224
168
255
224
168
255
224
168
255
224
168
255
224
168
255
224
168
255
224
168
255
224
168
255
224
168
255
224
168
255
224
168
255
224
168
255
224
168
255
224
168
255
224
168
255
224
168
255
224
168
255
224
168
255
224
168
255
224
168
255
224
168
255
224
168
255
224
168
255
224
168
255
224
168
255
224
168
255
224
168
255
224
168
255
224
168
172
124
0
172
124
0
172
124
0
172
124
0
255
160
68
255
160
68
255
160
68
255
160
68
172
124
0
172
124
0
172
124
0
255
224
168
255
224
168
255
224
168
255
224
168
255
224
168
255
224
168
255
224
168
255
224
168
255
224
168
255
224
168
255
224
168
255
224
168
255
224
168
255
224
168
255
224
168
255
224
168
255
224
168
255
224
168
255
224
168
172
124
0
172
124
0
172
124
0
172
124
0
255
160
68
255
160
68
255
160
68
255
160
68
172
124
0
172
124
0
172
124
0
255
224
168
255
224
168
255
224
168
255
224
168
255
224
168
255
224
168
255
224
168
255
224
168
255
224
168
255
224
168
255
224
168
255
224
168
255
224
168
255
224
168
255
224
168
255
224
168
255
224
168
172
124
0
172
124
0
172
124
0
172
124
0
255
160
68
255
160
68
255
160
68
255
160
68
172
124
0
172
124
0
172
124
0
255
224
168
255
224
168
255
224
168
255
224
168
255
224
168
255
224
168
255
224
168
255
224
168
255
224
168
255
224
168
255
224
168
255
224
168
255
224
168
255
224
168
255
224
168
255
224
168
255
224
168
255
224
168
255
224
168
172
124
0
172
124
0
172
124
0
172
124
0
255
160
68
255
160
68
255
160
68
255
160
68
172
124
0
172
124
0
172
124
0
255
224
168
255
224
168
255
224
168
255
224
168
255
224
168
255
224
168
255
224
168
255
224
168
255
224
168
255
224
168
255
224
168
255
224
168
255
224
168
255
224
168
255
224
168
255
224
168
255
224
168
255
224
168
255
224
168
172
124
0
172
124
0
172
124
0
172
124
0
255
160
68
255
160
68
255
160
68
255
160
68
172
124
0
172
124
0
172
124
0
255
224
168
255
224
168
255
224
168
255
224
168
255
224
168
255
224
168
255
224
168
255
224
168
255
224
168
255
224
168
255
224
168
255
224
168
255
224
168
255
224
168
255
224
168
255
224
168
255
224
168
255
224
168
255
224
168
172
124
0
172
124
0
172
124
0
172
124
0
255
160
68
255
160
68
255
160
68
255
160
68
172
124
0
172
124
0
172
124
0
255
224
168
255
224
168
255
224
168
255
224
168
255
224
168
255
224
168
255
224
168
255
224
168
255
224
168
255
224
168
255
224
168
255
224
168
255
224
168
255
224
168
255
224
168
255
224
168
255
224
168
255
224
168
255
224
168
255
224
168
255
224
168
172
124
0
172
124
0
255
160
68
255
160
68
255
160
68
255
160
68
172
124
0
172
124
0
172
124
0
172
124
0
172
124
0
255
224
168
255
224
168
255
224
168
255
224
168
255
224
168
255
224
168
255
224
168
255
224
168
255
224
168
255
224
168
255
224
168
255
224
168
255
224
168
255
224
168
255
224
168
255
224
168
255
224
168
255
224
168
255
224
168
172
124
0
172
124
0
255
160
68
255
160
68
255
160
68
255
160
68
172
124
0
172
124
0
172
124
0
172
124
0
172
124
0
255
224
168
255
224
168
255
224
168
255
224
168
255
224
168
255
224
168
255
224
168
255
224
168
255
224
168
255
224
168
255
224
168
255
224
168
255
224
168
255
224
168
255
224
168
255
224
168
255
224
168
255
224
168
255
224
168
172
124
0
172
124
0
255
160
68
255
160
68
255
160
68
255
160
68
172
124
0
172
124
0
172
124
0
172
124
0
172
124
0
255
224
168
255
224
168
255
224
168
255
224
168
255
224
168
255
224
168
255
224
168
255
224
168
255
224
168
255
224
168
255
224
168
255
224
168
255
224
168
255
224
168
255
224
168
255
224
168
255
224
168
255
224
168
255
224
168
172
124
0
172
124
0
255
160
68
255
160
68
255
160
68
255
160
68
172
124
0
172
124
0
172
124
0
172
124
0
172
124
0
255
224
168
255
224
168
255
224
168
255
224
168
255
224
168
255
224
168
255
224
168
255
224
168
255
224
168
255
224
168
255
224
168
255
224
168
255
224
168
255
224
168
255
224
168
255
224
168
255
224
168
172
124
0
172
124
0
255
160
68
255
160
68
255
160
68
255
160
68
172
124
0
172
124
0
172
124
0
172
124
0
172
124
0
255
224
168
255
224
168
255
224
168
255
224
168
255
224
168
255
224
168
255
224
168
255
224
168
255
224
168
255
224
168
255
224
168
255
224
168
255
224
168
255
224
168
255
224
168
255
224
168
255
224
168
255
224
168
255
224
168
172
124
0
172
124
0
255
160
68
255
160
68
255
160
68
255
160
68
172
124
0
172
124
0
172
124
0
172
124
0
172
124
0
255
224
168
255
224
168
255
224
168
255
224
168
255
224
168
255
224
168
255
224
168
255
224
168
255
224
168
255
224
168
255
224
168
255
224
168
255
224
168
255
224
168
255
224
168
255
224
168
255
224
168
255
224
168
255
224
168
255
224
168
255
224
168
255
224
168
255
224
168
255
224
168
255
224
168
255
224
168
255
224
168
255
224
168
255
224
168
255
224
168
255
224
168
255
224
168
255
224
168
255
224
168
255
224
168
255
224
168
255
224
168
255
224
168
255
224
168
255
224
168
255
224
168
255
224
168
255
224
168
255
224
168
255
224
168
255
224
168
255
224
168
255
224
168
255
224
168
255
224
168
255
224
168
255
224
168
255
224
168
255
224
168
255
224
168
255
224
168
255
224
168
255
224
168
255
224
168
255
224
168
255
224
168
255
224
168
255
224
168
255
224
168
255
224
168
255
224
168
255
224
168
255
160
68
255
160
68
255
160
68
255
160
68
255
160
68
255
160
68
255
160
68
255
160
68
255
224
168
255
224
168
255
224
168
255
224
168
255
224
168
255
224
168
255
224
168
255
224
168
255
224
168
255
224
168
255
224
168
255
224
168
255
224
168
255
224
168
255
224
168
255
224
168
255
224
168
255
224
168
255
224
168
255
224
168
255
224
168
255
224
168
255
160
68
255
160
68
255
160
68
255
160
68
255
160
68
255
160
68
255
160
68
255
160
68
255
224
168
255
224
168
255
224
168
255
224
168
255
224
168
255
224
168
255
224
168
255
224
168
255
224
168
255
224
168
255
224
168
255
224
168
255
224
168
255
224
168
255
224
168
255
224
168
255
224
168
255
224
168
255
224
168
255
224
168
255
160
68
255
160
68
255
160
68
255
160
68
255
160
68
255
160
68
255
160
68
255
160
68
255
224
168
255
224
168
255
224
168
255
224
168
255
224
168
255
224
168
255
224
168
255
224
168
255
224
168
255
224
168
255
224
168
255
224
168
255
224
168
255
224
168
255
224
168
255
224
168
255
224
168
255
224
168
255
224
168
255
224
168
255
224
168
255
224
168
255
160
68
255
160
68
255
160
68
255
160
68
255
160
68
255
160
68
255
160
68
255
160
68
255
224
168
255
224
168
255
224
168
255
224
168
255
224
168
255
224
168
255
224
168
255
224
168
255
224
168
255
224
168
255
224
168
255
224
168
255
224
168
255
224
168
255
224
168
255
224
168
255
224
168
255
224
168
255
224
168
255
224
168
255
224
168
255
224
168
255
160
68
255
160
68
255
160
68
255
160
68
255
160
68
255
160
68
255
160
68
255
160
68
255
224
168
255
224
168
255
224
168
255
224
168
255
224
168
255
224
168
255
224
168
255
224
168
255
224
168
255
224
168
255
224
168
255
224
168
255
224
168
255
224
168
255
224
168
255
224
168
255
224
168
255
224
168
255
224
168
255
224
168
255
224
168
255
224
168
255
160
68
255
160
68
255
160
68
255
160
68
255
160
68
255
160
68
255
160
68
255
160
68
255
224
168
255
224
168
255
224
168
255
224
168
255
224
168
255
224
168
255
224
168
255
224
168
255
224
168
255
224
168
255
224
168
255
224
168
255
224
168
255
224
168
255
224
168
255
224
168
255
224
168
255
224
168
255
224
168
255
224
168
255
224
168
255
224
168
255
224
168
255
224
168
255
224
168
255
160
68
255
160
68
255
160
68
255
160
68
255
160
68
255
160
68
255
160
68
255
160
68
255
224
168
255
224
168
255
224
168
255
224
168
255
224
168
255
224
168
255
224
168
255
224
168
255
224
168
255
224
168
255
224
168
255
224
168
255
224
168
255
224
168
255
224
168
255
224
168
255
224
168
255
224
168
255
224
168
255
224
168
255
224
168
255
224
168
255
160
68
255
160
68
255
160
68
255
160
68
255
160
68
255
160
68
255
160
68
255
160
68
255
224
168
255
224
168
255
224
168
255
224
168
255
224
168
255
224
168
255
224
168
255
224
168
255
224
168
255
224
168
255
224
168
255
224
168
255
224
168
255
224
168
255
224
168
255
224
168
255
224
168
255
224
168
255
224
168
255
224
168
255
224
168
255
224
168
255
160
68
255
160
68
255
160
68
255
160
68
255
160
68
255
160
68
255
160
68
255
160
68
255
224
168
255
224
168
255
224
168
255
224
168
255
224
168
255
224
168
255
224
168
255
224
168
255
224
168
255
224
168
255
224
168
255
224
168
255
224
168
255
224
168
255
224
168
255
224
168
255
224
168
255
224
168
255
224
168
255
224
168
255
224
168
255
224
168
255
160
68
255
160
68
255
160
68
255
160
68
255
160
68
255
160
68
255
160
68
255
160
68
255
224
168
255
224
168
255
224
168
255
224
168
255
224
168
255
224
168
255
224
168
255
224
168
255
224
168
255
224
168
255
224
168
255
224
168
255
224
168
255
224
168
255
224
168
255
224
168
255
224
168
255
224
168
255
224
168
255
224
168
255
160
68
255
160
68
255
160
68
255
160
68
255
160
68
255
160
68
255
160
68
255
160
68
255
224
168
255
224
168
255
224
168
255
224
168
255
224
168
255
224
168
255
224
168
255
224
168
255
224
168
255
224
168
255
224
168
255
224
168
255
224
168
255
224
168
255
224
168
255
224
168
255
224
168
255
224
168
255
224
168
255
224
168
255
224
168
255
224
168
255
160
68
255
160
68
255
160
68
255
160
68
255
160
68
255
160
68
255
160
68
255
160
68
255
224
168
255
224
168
255
224
168
255
224
168
255
224
168
255
224
168
255
224
168
255
224
168
255
224
168
255
224
168
255
224
168
255
224
168
255
224
168
255
224
168
255
224
168
255
224
168
255
224
168
255
224
168
255
224
168
255
224
168
255
224
168
255
224
168
255
224
168
255
224
168
255
224
168
255
224
168
255
224
168
255
224
168
255
224
168
255
224
168
255
224
168
255
224
168
255
224
168
255
224
168
255
224
168
255
224
168
255
224
168
255
224
168
255
224
168
255
224
168
255
224
168
255
224
168
255
224
168
255
224
168
255
224
168
255
224
168
255
224
168
255
224
168
255
224
168
255
224
168
255
224
168
255
224
168
255
224
168
255
224
168
255
224
168
255
224
168
255
224
168
255
224
168
255
224
168
255
224
168
255
224
168
255
224
168
255
224
168
255
224
168
255
224
168
255
224
168
255
224
168
255
224
168
255
224
168
255
224
168
172
124
0
172
124
0
172
124
0
248
56
0
172
124
0
172
124
0
172
124
0
255
224
168
255
224
168
255
224
168
255
224
168
255
224
168
255
224
168
255
224
168
255
224
168
255
224
168
255
224
168
255
224
168
255
224
168
255
224
168
255
224
168
255
224
168
255
224
168
255
224
168
255
224
168
255
224
168
255
160
68
255
160
68
172
124
0
172
124
0
172
124
0
172
124
0
172
124
0
248
56
0
248
56
0
248
56
0
255
224
168
255
224
168
255
224
168
255
224
168
255
224
168
255
224
168
255
224
168
255
224
168
255
224
168
255
224
168
255
224
168
255
224
168
255
224
168
255
224
168
255
224
168
255
224
168
255
224
168
255
224
168
255
160
68
255
160
68
255
160
68
172
124
0
172
124
0
172
124
0
172
124
0
172
124
0
248
56
0
172
124
0
172
124
0
255
224
168
255
224
168
255
224
168
255
224
168
255
224
168
255
224
168
255
224
168
255
224
168
255
224
168
255
224
168
255
224
168
255
224
168
255
224
168
255
224
168
255
224
168
255
224
168
255
224
168
255
224
168
255
224
168
255
224
168
255
224
168
255
224
168
255
224
168
248
56
0
172
124
0
172
124
0
172
124
0
248
56
0
172
124
0
172
124
0
255
224
168
255
224
168
255
224
168
255
224
168
255
224
168
255
224
168
255
224
168
255
224
168
255
224
168
255
224
168
255
224
168
255
224
168
255
224
168
255
224
168
255
224
168
255
224
168
255
224
168
255
224
168
255
224
168
255
224
168
255
224
168
255
224
168
255
224
168
248
56
0
172
124
0
172
124
0
172
124
0
248
56
0
172
124
0
172
124
0
255
224
168
255
224
168
255
224
168
255
224
168
255
224
168
255
224
168
255
224
168
255
224
168
255
224
168
255
224
168
255
224
168
255
224
168
255
224
168
255
224
168
255
224
168
255
224
168
255
224
168
255
224
168
255
224
168
255
224
168
255
224
168
255
224
168
255
224
168
172
124
0
172
124
0
248
56
0
172
124
0
172
124
0
172
124
0
172
124
0
255
224
168
255
224
168
255
224
168
255
224
168
255
224
168
255
224
168
255
224
168
255
224
168
255
224
168
255
224
168
255
224
168
255
224
168
255
224
168
255
224
168
255
224
168
255
224
168
255
224
168
255
224
168
255
224
168
255
224
168
255
224
168
255
224
168
255
224
168
172
124
0
172
124
0
172
124
0
248
56
0
172
124
0
172
124
0
172
124
0
255
224
168
255
224
168
255
224
168
255
224
168
255
224
168
255
224
168
255
224
168
255
224
168
255
224
168
255
224
168
255
224
168
255
224
168
255
224
168
255
224
168
255
224
168
255
224
168
255
224
168
255
224
168
255
224
168
255
224
168
255
224
168
255
224
168
255
224
168
172
124
0
248
56
0
172
124
0
172
124
0
172
124
0
248
56
0
248
56
0
255
224
168
255
224
168
255
224
168
255
224
168
255
224
168
255
224
168
255
224
168
255
224
168
255
224
168
255
224
168
255
224
168
255
224
168
255
224
168
255
224
168
255
224
168
255
224
168
255
224
168
255
224
168
255
224
168
255
224
168
255
224
168
255
224
168
255
224
168
172
124
0
248
56
0
172
124
0
172
124
0
172
124
0
248
56
0
248
56
0
255
224
168
255
224
168
255
224
168
255
224
168
255
224
168
255
224
168
255
224
168
255
224
168
255
224
168
255
224
168
255
224
168
255
224
168
255
224
168
255
224
168
255
224
168
255
224
168
255
224
168
255
224
168
255
224
168
255
224
168
255
224
168
255
224
168
255
224
168
172
124
0
248
56
0
172
124
0
172
124
0
172
124
0
172
124
0
172
124
0
255
160
68
255
160
68
255
160
68
255
160
68
255
224
168
255
224
168
255
224
168
255
224
168
255
224
168
255
224
168
255
224
168
255
224
168
255
224
168
255
224
168
255
224
168
255
224
168
255
224
168
255
224
168
255
224
168
255
224
168
255
224
168
255
224
168
248
56
0
248
56
0
172
124
0
172
124
0
172
124
0
172
124
0
172
124
0
255
160
68
255
160
68
255
160
68
255
224
168
255
224
168
255
224
168
255
224
168
255
224
168
255
224
168
255
224
168
255
224
168
255
224
168
255
224
168
255
224
168
255
224
168
255
224
168
255
224
168
255
224
168
255
224
168
255
224
168
255
224
168
255
224
168
172
124
0
172
124
0
248
56
0
172
124
0
172
124
0
172
124
0
172
124
0
255
224
168
255
224
168
255
224
168
255
224
168
255
224
168
255
224
168
255
224
168
255
224
168
255
224
168
255
224
168
255
224
168
255
224
168
255
224
168
255
224
168
255
224
168
255
224
168
255
224
168
255
224
168
255
224
168
255
224
168
255
224
168
255
224
168
255
224
168
255
224
168
255
224
168
255
224
168
255
224
168
255
224
168
255
224
168
255
224
168
255
224
168
255
224
168
255
224
168
255
224
168
255
224
168
255
224
168
255
224
168
255
224
168
255
224
168
255
224
168
255
224
168
255
224
168
255
224
168
255
224
168
255
224
168
255
224
168
255
224
168
255
224
168
255
224
168
255
224
168
255
224
168
255
224
168
255
224
168
255
224
168
255
224
168
255
224
168
255
224
168
255
224
168
255
224
168
255
224
168
255
224
168
255
224
168
255
224
168
255
224
168
255
224
168
255
224
168
255
224
168
255
224
168
255
224
168
255
224
168
255
224
168
172
124
0
172
124
0
172
124
0
172
124
0
248
56
0
248
56
0
248
56
0
248
56
0
255
224
168
255
224
168
255
224
168
255
224
168
255
224
168
255
224
168
255
224
168
255
224
168
255
224
168
255
224
168
255
224
168
255
224
168
255
224
168
255
224
168
255
224
168
255
224
168
255
224
168
255
224
168
255
160
68
255
160
68
255
160
68
172
124
0
172
124
0
172
124
0
172
124
0
172
124
0
172
124
0
248
56
0
248
56
0
248
56
0
255
224
168
255
224
168
255
224
168
255
224
168
255
224
168
255
224
168
255
224
168
255
224
168
255
224
168
255
224
168
255
224
168
255
224
168
255
224
168
255
224
168
255
224
168
255
224
168
255
224
168
255
224
168
255
160
68
255
160
68
172
124
0
172
124
0
172
124
0
172
124
0
172
124
0
172
124
0
248
56
0
248
56
0
255
224
168
255
224
168
255
224
168
255
224
168
255
224
168
255
224
168
255
224
168
255
224
168
255
224
168
255
224
168
255
224
168
255
224
168
255
224
168
255
224
168
255
224
168
255
224
168
255
224
168
255
224
168
255
224
168
255
224
168
255
224
168
255
224
168
255
224
168
172
124
0
172
124
0
172
124
0
172
124
0
172
124
0
248
56
0
248
56
0
255
224
168
255
224
168
255
224
168
255
224
168
255
224
168
255
224
168
255
224
168
255
224
168
255
224
168
255
224
168
255
224
168
255
224
168
255
224
168
255
224
168
255
224
168
255
224
168
255
224
168
255
224
168
255
224
168
255
224
168
255
224
168
255
224
168
255
224
168
172
124
0
172
124
0
172
124
0
172
124
0
172
124
0
248
56
0
248
56
0
255
224
168
255
224
168
255
224
168
255
224
168
255
224
168
255
224
168
255
224
168
255
224
168
255
224
168
255
224
168
255
224
168
255
224
168
255
224
168
255
224
168
255
224
168
255
224
168
255
224
168
255
224
168
255
224
168
255
224
168
255
224
168
255
224
168
255
224
168
172
124
0
172
124
0
248
56
0
172
124
0
172
124
0
172
124
0
172
124
0
172
124
0
255
224
168
255
224
168
255
224
168
255
224
168
255
224
168
255
224
168
255
224
168
255
224
168
255
224
168
255
224
168
255
224
168
255
224
168
255
224
168
255
224
168
255
224
168
255
224
168
255
224
168
255
224
168
255
224
168
255
224
168
255
224
168
172
124
0
172
124
0
172
124
0
172
124
0
248
56
0
172
124
0
172
124
0
172
124
0
255
224
168
255
224
168
255
224
168
255
224
168
255
224
168
255
224
168
255
224
168
255
224
168
255
224
168
255
224
168
255
224
168
255
224
168
255
224
168
255
224
168
255
224
168
255
224
168
255
224
168
255
224
168
255
224
168
255
224
168
255
224
168
255
224
168
255
224
168
248
56
0
172
124
0
172
124
0
172
124
0
172
124
0
172
124
0
172
124
0
255
224
168
255
224
168
255
224
168
255
224
168
255
224
168
255
224
168
255
224
168
255
224
168
255
224
168
255
224
168
255
224
168
255
224
168
255
224
168
255
224
168
255
224
168
255
224
168
255
224
168
255
224
168
255
224
168
255
224
168
255
224
168
255
224
168
255
224
168
248
56
0
172
124
0
172
124
0
172
124
0
172
124
0
172
124
0
172
124
0
255
224
168
255
224
168
255
224
168
255
224
168
255
224
168
255
224
168
255
224
168
255
224
168
255
224
168
255
224
168
255
224
168
255
224
168
255
224
168
255
224
168
255
224
168
255
224
168
255
224
168
255
224
168
255
224
168
255
224
168
255
224
168
255
224
168
255
224
168
248
56
0
172
124
0
172
124
0
172
124
0
172
124
0
172
124
0
172
124
0
255
160
68
255
160
68
255
160
68
255
224
168
255
224
168
255
224
168
255
224
168
255
224
168
255
224
168
255
224
168
255
224
168
255
224
168
255
224
168
255
224
168
255
224
168
255
224
168
255
224
168
255
224
168
255
224
168
255
224
168
255
224
168
248
56
0
248
56
0
172
124
0
172
124
0
172
124
0
172
124
0
172
124
0
172
124
0
255
160
68
255
160
68
255
160
68
255
160
68
255
224
168
255
224
168
255
224
168
255
224
168
255
224
168
255
224
168
255
224
168
255
224
168
255
224
168
255
224
168
255
224
168
255
224
168
255
224
168
255
224
168
255
224
168
255
224
168
255
224
168
255
224
168
248
56
0
248
56
0
248
56
0
172
124
0
172
124
0
172
124
0
172
124
0
172
124
0
255
224
168
255
224
168
255
224
168
255
224
168
255
224
168
255
224
168
255
224
168
255
224
168
255
224
168
255
224
168
255
224
168
255
224
168
255
224
168
255
224
168
255
224
168
255
224
168
255
224
168
255
224
168
255
224
168
255
224
168
255
224
168
255
224
168
255
224
168
255
224
168
255
224
168
255
224
168
255
224
168
255
224
168
255
224
168
255
224
168
255
224
168
255
224
168
255
224
168
255
224
168
255
224
168
255
224
168
255
224
168
255
224
168
255
224
168
255
224
168
255
224
168
255
224
168
255
224
168
255
224
168
255
224
168
255
224
168
255
224
168
255
224
168
255
224
168
255
224
168
255
224
168
255
224
168
255
224
168
255
224
168
255
224
168
255
224
168
255
224
168
255
224
168
255
224
168
255
224
168
255
224
168
255
224
168
255
224
168
255
224
168
255
224
168
255
224
168
255
160
68
255
160
68
172
124
0
172
124
0
172
124
0
172
124
0
172
124
0
172
124
0
248
56
0
248
56
0
248
56
0
248
56
0
255
224
168
255
224
168
255
224
168
255
224
168
255
224
168
255
224
168
255
224
168
255
224
168
255
224
168
255
224
168
255
224
168
255
224
168
255
224
168
255
224
168
255
224
168
255
224
168
255
224
168
255
224
168
255
160
68
255
160
68
255
160
68
172
124
0
172
124
0
172
124
0
172
124
0
172
124
0
172
124
0
248
56
0
248
56
0
248
56
0
248
56
0
255
224
168
255
224
168
255
224
168
255
224
168
255
224
168
255
224
168
255
224
168
255
224
168
255
224
168
255
224
168
255
224
168
255
224
168
255
224
168
255
224
168
255
224
168
255
224
168
255
224
168
255
224
168
255
224
168
248
56
0
172
124
0
172
124
0
172
124
0
172
124
0
248
56
0
248
56
0
248
56
0
248
56
0
255
224
168
255
224
168
255
224
168
255
224
168
255
224
168
255
224
168
255
224
168
255
224
168
255
224
168
255
224
168
255
224
168
255
224
168
255
224
168
255
224
168
255
224
168
255
224
168
255
224
168
255
224
168
255
224
168
255
224
168
255
224
168
255
160
68
172
124
0
172
124
0
172
124
0
172
124
0
248
56
0
248
56
0
248
56
0
248
56
0
255
224
168
255
224
168
255
224
168
255
224
168
255
224
168
255
224
168
255
224
168
255
224
168
255
224
168
255
224
168
255
224
168
255
224
168
255
224
168
255
224
168
255
224
168
255
224
168
255
224
168
255
224
168
255
224
168
255
224
168
255
224
168
255
160
68
172
124
0
172
124
0
172
124
0
172
124
0
248
56
0
248
56
0
248
56
0
248
56
0
255
224
168
255
224
168
255
224
168
255
224
168
255
224
168
255
224
168
255
224
168
255
224
168
255
224
168
255
224
168
255
224
168
255
224
168
255
224
168
255
224
168
255
224
168
255
224
168
255
224
168
255
224
168
255
224
168
255
224
168
255
224
168
255
224
168
172
124
0
172
124
0
248
56
0
248
56
0
172
124
0
172
124
0
172
124
0
172
124
0
255
160
68
255
160
68
255
224
168
255
224
168
255
224
168
255
224
168
255
224
168
255
224
168
255
224
168
255
224
168
255
224
168
255
224
168
255
224
168
255
224
168
255
224
168
255
224
168
255
224
168
255
224
168
255
224
168
255
160
68
172
124
0
172
124
0
172
124
0
172
124
0
248
56
0
248
56
0
172
124
0
172
124
0
172
124
0
255
224
168
255
224
168
255
224
168
255
224
168
255
224
168
255
224
168
255
224
168
255
224
168
255
224
168
255
224
168
255
224
168
255
224
168
255
224
168
255
224
168
255
224
168
255
224
168
255
224
168
255
224
168
255
224
168
255
224
168
255
224
168
255
224
168
248
56
0
248
56
0
248
56
0
172
124
0
172
124
0
172
124
0
172
124
0
255
160
68
255
160
68
255
224
168
255
224
168
255
224
168
255
224
168
255
224
168
255
224
168
255
224
168
255
224
168
255
224
168
255
224
168
255
224
168
255
224
168
255
224
168
255
224
168
255
224
168
255
224
168
255
224
168
255
224
168
255
224
168
255
224
168
255
224
168
248
56
0
248
56
0
248
56
0
172
124
0
172
124
0
172
124
0
172
124
0
255
160
68
255
160
68
255
224
168
255
224
168
255
224
168
255
224
168
255
224
168
255
224
168
255
224
168
255
224
168
255
224
168
255
224
168
255
224
168
255
224
168
255
224
168
255
224
168
255
224
168
255
224
168
255
224
168
255
224
168
255
224
168
255
224
168
255
224
168
248
56
0
248
56
0
248
56
0
172
124
0
172
124
0
172
124
0
172
124
0
248
56
0
248
56
0
255
224
168
255
224
168
255
224
168
255
224
168
255
224
168
255
224
168
255
224
168
255
224
168
255
224
168
255
224
168
255
224
168
255
224
168
255
224
168
255
224
168
255
224
168
255
224
168
255
224
168
255
224
168
255
224
168
248
56
0
248
56
0
248
56
0
172
124
0
172
124
0
172
124
0
172
124
0
172
124
0
172
124
0
255
160
68
255
160
68
255
160
68
255
160
68
255
224
168
255
224
168
255
224
168
255
224
168
255
224
168
255
224
168
255
224
168
255
224
168
255
224
168
255
224
168
255
224
168
255
224
168
255
224
168
255
224
168
255
224
168
255
224
168
255
224
168
255
224
168
248
56
0
248
56
0
248
56
0
172
124
0
172
124
0
172
124
0
172
124
0
172
124
0
172
124
0
255
160
68
255
160
68
255
160
68
255
224
168
255
224
168
255
224
168
255
224
168
255
224
168
255
224
168
255
224
168
255
224
168
255
224
168
255
224
168
255
224
168
255
224
168
255
224
168
255
224
168
255
224
168
255
224
168
255
224
168
255
224
168
255
224
168
255
224
168
255
224
168
255
224
168
255
224
168
255
224
168
255
224
168
255
224
168
255
224
168
255
224
168
255
224
168
255
224
168
255
224
168
255
224
168
255
224
168
255
224
168
255
224
168
255
224
168
255
224
168
255
224
168
255
224
168
255
224
168
255
224
168
255
224
168
255
224
168
255
224
168
255
224
168
255
224
168
255
224
168
255
224
168
255
224
168
255
224
168
255
224
168
255
224
168
255
224
168
255
224
168
255
224
168
255
224
168
255
224
168
255
224
168
255
224
168
255
224
168
255
224
168
255
160
68
255
160
68
255
160
68
172
124
0
172
124
0
172
124
0
172
124
0
172
124
0
248
56
0
248
56
0
248
56
0
248
56
0
248
56
0
255
224
168
255
224
168
255
224
168
255
224
168
255
224
168
255
224
168
255
224
168
255
224
168
255
224
168
255
224
168
255
224
168
255
224
168
255
224
168
255
224
168
255
224
168
255
224
168
255
224
168
255
224
168
255
224
168
255
224
168
255
224
168
255
224
168
255
224
168
248
56
0
255
160
68
248
56
0
248
56
0
248
56
0
248
56
0
248
56
0
248
56
0
255
224
168
255
224
168
255
224
168
255
224
168
255
224
168
255
224
168
255
224
168
255
224
168
255
224
168
255
224
168
255
224
168
255
224
168
255
224
168
255
224
168
255
224
168
255
224
168
255
224
168
255
224
168
255
224
168
255
224
168
248
56
0
248
56
0
248
56
0
248
56
0
248
56
0
248
56
0
248
56
0
172
124
0
172
124
0
172
124
0
255
224
168
255
224
168
255
224
168
255
224
168
255
224
168
255
224
168
255
224
168
255
224
168
255
224
168
255
224
168
255
224
168
255
224
168
255
224
168
255
224
168
255
224
168
255
224
168
255
224
168
255
224
168
255
160
68
255
160
68
172
124
0
172
124
0
248
56
0
248
56
0
248
56
0
248
56
0
248
56
0
172
124
0
172
124
0
172
124
0
255
224
168
255
224
168
255
224
168
255
224
168
255
224
168
255
224
168
255
224
168
255
224
168
255
224
168
255
224
168
255
224
168
255
224
168
255
224
168
255
224
168
255
224
168
255
224
168
255
224
168
255
224
168
255
160
68
255
160
68
172
124
0
172
124
0
248
56
0
248
56
0
248
56
0
248
56
0
248
56
0
172
124
0
172
124
0
255
224
168
255
224
168
255
224
168
255
224
168
255
224
168
255
224
168
255
224
168
255
224
168
255
224
168
255
224
168
255
224
168
255
224
168
255
224
168
255
224
168
255
224
168
255
224
168
255
224
168
255
224
168
255
224
168
255
224
168
255
224
168
255
224
168
248
56
0
255
160
68
248
56
0
248
56
0
172
124
0
172
124
0
255
160
68
255
160
68
255
160
68
255
160
68
255
224
168
255
224
168
255
224
168
255
224
168
255
224
168
255
224
168
255
224
168
255
224
168
255
224
168
255
224
168
255
224
168
255
224
168
255
224
168
255
224
168
255
224
168
255
160
68
255
160
68
255
160
68
172
124
0
172
124
0
248
56
0
248
56
0
255
160
68
248
56
0
248
56
0
255
224
168
255
224
168
255
224
168
255
224
168
255
224
168
255
224
168
255
224
168
255
224
168
255
224
168
255
224
168
255
224
168
255
224
168
255
224
168
255
224
168
255
224
168
255
224
168
255
224
168
255
224
168
255
224
168
255
224
168
255
224
168
255
224
168
172
124
0
248
56
0
248
56
0
248
56
0
248
56
0
248
56
0
172
124
0
172
124
0
255
160
68
255
160
68
255
160
68
255
224
168
255
224
168
255
224
168
255
224
168
255
224
168
255
224
168
255
224
168
255
224
168
255
224
168
255
224
168
255
224
168
255
224
168
255
224
168
255
224
168
255
224
168
255
224
168
255
224
168
255
224
168
172
124
0
172
124
0
248
56
0
248
56
0
248
56
0
248
56
0
248
56
0
172
124
0
172
124
0
255
160
68
255
160
68
255
160
68
255
224
168
255
224
168
255
224
168
255
224
168
255
224
168
255
224
168
255
224
168
255
224
168
255
224
168
255
224
168
255
224
168
255
224
168
255
224
168
255
224
168
255
224
168
255
224
168
255
224
168
255
224
168
172
124
0
172
124
0
248
56
0
248
56
0
248
56
0
248
56
0
248
56
0
248
56
0
248
56
0
248
56
0
255
224
168
255
224
168
255
224
168
255
224
168
255
224
168
255
224
168
255
224
168
255
224
168
255
224
168
255
224
168
255
224
168
255
224
168
255
224
168
255
224
168
255
224
168
255
224
168
255
224
168
255
224
168
255
224
168
255
224
168
248
56
0
248
56
0
248
56
0
248
56
0
248
56
0
255
160
68
248
56
0
248
56
0
255
224
168
255
224
168
255
224
168
255
224
168
255
224
168
255
224
168
255
224
168
255
224
168
255
224
168
255
224
168
255
224
168
255
224
168
255
224
168
255
224
168
255
224
168
255
224
168
255
224
168
255
224
168
255
224
168
255
224
168
255
224
168
255
224
168
255
224
168
248
56
0
248
56
0
248
56
0
248
56
0
172
124
0
172
124
0
172
124
0
172
124
0
172
124
0
255
160
68
255
160
68
255
160
68
255
160
68
255
224
168
255
224
168
255
224
168
255
224
168
255
224
168
255
224
168
255
224
168
255
224
168
255
224
168
255
224
168
255
224
168
255
224
168
255
224
168
255
224
168
255
224
168
255
224
168
255
224
168
255
224
168
255
224
168
255
224
168
255
224
168
255
224
168
255
224
168
255
224
168
255
224
168
255
224
168
255
224
168
255
224
168
255
224
168
255
224
168
255
224
168
255
224
168
255
224
168
255
224
168
255
224
168
255
224
168
255
224
168
255
224
168
255
224
168
255
224
168
255
224
168
255
224
168
255
224
168
255
224
168
255
224
168
255
224
168
255
224
168
255
224
168
255
224
168
255
224
168
255
224
168
255
224
168
255
224
168
255
224
168
255
224
168
255
224
168
255
224
168
255
224
168
255
224
168
255
224
168
255
160
68
255
160
68
255
160
68
172
124
0
172
124
0
172
124
0
172
124
0
248
56
0
248
56
0
248
56
0
248
56
0
248
56
0
248
56
0
248
56
0
255
224
168
255
224
168
255
224
168
255
224
168
255
224
168
255
224
168
255
224
168
255
224
168
255
224
168
255
224
168
255
224
168
255
224
168
255
224
168
255
224
168
255
224
168
255
224
168
255
224
168
172
124
0
172
124
0
255
224
168
255
224
168
255
224
168
248
56
0
248
56
0
248
56
0
248
56
0
248
56
0
248
56
0
248
56
0
248
56
0
255
224
168
255
224
168
255
224
168
255
224
168
255
224
168
255
224
168
255
224
168
255
224
168
255
224
168
255
224
168
255
224
168
255
224
168
255
224
168
255
224
168
255
224
168
255
224
168
255
224
168
255
224
168
255
224
168
255
224
168
255
224
168
248
56
0
248
56
0
248
56
0
248
56
0
248
56
0
248
56
0
172
124
0
172
124
0
172
124
0
255
224
168
255
224
168
255
224
168
255
224
168
255
224
168
255
224
168
255
224
168
255
224
168
255
224
168
255
224
168
255
224
168
255
224
168
255
224
168
255
224
168
255
224
168
255
224
168
255
224
168
255
224
168
255
160
68
255
160
68
255
160
68
248
56
0
248
56
0
248
56
0
248
56
0
248
56
0
248
56
0
172
124
0
172
124
0
172
124
0
255
224
168
255
224
168
255
224
168
255
224
168
255
224
168
255
224
168
255
224
168
255
224
168
255
224
168
255
224
168
255
224
168
255
224
168
255
224
168
255
224
168
255
224
168
255
224
168
255
224
168
255
224
168
255
160
68
255
160
68
255
160
68
248
56
0
248
56
0
248
56
0
248
56
0
248
56
0
248
56
0
172
124
0
172
124
0
172
124
0
255
224
168
255
224
168
255
224
168
255
224
168
255
224
168
255
224
168
255
224
168
255
224
168
255
224
168
255
224
168
255
224
168
255
224
168
255
224
168
255
224
168
255
224
168
255
224
168
255
224
168
255
224
168
255
224
168
255
224
168
255
224
168
248
56
0
248
56
0
248
56
0
248
56
0
248
56
0
248
56
0
172
124
0
172
124
0
172
124
0
255
224
168
255
224
168
255
224
168
255
224
168
255
224
168
255
224
168
255
224
168
255
224
168
255
224
168
255
224
168
255
224
168
255
224
168
255
224
168
255
224
168
255
224
168
255
224
168
255
224
168
172
124
0
172
124
0
248
56
0
248
56
0
248
56
0
248
56
0
248
56
0
248
56
0
248
56
0
255
224
168
255
224
168
255
224
168
255
224
168
255
224
168
255
224
168
255
224
168
255
224
168
255
224
168
255
224
168
255
224
168
255
224
168
255
224
168
255
224
168
255
224
168
255
224
168
255
224
168
255
224
168
255
224
168
255
224
168
255
224
168
172
124
0
172
124
0
248
56
0
248
56
0
248
56
0
248
56
0
248
56
0
248
56
0
248
56
0
255
160
68
255
160
68
255
160
68
255
224
168
255
224
168
255
224
168
255
224
168
255
224
168
255
224
168
255
224
168
255
224
168
255
224
168
255
224
168
255
224
168
255
224
168
255
224
168
255
224
168
255
224
168
255
224
168
255
224
168
255
224
168
172
124
0
172
124
0
248
56
0
248
56
0
248
56
0
248
56
0
248
56
0
248
56
0
248
56
0
255
160
68
255
160
68
255
160
68
255
224
168
255
224
168
255
224
168
255
224
168
255
224
168
255
224
168
255
224
168
255
224
168
255
224
168
255
224
168
255
224
168
255
224
168
255
224
168
255
224
168
255
224
168
255
224
168
255
224
168
255
224
168
172
124
0
172
124
0
248
56
0
248
56
0
248
56
0
248
56
0
248
56
0
248
56
0
248
56
0
255
224
168
255
224
168
255
224
168
255
224
168
255
224
168
255
224
168
255
224
168
255
224
168
255
224
168
255
224
168
255
224
168
255
224
168
255
224
168
255
224
168
255
224
168
255
224
168
255
224
168
255
224
168
255
224
168
255
224
168
255
224
168
248
56
0
248
56
0
248
56
0
248
56
0
248
56
0
248
56
0
248
56
0
248
56
0
255
224
168
255
224
168
255
224
168
172
124
0
172
124
0
255
224
168
255
224
168
255
224
168
255
224
168
255
224
168
255
224
168
255
224
168
255
224
168
255
224
168
255
224
168
255
224
168
255
224
168
255
224
168
255
224
168
255
224
168
255
224
168
255
224
168
248
56
0
248
56
0
248
56
0
248
56
0
248
56
0
248
56
0
172
124
0
172
124
0
172
124
0
172
124
0
255
160
68
255
160
68
255
160
68
255
160
68
255
224
168
255
224
168
255
224
168
255
224
168
255
224
168
255
224
168
255
224
168
255
224
168
255
224
168
255
224
168
255
224
168
255
224
168
255
224
168
255
224
168
255
224
168
255
224
168
255
224
168
255
224
168
255
224
168
255
224
168
255
224
168
255
224
168
255
224
168
255
224
168
255
224
168
255
224
168
255
224
168
255
224
168
255
224
168
255
224
168
255
224
168
255
224
168
255
224
168
255
224
168
255
224
168
255
224
168
255
224
168
255
224
168
255
224
168
255
224
168
255
224
168
255
224
168
255
224
168
255
224
168
255
224
168
255
224
168
255
224
168
255
224
168
255
224
168
255
224
168
255
224
168
255
224
168
255
224
168
255
224
168
255
224
168
255
224
168
255
224
168
255
224
168
255
224
168
255
224
168
172
124
0
172
124
0
248
56
0
248
56
0
248
56
0
248
56
0
248
56
0
248
56
0
248
56
0
248
56
0
248
56
0
248
56
0
248
56
0
248
56
0
255
224
168
255
224
168
255
224
168
255
224
168
255
224
168
255
224
168
255
224
168
255
224
168
255
224
168
255
224
168
255
224
168
255
224
168
255
224
168
255
224
168
255
224
168
255
224
168
255
224
168
172
124
0
172
124
0
248
56
0
248
56
0
248
56
0
248
56
0
248
56
0
248
56
0
248
56
0
248
56
0
248
56
0
248
56
0
248
56
0
255
224
168
255
224
168
255
224
168
255
224
168
255
224
168
255
224
168
255
224
168
255
224
168
255
224
168
255
224
168
255
224
168
255
224
168
255
224
168
255
224
168
255
224
168
255
224
168
255
224
168
255
224
168
255
224
168
255
224
168
255
224
168
255
224
168
255
224
168
248
56
0
248
56
0
248
56
0
248
56
0
172
124
0
172
124
0
172
124
0
255
224
168
255
224
168
255
224
168
255
224
168
255
224
168
255
224
168
255
224
168
255
224
168
255
224
168
255
224
168
255
224
168
255
224
168
255
224
168
255
224
168
255
224
168
255
224
168
255
224
168
255
224
168
255
160
68
255
160
68
255
224
168
255
224
168
248
56
0
248
56
0
248
56
0
248
56
0
248
56
0
172
124
0
172
124
0
172
124
0
255
224
168
255
224
168
255
224
168
255
224
168
255
224
168
255
224
168
255
224
168
255
224
168
255
224
168
255
224
168
255
224
168
255
224
168
255
224
168
255
224
168
255
224
168
255
224
168
255
224
168
255
224
168
255
160
68
255
160
68
255
224
168
255
224
168
248
56
0
248
56
0
248
56
0
172
124
0
172
124
0
172
124
0
255
224
168
255
224
168
255
224
168
255
224
168
255
224
168
255
224
168
255
224
168
255
224
168
255
224
168
255
224
168
255
224
168
255
224
168
255
224
168
255
224
168
255
224
168
255
224
168
255
224
168
255
224
168
255
224
168
255
224
168
255
224
168
255
224
168
255
224
168
255
224
168
248
56
0
248
56
0
248
56
0
172
124
0
172
124
0
172
124
0
255
224
168
255
224
168
255
224
168
255
224
168
255
224
168
255
224
168
255
224
168
255
224
168
255
224
168
255
224
168
255
224
168
255
224
168
255
224
168
255
224
168
255
224
168
255
224
168
255
224
168
255
224
168
255
224
168
255
224
168
255
224
168
172
124
0
172
124
0
248
56
0
248
56
0
248
56
0
248
56
0
255
224
168
255
224
168
255
224
168
255
224
168
255
224
168
255
224
168
255
224
168
255
224
168
255
224
168
255
224
168
255
224
168
255
224
168
255
224
168
255
224
168
255
224
168
255
224
168
255
224
168
255
224
168
255
224
168
255
224
168
255
224
168
255
224
168
255
224
168
255
224
168
172
124
0
172
124
0
248
56
0
248
56
0
248
56
0
248
56
0
255
224
168
255
224
168
255
160
68
255
160
68
255
224
168
255
224
168
255
224
168
255
224
168
255
224
168
255
224
168
255
224
168
255
224
168
255
224
168
255
224
168
255
224
168
255
224
168
255
224
168
255
224
168
255
224
168
255
224
168
255
224
168
255
224
168
172
124
0
172
124
0
248
56
0
248
56
0
248
56
0
248
56
0
248
56
0
248
56
0
255
224
168
255
224
168
255
160
68
255
160
68
255
224
168
255
224
168
255
224
168
255
224
168
255
224
168
255
224
168
255
224
168
255
224
168
255
224
168
255
224
168
255
224
168
255
224
168
255
224
168
255
224
168
255
224
168
255
224
168
255
224
168
255
224
168
172
124
0
172
124
0
248
56
0
248
56
0
248
56
0
248
56
0
248
56
0
255
224
168
255
224
168
255
224
168
255
224
168
255
224
168
255
224
168
255
224
168
255
224
168
255
224
168
255
224
168
255
224
168
255
224
168
255
224
168
255
224
168
255
224
168
255
224
168
255
224
168
255
224
168
255
224
168
255
224
168
255
224
168
255
224
168
255
224
168
248
56
0
248
56
0
248
56
0
248
56
0
248
56
0
248
56
0
248
56
0
248
56
0
248
56
0
248
56
0
172
124
0
172
124
0
172
124
0
255
224
168
255
224
168
255
224
168
255
224
168
255
224
168
255
224
168
255
224
168
255
224
168
255
224
168
255
224
168
255
224
168
255
224
168
255
224
168
255
224
168
255
224
168
255
224
168
255
224
168
248
56
0
248
56
0
248
56
0
248
56
0
248
56
0
248
56
0
248
56
0
248
56
0
248
56
0
248
56
0
248
56
0
172
124
0
172
124
0
172
124
0
255
224
168
255
224
168
255
224
168
255
224
168
255
224
168
255
224
168
255
224
168
255
224
168
255
224
168
255
224
168
255
224
168
255
224
168
255
224
168
255
224
168
255
224
168
255
224
168
255
224
168
255
224
168
255
224
168
255
224
168
255
224
168
255
224
168
255
224
168
255
224
168
255
224
168
255
224
168
255
224
168
255
224
168
255
224
168
255
224
168
255
224
168
255
224
168
255
224
168
255
224
168
255
224
168
255
224
168
255
224
168
255
224
168
255
224
168
255
224
168
255
224
168
255
224
168
255
224
168
255
224
168
255
224
168
255
224
168
255
224
168
255
224
168
255
224
168
255
224
168
255
224
168
255
224
168
255
224
168
255
224
168
255
224
168
255
224
168
255
224
168
255
224
168
255
224
168
255
224
168
255
224
168
172
124
0
248
56
0
248
56
0
248
56
0
248
56
0
248
56
0
248
56
0
248
56
0
248
56
0
248
56
0
248
56
0
248
56
0
248
56
0
255
224
168
255
224
168
255
224
168
255
224
168
255
224
168
255
224
168
255
224
168
255
224
168
255
224
168
255
224
168
255
224
168
255
224
168
255
224
168
255
224
168
255
224
168
255
224
168
255
224
168
172
124
0
172
124
0
248
56
0
248
56
0
248
56
0
248
56
0
248
56
0
248
56
0
248
56
0
248
56
0
248
56
0
248
56
0
255
224
168
255
224
168
255
224
168
255
224
168
255
224
168
255
224
168
255
224
168
255
224
168
255
224
168
255
224
168
255
224
168
255
224
168
255
224
168
255
224
168
255
224
168
255
224
168
255
224
168
255
224
168
255
224
168
255
224
168
255
224
168
255
224
168
255
224
168
255
224
168
255
224
168
172
124
0
172
124
0
172
124
0
255
224
168
172
124
0
172
124
0
255
224
168
255
224
168
255
224
168
255
224
168
255
224
168
255
224
168
255
224
168
255
224
168
255
224
168
255
224
168
255
224
168
255
224
168
255
224
168
255
224
168
255
224
168
255
224
168
255
224
168
255
224
168
255
224
168
255
224
168
255
224
168
255
224
168
255
224
168
255
224
168
172
124
0
172
124
0
172
124
0
255
224
168
172
124
0
172
124
0
255
224
168
255
224
168
255
224
168
255
224
168
255
224
168
255
224
168
255
224
168
255
224
168
255
224
168
255
224
168
255
224
168
255
224
168
255
224
168
255
224
168
255
224
168
255
224
168
255
224
168
255
224
168
255
224
168
255
224
168
255
224
168
255
224
168
255
224
168
255
224
168
255
224
168
172
124
0
172
124
0
172
124
0
172
124
0
255
224
168
255
224
168
255
224
168
255
224
168
255
224
168
255
224
168
255
224
168
255
224
168
255
224
168
255
224
168
255
224
168
255
224
168
255
224
168
255
224
168
255
224
168
255
224
168
255
224
168
255
224
168
255
224
168
255
224
168
255
224
168
255
224
168
255
224
168
255
224
168
255
224
168
255
224
168
172
124
0
172
124
0
172
124
0
172
124
0
255
224
168
255
224
168
255
224
168
255
224
168
255
224
168
255
224
168
255
224
168
255
224
168
255
224
168
255
224
168
255
224
168
255
224
168
255
224
168
255
224
168
255
224
168
255
224
168
255
224
168
255
224
168
255
224
168
172
124
0
172
124
0
172
124
0
172
124
0
255
224
168
255
224
168
255
224
168
255
224
168
255
224
168
255
224
168
255
224
168
255
224
168
255
224
168
255
224
168
255
224
168
255
224
168
255
224
168
255
224
168
255
224
168
255
224
168
255
224
168
255
224
168
255
224
168
255
224
168
255
224
168
255
224
168
255
224
168
255
224
168
255
224
168
255
224
168
172
124
0
172
124
0
172
124
0
172
124
0
255
224
168
255
224
168
255
224
168
255
224
168
255
224
168
255
224
168
255
224
168
255
224
168
255
224
168
255
224
168
255
224
168
255
224
168
255
224
168
255
224
168
255
224
168
255
224
168
255
224
168
255
224
168
255
224
168
255
224
168
255
224
168
255
224
168
255
224
168
255
224
168
255
224
168
172
124
0
172
124
0
255
224
168
172
124
0
172
124
0
172
124
0
255
224
168
255
224
168
255
224
168
255
224
168
255
224
168
255
224
168
255
224
168
255
224
168
255
224
168
255
224
168
255
224
168
255
224
168
255
224
168
255
224
168
255
224
168
255
224
168
255
224
168
255
224
168
255
224
168
255
224
168
255
224
168
255
224
168
255
224
168
255
224
168
172
124
0
172
124
0
255
224
168
172
124
0
172
124
0
172
124
0
255
224
168
255
224
168
255
224
168
255
224
168
255
224
168
255
224
168
255
224
168
255
224
168
255
224
168
255
224
168
255
224
168
255
224
168
255
224
168
255
224
168
255
224
168
255
224
168
255
224
168
255
224
168
255
224
168
255
224
168
255
224
168
255
224
168
255
224
168
255
224
168
255
224
168
248
56
0
248
56
0
248
56
0
248
56
0
248
56
0
248
56
0
248
56
0
248
56
0
248
56
0
172
124
0
172
124
0
172
124
0
255
224
168
255
224
168
255
224
168
255
224
168
255
224
168
255
224
168
255
224
168
255
224
168
255
224
168
255
224
168
255
224
168
255
224
168
255
224
168
255
224
168
255
224
168
255
224
168
255
224
168
248
56
0
248
56
0
248
56
0
248
56
0
248
56
0
248
56
0
248
56
0
248
56
0
248
56
0
248
56
0
248
56
0
172
124
0
172
124
0
255
224
168
255
224
168
255
224
168
255
224
168
255
224
168
255
224
168
255
224
168
255
224
168
255
224
168
255
224
168
255
224
168
255
224
168
255
224
168
255
224
168
255
224
168
255
224
168
255
224
168
255
224
168
255
224
168
255
224
168
255
224
168
255
224
168
255
224
168
255
224
168
255
224
168
255
224
168
255
224
168
255
224
168
255
224
168
255
224
168
255
224
168
255
224
168
255
224
168
255
224
168
255
224
168
255
224
168
255
224
168
255
224
168
255
224
168
255
224
168
255
224
168
255
224
168
255
224
168
255
224
168
255
224
168
255
224
168
255
224
168
255
224
168
255
224
168
255
224
168
255
224
168
255
224
168
255
224
168
255
224
168
255
224
168
255
224
168
255
224
168
255
224
168
255
224
168
255
224
168
255
224
168
255
224
168
255
224
168
255
224
168
255
224
168
248
56
0
248
56
0
248
56
0
248
56
0
248
56
0
248
56
0
248
56
0
248
56
0
248
56
0
255
224
168
255
224
168
255
224
168
255
224
168
255
224
168
255
224
168
255
224
168
255
224
168
255
224
168
255
224
168
255
224
168
255
224
168
255
224
168
255
224
168
255
224
168
255
224
168
255
224
168
255
224
168
172
124
0
172
124
0
248
56
0
248
56
0
248
56
0
248
56
0
248
56
0
248
56
0
248
56
0
248
56
0
248
56
0
255
224
168
255
224
168
255
224
168
255
224
168
255
224
168
255
224
168
255
224
168
255
224
168
255
224
168
255
224
168
255
224
168
255
224
168
255
224
168
255
224
168
255
224
168
255
224
168
255
224
168
255
224
168
255
224
168
255
224
168
255
224
168
255
224
168
255
224
168
255
224
168
255
224
168
255
224
168
255
224
168
172
124
0
172
124
0
255
224
168
255
224
168
255
224
168
255
224
168
255
224
168
255
224
168
255
224
168
255
224
168
255
224
168
255
224
168
255
224
168
255
224
168
255
224
168
255
224
168
255
224
168
255
224
168
255
224
168
255
224
168
255
224
168
255
224
168
255
224
168
255
224
168
255
224
168
255
224
168
255
224
168
255
224
168
255
224
168
255
224
168
172
124
0
172
124
0
255
224
168
255
224
168
255
224
168
255
224
168
255
224
168
255
224
168
255
224
168
255
224
168
255
224
168
255
224
168
255
224
168
255
224
168
255
224
168
255
224
168
255
224
168
255
224
168
255
224
168
255
224
168
255
224
168
255
224
168
255
224
168
255
224
168
255
224
168
255
224
168
255
224
168
255
224
168
255
224
168
255
224
168
255
224
168
172
124
0
172
124
0
172
124
0
255
224
168
255
224
168
255
224
168
255
224
168
255
224
168
255
224
168
255
224
168
255
224
168
255
224
168
255
224
168
255
224
168
255
224
168
255
224
168
255
224
168
255
224
168
255
224
168
255
224
168
255
224
168
255
224
168
255
224
168
255
224
168
255
224
168
255
224
168
255
224
168
255
224
168
255
224
168
255
224
168
172
124
0
172
124
0
172
124
0
255
224
168
255
224
168
255
224
168
255
224
168
255
224
168
255
224
168
255
224
168
255
224
168
255
224
168
255
224
168
255
224
168
255
224
168
255
224
168
255
224
168
255
224
168
255
224
168
255
224
168
255
224
168
255
224
168
172
124
0
172
124
0
172
124
0
255
224
168
255
224
168
255
224
168
255
224
168
255
224
168
255
224
168
255
224
168
255
224
168
255
224
168
255
224
168
255
224
168
255
224
168
255
224
168
255
224
168
255
224
168
255
224
168
255
224
168
255
224
168
255
224
168
255
224
168
255
224
168
255
224
168
255
224
168
255
224
168
255
224
168
255
224
168
255
224
168
172
124
0
172
124
0
172
124
0
255
224
168
255
224
168
255
224
168
255
224
168
255
224
168
255
224
168
255
224
168
255
224
168
255
224
168
255
224
168
255
224
168
255
224
168
255
224
168
255
224
168
255
224
168
255
224
168
255
224
168
255
224
168
255
224
168
255
224
168
255
224
168
255
224
168
255
224
168
255
224
168
255
224
168
255
224
168
255
224
168
255
224
168
255
224
168
172
124
0
172
124
0
255
224
168
255
224
168
255
224
168
255
224
168
255
224
168
255
224
168
255
224
168
255
224
168
255
224
168
255
224
168
255
224
168
255
224
168
255
224
168
255
224
168
255
224
168
255
224
168
255
224
168
255
224
168
255
224
168
255
224
168
255
224
168
255
224
168
255
224
168
255
224
168
255
224
168
255
224
168
255
224
168
255
224
168
172
124
0
172
124
0
255
224
168
255
224
168
255
224
168
255
224
168
255
224
168
255
224
168
255
224
168
255
224
168
255
224
168
255
224
168
255
224
168
255
224
168
255
224
168
255
224
168
255
224
168
255
224
168
255
224
168
255
224
168
255
224
168
255
224
168
255
224
168
255
224
168
255
224
168
255
224
168
255
224
168
255
224
168
255
224
168
248
56
0
248
56
0
248
56
0
248
56
0
248
56
0
248
56
0
248
56
0
248
56
0
172
124
0
172
124
0
172
124
0
255
224
168
255
224
168
255
224
168
255
224
168
255
224
168
255
224
168
255
224
168
255
224
168
255
224
168
255
224
168
255
224
168
255
224
168
255
224
168
255
224
168
255
224
168
255
224
168
255
224
168
255
224
168
248
56
0
248
56
0
248
56
0
248
56
0
248
56
0
248
56
0
248
56
0
248
56
0
248
56
0
255
224
168
255
224
168
255
224
168
255
224
168
255
224
168
255
224
168
255
224
168
255
224
168
255
224
168
255
224
168
255
224
168
255
224
168
255
224
168
255
224
168
255
224
168
255
224
168
255
224
168
255
224
168
255
224
168
255
224
168
255
224
168
255
224
168
255
224
168
255
224
168
255
224
168
255
224
168
255
224
168
255
224
168
255
224
168
255
224
168
255
224
168
255
224
168
255
224
168
255
224
168
255
224
168
255
224
168
255
224
168
255
224
168
255
224
168
255
224
168
255
224
168
255
224
168
255
224
168
255
224
168
255
224
168
255
224
168
255
224
168
255
224
168
255
224
168
255
224
168
255
224
168
255
224
168
255
224
168
255
224
168
255
224
168
255
224
168
255
224
168
255
224
168
255
224
168
255
224
168
255
224
168
255
224
168
255
224
168
255
224
168
255
224
168
255
224
168
255
224
168
255
224
168
255
224
168
255
224
168
248
56
0
248
56
0
248
56
0
248
56
0
248
56
0
248
56
0
255
224
168
255
224
168
255
224
168
255
224
168
255
224
168
255
224
168
255
224
168
255
224
168
255
224
168
255
224
168
255
224
168
255
224
168
255
224
168
255
224
168
255
224
168
255
224
168
255
224
168
255
224
168
255
224
168
255
224
168
255
224
168
255
224
168
255
224
168
255
224
168
255
224
168
255
224
168
255
224
168
255
224
168
255
224
168
255
224
168
255
224
168
255
224
168
255
224
168
255
224
168
255
224
168
255
224
168
255
224
168
255
224
168
255
224
168
255
224
168
255
224
168
255
224
168
255
224
168
255
224
168
255
224
168
255
224
168
255
224
168
255
224
168
255
224
168
255
224
168
255
224
168
255
224
168
255
224
168
255
224
168
255
224
168
255
224
168
255
224
168
255
224
168
255
224
168
255
224
168
255
224
168
255
224
168
255
224
168
255
224
168
255
224
168
255
224
168
255
224
168
255
224
168
255
224
168
255
224
168
255
224
168
255
224
168
255
224
168
255
224
168
255
224
168
255
224
168
255
224
168
255
224
168
255
224
168
255
224
168
255
224
168
255
224
168
255
224
168
255
224
168
255
224
168
255
224
168
255
224
168
255
224
168
255
224
168
255
224
168
255
224
168
255
224
168
255
224
168
255
224
168
255
224
168
255
224
168
255
224
168
255
224
168
255
224
168
255
224
168
255
224
168
255
224
168
255
224
168
255
224
168
255
224
168
255
224
168
255
224
168
255
224
168
255
224
168
255
224
168
255
224
168
255
224
168
255
224
168
255
224
168
255
224
168
255
224
168
255
224
168
255
224
168
255
224
168
255
224
168
255
224
168
255
224
168
255
224
168
255
224
168
255
224
168
255
224
168
255
224
168
255
224
168
255
224
168
255
224
168
255
224
168
255
224
168
255
224
168
255
224
168
255
224
168
255
224
168
255
224
168
255
224
168
255
224
168
255
224
168
255
224
168
255
224
168
255
224
168
255
224
168
255
224
168
255
224
168
255
224
168
255
224
168
255
224
168
255
224
168
255
224
168
255
224
168
255
224
168
255
224
168
255
224
168
255
224
168
255
224
168
255
224
168
255
224
168
255
224
168
255
224
168
255
224
168
255
224
168
255
224
168
255
224
168
255
224
168
255
224
168
255
224
168
255
224
168
255
224
168
255
224
168
255
224
168
255
224
168
255
224
168
255
224
168
255
224
168
255
224
168
255
224
168
255
224
168
255
224
168
255
224
168
255
224
168
255
224
168
255
224
168
255
224
168
255
224
168
255
224
168
255
224
168
255
224
168
255
224
168
255
224
168
255
224
168
255
224
168
255
224
168
255
224
168
255
224
168
255
224
168
255
224
168
255
224
168
255
224
168
255
224
168
255
224
168
255
224
168
255
224
168
255
224
168
255
224
168
255
224
168
255
224
168
255
224
168
255
224
168
255
224
168
255
224
168
255
224
168
255
224
168
255
224
168
255
224
168
255
224
168
255
224
168
255
224
168
255
224
168
255
224
168
255
224
168
255
224
168
255
224
168
255
224
168
255
224
168
255
224
168
255
224
168
255
224
168
255
224
168
255
224
168
255
224
168
255
224
168
255
224
168
255
224
168
255
224
168
255
224
168
255
224
168
255
224
168
255
224
168
255
224
168
255
224
168
255
224
168
255
224
168
255
224
168
255
224
168
255
224
168
255
224
168
255
224
168
255
224
168
255
224
168
255
224
168
255
224
168
255
224
168
255
224
168
255
224
168
255
224
168
255
224
168
255
224
168
255
224
168
255
224
168
255
224
168
255
224
168
255
224
168
255
224
168
255
224
168
255
224
168
255
224
168
255
224
168
255
224
168
255
224
168
255
224
168
255
224
168
255
224
168
255
224
168
255
224
168
255
224
168
255
224
168
255
224
168
255
224
168
255
224
168
255
224
168
255
224
168
255
224
168
255
224
168
255
224
168
255
224
168
255
224
168
255
224
168
255
224
168
255
224
168
255
224
168
255
224
168
255
224
168
255
224
168
255
224
168
255
224
168
255
224
168
255
224
168
255
224
168
255
224
168
255
224
168
255
224
168
255
224
168
255
224
168
255
224
168
255
224
168
255
224
168
255
224
168
255
224
168
255
224
168
255
224
168
255
224
168
255
224
168
255
224
168
255
224
168
255
224
168
255
224
168
255
224
168
255
224
168
255
224
168
248
56
0
248
56
0
248
56
0
248
56
0
248
56
0
248
56
0
255
224
168
255
224
168
255
224
168
255
224
168
255
224
168
255
224
168
255
224
168
255
224
168
255
224
168
255
224
168
255
224
168
255
224
168
255
224
168
255
224
168
255
224
168
255
224
168
255
224
168
255
224
168
255
224
168
255
224
168
255
224
168
255
224
168
255
224
168
255
224
168
255
224
168
255
224
168
255
224
168
255
224
168
255
224
168
255
224
168
255
224
168
255
224
168
255
224
168
255
224
168
255
224
168
255
224
168
255
224
168
255
224
168
255
224
168
255
224
168
255
224
168
255
224
168
255
224
168
255
224
168
255
224
168
255
224
168
255
224
168
255
224
168
255
224
168
255
224
168
255
224
168
255
224
168
255
224
168
255
224
168
255
224
168
255
224
168
255
224
168
255
224
168
255
224
168
255
224
168
255
224
168
255
224
168
255
224
168
255
224
168
255
224
168
255
224
168
255
224
168
255
224
168
255
224
168
255
224
168
255
224
168
255
224
168
255
224
168
255
224
168
255
224
168
255
224
168
255
224
168
255
224
168
255
224
168
255
224
168
255
224
168
255
224
168
255
224
168
255
224
168
255
224
168
255
224
168
255
224
168
255
224
168
255
224
168
255
224
168
255
224
168
255
224
168
255
224
168
255
224
168
255
224
168
255
224
168
255
224
168
255
224
168
255
224
168
255
224
168
255
224
168
255
224
168
255
224
168
255
224
168
255
224
168
255
224
168
255
224
168
255
224
168
255
224
168
255
224
168
255
224
168
255
224
168
255
224
168
255
224
168
255
224
168
255
224
168
255
224
168
255
224
168
255
224
168
255
224
168
255
224
168
255
224
168
255
224
168
255
224
168
255
224
168
255
224
168
255
224
168
255
224
168
255
224
168
255
224
168
255
224
168
255
224
168
255
224
168
255
224
168
255
224
168
255
224
168
255
224
168
255
224
168
255
224
168
255
224
168
255
224
168
255
224
168
255
224
168
255
224
168
255
224
168
255
224
168
255
224
168
255
224
168
255
224
168
255
224
168
255
224
168
255
224
168
255
224
168
255
224
168
255
224
168
255
224
168
255
224
168
255
224
168
255
224
168
255
224
168
255
224
168
255
224
168
255
224
168
255
224
168
255
224
168
255
224
168
255
224
168
255
224
168
255
224
168
255
224
168
255
224
168
255
224
168
255
224
168
255
224
168
255
224
168
255
224
168
255
224
168
255
224
168
255
224
168
255
224
168
255
224
168
255
224
168
255
224
168
255
224
168
255
224
168
255
224
168
255
224
168
255
224
168
255
224
168
255
224
168
255
224
168
255
224
168
255
224
168
255
224
168
255
224
168
255
224
168
255
224
168
255
224
168
255
224
168
255
224
168
255
224
168
255
224
168
255
224
168
255
224
168
255
224
168
255
224
168
255
224
168
255
224
168
255
224
168
255
224
168
255
224
168
255
224
168
255
224
168
255
224
168
255
224
168
255
224
168
255
224
168
255
224
168
255
224
168
255
224
168
255
224
168
255
224
168
255
224
168
255
224
168
255
224
168
255
224
168
255
224
168
255
224
168
255
224
168
255
224
168
255
224
168
255
224
168
255
224
168
255
224
168
255
224
168
255
224
168
255
224
168
255
224
168
255
224
168
255
224
168
255
224
168
255
224
168
255
224
168
255
224
168
255
224
168
255
224
168
255
224
168
255
224
168
255
224
168
255
224
168
255
224
168
255
224
168
255
224
168
255
224
168
255
224
168
255
224
168
255
224
168
255
224
168
255
224
168
255
224
168
255
224
168
255
224
168
255
224
168
255
224
168
255
224
168
255
224
168
255
224
168
255
224
168
255
224
168
255
224
168
255
224
168
255
224
168
255
224
168
255
224
168
255
224
168
255
224
168
255
224
168
255
224
168
255
224
168
255
224
168
255
224
168
255
224
168
255
224
168
255
224
168
255
224
168
255
224
168
255
224
168
255
224
168
255
224
168
255
224
168
255
224
168
255
224
168
255
224
168
255
224
168
255
224
168
255
224
168
255
224
168
255
224
168
255
224
168
255
224
168
255
224
168
255
224
168
255
224
168
255
224
168
255
224
168
255
224
168
255
224
168
255
224
168
255
224
168
255
224
168
255
224
168
255
224
168
255
224
168
255
224
168
255
224
168
255
224
168
255
224
168
255
224
168
255
224
168
255
224
168
255
224
168
255
224
168
255
224
168
255
224
168
255
224
168
255
224
168
255
224
168
255
224
168
255
224
168
255
224
168
255
224
168
255
224
168
255
224
168
255
224
168
255
224
168
255
224
168
255
224
168
255
224
168
255
224
168
255
224
168
255
224
168
255
224
168
255
224
168
255
224
168
255
224
168
255
224
168
255
224
168
255
224
168
255
224
168
255
224
168
255
224
168
255
224
168
255
224
168
255
224
168
255
224
168
255
224
168
255
224
168
255
224
168
255
224
168
255
224
168
255
224
168
255
224
168
255
224
168
255
224
168
255
224
168
255
224
168
255
224
168
255
224
168
255
224
168
255
224
168
255
224
168
255
224
168
255
224
168
255
224
168
255
224
168
255
224
168
255
224
168
255
224
168
255
224
168
255
224
168
255
224
168
255
224
168
255
224
168
255
224
168
255
224
168
255
224
168
255
224
168
255
224
168
255
224
168
255
224
168
255
224
168
255
224
168
255
224
168
255
224
168
255
224
168
255
224
168
255
224
168
255
224
168
255
224
168
255
224
168
255
224
168
255
224
168
255
224
168
255
224
168
255
224
168
255
224
168
255
224
168
255
224
168
255
224
168
255
224
168
255
224
168
255
224
168
255
224
168
255
224
168
255
224
168
255
224
168
255
224
168
255
224
168
255
224
168
255
224
168
255
224
168
255
224
168
255
224
168
255
224
168
255
224
168
255
224
168
255
224
168
255
224
168
255
224
168
255
224
168
255
224
168
255
224
168
255
224
168
255
224
168
255
224
168
255
224
168
255
224
168
255
224
168
255
224
168
255
224
168
255
224
168
255
224
168
255
224
168
255
224
168
255
224
168
255
224
168
255
224
168
255
224
168
255
224
168
255
224
168
255
224
168
255
224
168
255
224
168
255
224
168
255
224
168
255
224
168
255
224
168
255
224
168
255
224
168
255
224
168
255
224
168
255
224
168
255
224
168
255
224
168
255
224
168
255
224
168
255
224
168
255
224
168
255
224
168
255
224
168
255
224
168
255
224
168
255
224
168
255
224
168
255
224
168
255
224
168
255
224
168
255
224
168
255
224
168
255
224
168
255
224
168
255
224
168
255
224
168
255
224
168
255
224
168
255
224
168
255
224
168
255
224
168
255
224
168
255
224
168
255
224
168
255
224
168
255
224
168
255
224
168
255
224
168
255
224
168
255
224
168
255
224
168
255
224
168
255
224
168
255
224
168
255
224
168
255
224
168
255
224
168
255
224
168
255
224
168
255
224
168
255
224
168
255
224
168
255
224
168
255
224
168
255
224
168
255
224
168
255
224
168
255
224
168
255
224
168
255
224
168
255
224
168
255
224
168
255
224
168
255
224
168
255
224
168
255
224
168
255
224
168
255
224
168
255
224
168
255
224
168
255
224
168
255
224
168
255
224
168
255
224
168
255
224
168
255
224
168
255
224
168
255
224
168
255
224
168
255
224
168
255
224
168
255
224
168
255
224
168
255
224
168
255
224
168
255
224
168
255
224
168
255
224
168
255
224
168
255
224
168
255
224
168
255
224
168
255
224
168
255
224
168
255
224
168
255
224
168
255
224
168
255
224
168
255
224
168
255
224
168
255
224
168
255
224
168
255
224
168
255
224
168
255
224
168
255
224
168
255
224
168
255
224
168
255
224
168
255
224
168
255
224
168
255
224
168
255
224
168
255
224
168
255
224
168
255
224
168
255
224
168
255
224
168
255
224
168
255
224
168
255
224
168
255
224
168
255
224
168
255
224
168
255
224
168
255
224
168
255
224
168
255
224
168
255
224
168
255
224
168
255
224
168
255
224
168
255
224
168
255
224
168
255
224
168
255
224
168
255
224
168
255
224
168
255
224
168
255
224
168
255
224
168
255
224
168
255
224
168
255
224
168
255
224
168
255
224
168
255
224
168
255
224
168
255
224
168
255
224
168
255
224
168
255
224
168
255
224
168
255
224
168
255
224
168
255
224
168
255
224
168
255
224
168
255
224
168
255
224
168
255
224
168
255
224
168
255
224
168
255
224
168
255
224
168
255
224
168
255
224
168
255
224
168
255
224
168
255
224
168
255
224
168
255
224
168
255
224
168
255
224
168
255
224
168
255
224
168
255
224
168
255
224
168
255
224
168
255
224
168
255
224
168
255
224
168
255
224
168
255
224
168
255
224
168
255
224
168
255
224
168
255
224
168
255
224
168
255
224
168
255
224
168
255
224
168
255
224
168
255
224
168
255
224
168
255
224
168
255
224
168
255
224
168
255
224
168
255
224
168
255
224
168
255
224
168
255
224
168
255
224
168
255
224
168
255
224
168
255
224
168
255
224
168
255
224
168
255
224
168
255
224
168
255
224
168
255
224
168
255
224
168
255
224
168
255
224
168
255
224
168
255
224
168
255
224
168
255
224
168
255
224
168
255
224
168
255
224
168
255
224
168
255
224
168
255
224
168
255
224
168
255
224
168
255
224
168
255
224
168
255
224
168
255
224
168
255
224
168
255
224
168
255
224
168
255
224
168
255
224
168
255
224
168
255
224
168
255
224
168
255
224
168
255
224
168
255
224
168
255
224
168
255
224
168
255
224
168
255
224
168
255
224
168
255
224
168
255
224
168
255
224
168
255
224
168
255
224
168
255
224
168
255
224
168
255
224
168
255
224
168
255
224
168
255
224
168
255
224
168
255
224
168
255
224
168
255
224
168
255
224
168
255
224
168
255
224
168
255
224
168
255
224
168
255
224
168
255
224
168
255
224
168
255
224
168
255
224
168
255
224
168
255
224
168
255
224
168
255
224
168
255
224
168
255
224
168
255
224
168
255
224
168
255
224
168
255
224
168
255
224
168
255
224
168
255
224
168
255
224
168
255
224
168
255
224
168
255
224
168
255
224
168
255
224
168
255
224
168
255
224
168
255
224
168
255
224
168
255
224
168
255
224
168
255
224
168
255
224
168
255
224
168
255
224
168
255
224
168
255
224
168
255
224
168
255
224
168
255
224
168
255
224
168
255
224
168
255
224
168
255
224
168
255
224
168
255
224
168
255
224
168
255
224
168
255
224
168
255
224
168
255
224
168
255
224
168
255
224
168
255
224
168
255
224
168
255
224
168
255
224
168
255
224
168
255
224
168
255
224
168
255
224
168
255
224
168
255
224
168
255
224
168
255
224
168
255
224
168
255
224
168
255
224
168
255
224
168
255
224
168
255
224
168
255
224
168
255
224
168
255
224
168
255
224
168
255
224
168
255
224
168
255
224
168
255
224
168
255
224
168
255
224
168
255
224
168
255
224
168
255
224
168
255
224
168
255
224
168
255
224
168
255
224
168
255
224
168
255
224
168
255
224
168
255
224
168
255
224
168
255
224
168
255
224
168
255
224
168
255
224
168
255
224
168
255
224
168
255
224
168
255
224
168
255
224
168
255
224
168
255
224
168
255
224
168
255
224
168
255
224
168
255
224
168
255
224
168
255
224
168
255
224
168
255
224
168
255
224
168
255
224
168
255
224
168
255
224
168
255
224
168
255
224
168
255
224
168
255
224
168
255
224
168
255
224
168
255
224
168
255
224
168
255
224
168
255
224
168
255
224
168
255
224
168
255
224
168
255
224
168
255
224
168
255
224
168
255
224
168
255
224
168
255
224
168
255
224
168
255
224
168
255
224
168
255
224
168
255
224
168
255
224
168
255
224
168
255
224
168
255
224
168
255
224
168
255
224
168
255
224
168
255
224
168
255
224
168
255
224
168
255
224
168
255
224
168
255
224
168
255
224
168
255
224
168
255
224
168
255
224
168
255
224
168
255
224
168
255
224
168
255
224
168
255
224
168
255
224
168
255
224
168
255
224
168
255
224
168
255
224
168
255
224
168
255
224
168
255
224
168
255
224
168
255
224
168
255
224
168
255
224
168
255
224
168
255
224
168
255
224
168
255
224
168
255
224
168
255
224
168
255
224
168
255
224
168
255
224
168
255
224
168
255
224
168
255
224
168
255
224
168
255
224
168
255
224
168
255
224
168
255
224
168
255
224
168
255
224
168
255
224
168
255
224
168
255
224
168
255
224
168
255
224
168
255
224
168
255
224
168
255
224
168
255
224
168
255
224
168
255
224
168
255
224
168
255
224
168
255
224
168
255
224
168
255
224
168
255
224
168
255
224
168
255
224
168
255
224
168
255
224
168
255
224
168
255
224
168
255
224
168
255
224
168
255
224
168
255
224
168
255
224
168
255
224
168
255
224
168
255
224
168
255
224
168
255
224
168
255
224
168
255
224
168
255
224
168
255
224
168
255
224
168
255
224
168
255
224
168
255
224
168
255
224
168
255
224
168
255
224
168
255
224
168
255
224
168
255
224
168
255
224
168
255
224
168
255
224
168
255
224
168
255
224
168
255
224
168
255
224
168
255
224
168
255
224
168
255
224
168
255
224
168
255
224
168
255
224
168
255
224
168
255
224
168
255
224
168
255
224
168
255
224
168
255
224
168
255
224
168
255
224
168
255
224
168
255
224
168
255
224
168
255
224
168
255
224
168
255
224
168
255
224
168
255
224
168
255
224
168
255
224
168
255
224
168
255
224
168
255
224
168
255
224
168
255
224
168
255
224
168
255
224
168
255
224
168
255
224
168
255
224
168
255
224
168
255
224
168
255
224
168
255
224
168
255
224
168
255
224
168
255
224
168
255
224
168
255
224
168
255
224
168
255
224
168
255
224
168
255
224
168
255
224
168
255
224
168
255
224
168
255
224
168
255
224
168
255
224
168
255
224
168
255
224
168
255
224
168
255
224
168
255
224
168
255
224
168
255
224
168
255
224
168
255
224
168
255
224
168
255
224
168
255
224
168
255
224
168
255
224
168
255
224
168
255
224
168
255
224
168
255
224
168
255
224
168
255
224
168
255
224
168
255
224
168
255
224
168
255
224
168
255
224
168
255
224
168
255
224
168
255
224
168
255
224
168
255
224
168
255
224
168
255
224
168
255
224
168
255
224
168
255
224
168
255
224
168
255
224
168
255
224
168
255
224
168
255
224
168
255
224
168
255
224
168
255
224
168
255
224
168
255
224
168
255
224
168
255
224
168
255
224
168
255
224
168
255
224
168
255
224
168
255
224
168
255
224
168
255
224
168
255
224
168
255
224
168
255
224
168
255
224
168
255
224
168
255
224
168
255
224
168
255
224
168
255
224
168
255
224
168
255
224
168
255
224
168
255
224
168
255
224
168
255
224
168
255
224
168
255
224
168
255
224
168
255
224
168
255
224
168
255
224
168
255
224
168
255
224
168
255
224
168
255
224
168
255
224
168
255
224
168
255
224
168
255
224
168
255
224
168
255
224
168
255
224
168
255
224
168
255
224
168
255
224
168
255
224
168
255
224
168
255
224
168
255
224
168
255
224
168
255
224
168
255
224
168
255
224
168
255
224
168
255
224
168
255
224
168
255
224
168
255
224
168
255
224
168
255
224
168
255
224
168
255
224
168
255
224
168
255
224
168
255
224
168
255
224
168
255
224
168
255
224
168
255
224
168
255
224
168
255
224
168
255
224
168
255
224
168
255
224
168
255
224
168
255
224
168
255
224
168
255
224
168
255
224
168
255
224
168
255
224
168
255
224
168
255
224
168
255
224
168
255
224
168
255
224
168
255
224
168
255
224
168
255
224
168
255
224
168
255
224
168
255
224
168
255
224
168
255
224
168
255
224
168
255
224
168
255
224
168
255
224
168
255
224
168
255
224
168
255
224
168
255
224
168
255
224
168
255
224
168
255
224
168
255
224
168
255
224
168
255
224
168
255
224
168
255
224
168
255
224
168
255
224
168
255
224
168
255
224
168
255
224
168
255
224
168
255
224
168
255
224
168
255
224
168
255
224
168
255
224
168
255
224
168
255
224
168
255
224
168
255
224
168
255
224
168
255
224
168
255
224
168
255
224
168
255
224
168
255
224
168
255
224
168
255
224
168
255
224
168
255
224
168
255
224
168
255
224
168
255
224
168
255
224
168
255
224
168
255
224
168
255
224
168
255
224
168
255
224
168
255
224
168
255
224
168
255
224
168
255
224
168
255
224
168
255
224
168
255
224
168
255
224
168
255
224
168
255
224
168
255
224
168
255
224
168
255
224
168
255
224
168
255
224
168
255
224
168
255
224
168
255
224
168
255
224
168
255
224
168
255
224
168
255
224
168
255
224
168
255
224
168
255
224
168
255
224
168
255
224
168
255
224
168
255
224
168
255
224
168
255
224
168
255
224
168
255
224
168
255
224
168
255
224
168
255
224
168
255
224
168
255
224
168
255
224
168
255
224
168
255
224
168
255
224
168
255
224
168
255
224
168
255
224
168
255
224
168
255
224
168
255
224
168
255
224
168
255
224
168
255
224
168
255
224
168
255
224
168
255
224
168
255
224
168
255
224
168
255
224
168
255
224
168
255
224
168
255
224
168
255
224
168
255
224
168
255
224
168
255
224
168
255
224
168
255
224
168
255
224
168
255
224
168
255
224
168
255
224
168
255
224
168
255
224
168
255
224
168
255
224
168
255
224
168
255
224
168
255
224
168
255
224
168
255
224
168
255
224
168
255
224
168
255
224
168
255
224
168
255
224
168
255
224
168
255
224
168
255
224
168
255
224
168
255
224
168
255
224
168
255
224
168
255
224
168
255
224
168
255
224
168
255
224
168
255
224
168
255
224
168
255
224
168
255
224
168
255
224
168
255
224
168
255
224
168
255
224
168
255
224
168
255
224
168
255
224
168
255
224
168
255
224
168
255
224
168
255
224
168
255
224
168
255
224
168
255
224
168
255
224
168
255
224
168
255
224
168
255
224
168
255
224
168
255
224
168
255
224
168
255
224
168
255
224
168
255
224
168
255
224
168
255
224
168
255
224
168
255
224
168
255
224
168
255
224
168
255
224
168
255
224
168
255
224
168
255
224
168
255
224
168
255
224
168
255
224
168
255
224
168
255
224
168
255
224
168
255
224
168
255
224
168
255
224
168
255
224
168
255
224
168
255
224
168
255
224
168
255
224
168
255
224
168
255
224
168
255
224
168
255
224
168
255
224
168
255
224
168
255
224
168
255
224
168
255
224
168
255
224
168
255
224
168
255
224
168
255
224
168
255
224
168
255
224
168
255
224
168
255
224
168
255
224
168
255
224
168
255
224
168
255
224
168
255
224
168
255
224
168
255
224
168
255
224
168
255
224
168
255
224
168
255
224
168
255
224
168
255
224
168
255
224
168
255
224
168
255
224
168
255
224
168
255
224
168
255
224
168
255
224
168
255
224
168
255
224
168
255
224
168
255
224
168
255
224
168
255
224
168
255
224
168
255
224
168
255
224
168
255
224
168
255
224
168
255
224
168
255
224
168
255
224
168
255
224
168
255
224
168
255
224
168
255
224
168
255
224
168
255
224
168
255
224
168
255
224
168
255
224
168
255
224
168
255
224
168
255
224
168
255
224
168
255
224
168
255
224
168
255
224
168
255
224
168
255
224
168
255
224
168
255
224
168
255
224
168
255
224
168
255
224
168
255
224
168
255
224
168
255
224
168
255
224
168
255
224
168
255
224
168
255
224
168
255
224
168
255
224
168
255
224
168
255
224
168
255
224
168
255
224
168
255
224
168
255
224
168
255
224
168
255
224
168
255
224
168
255
224
168
255
224
168
255
224
168
255
224
168
255
224
168
255
224
168
255
224
168
255
224
168
255
224
168
255
224
168
255
224
168
255
224
168
255
224
168
255
224
168
255
224
168
255
224
168
255
224
168
255
224
168
255
224
168
255
224
168
255
224
168
255
224
168
255
224
168
255
224
168
255
224
168
255
224
168
255
224
168
255
224
168
255
224
168
255
224
168
255
224
168
255
224
168
255
224
168
255
224
168
255
224
168
255
224
168
255
224
168
255
224
168
255
224
168
255
224
168
255
224
168
255
224
168
255
224
168
255
224
168
255
224
168
255
224
168
255
224
168
255
224
168
255
224
168
255
224
168
255
224
168
255
224
168
255
224
168
255
224
168
255
224
168
255
224
168
255
224
168
255
224
168
255
224
168
255
224
168
255
224
168
255
224
168
255
224
168
255
224
168
255
224
168
255
224
168
255
224
168
255
224
168
255
224
168
255
224
168
255
224
168
255
224
168
255
224
168
255
224
168
255
224
168
255
224
168
255
224
168
255
224
168
255
224
168
255
224
168
255
224
168
255
224
168
255
224
168
255
224
168
255
224
168
255
224
168
255
224
168
255
224
168
255
224
168
255
224
168
255
224
168
255
224
168
255
224
168
255
224
168
255
224
168
255
224
168
255
224
168
255
224
168
255
224
168
255
224
168
255
224
168
255
224
168
255
224
168
255
224
168
255
224
168
255
224
168
255
224
168
255
224
168
255
224
168
255
224
168
255
224
168
255
224
168
255
224
168
255
224
168
255
224
168
255
224
168
255
224
168
255
224
168
255
224
168
255
224
168
255
224
168
255
224
168
255
224
168
255
224
168
255
224
168
255
224
168
255
224
168
255
224
168
255
224
168
255
224
168
255
224
168
255
224
168
255
224
168
255
224
168
255
224
168
255
224
168
255
224
168
255
224
168
255
224
168
255
224
168
255
224
168
255
224
168
255
224
168
255
224
168
255
224
168
255
224
168
255
224
168
255
224
168
255
224
168
255
224
168
255
224
168
255
224
168
255
224
168
255
224
168
255
224
168
255
224
168
255
224
168
255
224
168
255
224
168
255
224
168
255
224
168
255
224
168
255
224
168
255
224
168
255
224
168
255
224
168
255
224
168
255
224
168
255
224
168
255
224
168
255
224
168
255
224
168
255
224
168
255
224
168
255
224
168
255
224
168
255
224
168
255
224
168
255
224
168
255
224
168
255
224
168
255
224
168
255
224
168
255
224
168
255
224
168
255
224
168
255
224
168
255
224
168
255
224
168
255
224
168
255
224
168
255
224
168
255
224
168
255
224
168
255
224
168
255
224
168
255
224
168
255
224
168
255
224
168
255
224
168
255
224
168
255
224
168
255
224
168
255
224
168
255
224
168
255
224
168
255
224
168
255
224
168
255
224
168
255
224
168
255
224
168
255
224
168
255
224
168
255
224
168
255
224
168
255
224
168
255
224
168
255
224
168
255
224
168
255
224
168
255
224
168
255
224
168
255
224
168
255
224
168
255
224
168
255
224
168
255
224
168
255
224
168
255
224
168
255
224
168
255
224
168
255
224
168
255
224
168
255
224
168
255
224
168
255
224
168
255
224
168
255
224
168
255
224
168
255
224
168
255
224
168
255
224
168
255
224
168
255
224
168
255
224
168
255
224
168
255
224
168
255
224
168
255
224
168
255
224
168
255
224
168
255
224
168
255
224
168
255
224
168
255
224
168
255
224
168
255
224
168
255
224
168
255
224
168
255
224
168
255
224
168
255
224
168
255
224
168
255
224
168
255
224
168
255
224
168
255
224
168
255
224
168
255
224
168
255
224
168
255
224
168
255
224
168
255
224
168
255
224
168
255
224
168
255
224
168
255
224
168
255
224
168
255
224
168
255
224
168
255
224
168
255
224
168
255
224
168
255
224
168
255
224
168
255
224
168
255
224
168
255
224
168
255
224
168
255
224
168
255
224
168
255
224
168
255
224
168
255
224
168
255
224
168
255
224
168
255
224
168
255
224
168
255
224
168
255
224
168
255
224
168
255
224
168
255
224
168
255
224
168
255
224
168
255
224
168
255
224
168
255
224
168
255
224
168
255
224
168
255
224
168
255
224
168
255
224
168
255
224
168
255
224
168
255
224
168
255
224
168
255
224
168
255
224
168
255
224
168
255
224
168
255
224
168
255
224
168
255
224
168
255
224
168
255
224
168
255
224
168
255
224
168
255
224
168
255
224
168
255
224
168
255
224
168
255
224
168
255
224
168
255
224
168
255
224
168
255
224
168
255
224
168
255
224
168
255
224
168
255
224
168
255
224
168
255
224
168
255
224
168
255
224
168
255
224
168
255
224
168
255
224
168
255
224
168
255
224
168
255
224
168
255
224
168
255
224
168
255
224
168
255
224
168
255
224
168
255
224
168
255
224
168
255
224
168
255
224
168
255
224
168
255
224
168
255
224
168
255
224
168
255
224
168
255
224
168
255
224
168
255
224
168
255
224
168
255
224
168
255
224
168
255
224
168
255
224
168
255
224
168
255
224
168
255
224
168
255
224
168
255
224
168
255
224
168
255
224
168
255
224
168
255
224
168
255
224
168
255
224
168
255
224
168
255
224
168
255
224
168
255
224
168
255
224
168
255
224
168
255
224
168
255
224
168
255
224
168
255
224
168
255
224
168
255
224
168
255
224
168
255
224
168
255
224
168
255
224
168
255
224
168
255
224
168
255
224
168
255
224
168
255
224
168
255
224
168
255
224
168
255
224
168
255
224
168
255
224
168
255
224
168
255
224
168
255
224
168
255
224
168
255
224
168
255
224
168
255
224
168
255
224
168
255
224
168
255
224
168
255
224
168
255
224
168
255
224
168
255
224
168
255
224
168
255
224
168
255
224
168
255
224
168
255
224
168
255
224
168
255
224
168
255
224
168
255
224
168
255
224
168
255
224
168
255
224
168
255
224
168
255
224
168
255
224
168
255
224
168
255
224
168
255
224
168
255
224
168
255
224
168
255
224
168
255
224
168
255
224
168
255
224
168
255
224
168
255
224
168
255
224
168
255
224
168
255
224
168
255
224
168
255
224
168
255
224
168
255
224
168
255
224
168
255
224
168
255
224
168
255
224
168
255
224
168
255
224
168
255
224
168
255
224
168
255
224
168
255
224
168
255
224
168
255
224
168
255
224
168
255
224
168
255
224
168
255
224
168
255
224
168
255
224
168
255
224
168
255
224
168
255
224
168
255
224
168
255
224
168
255
224
168
255
224
168
255
224
168
255
224
168
255
224
168
255
224
168
255
224
168
255
224
168
255
224
168
255
224
168
255
224
168
255
224
168
255
224
168
255
224
168
255
224
168
255
224
168
255
224
168
255
224
168
255
224
168
255
224
168
255
224
168
255
224
168
255
224
168
255
224
168
255
224
168
255
224
168
255
224
168
255
224
168
255
224
168
255
224
168
255
224
168
255
224
168
255
224
168
255
224
168
255
224
168
255
224
168
255
224
168
255
224
168
255
224
168
255
224
168
255
224
168
255
224
168
255
224
168
255
224
168
255
224
168
255
224
168
255
224
168
255
224
168
255
224
168
255
224
168
255
224
168
255
224
168
255
224
168
255
224
168
255
224
168
255
224
168
255
224
168
255
224
168
255
224
168
255
224
168
255
224
168
255
224
168
255
224
168
255
224
168
255
224
168
255
224
168
255
224
168
255
224
168
255
224
168
255
224
168
255
224
168
255
224
168
255
224
168
255
224
168
255
224
168
255
224
168
255
224
168
255
224
168
255
224
168
255
224
168
255
224
168
255
224
168
255
224
168
255
224
168
255
224
168
255
224
168
255
224
168
255
224
168
255
224
168
255
224
168
255
224
168
255
224
168
255
224
168
255
224
168
255
224
168
255
224
168
255
224
168
255
224
168
255
224
168
255
224
168
255
224
168
255
224
168
255
224
168
255
224
168
255
224
168
255
224
168
255
224
168
255
224
168
255
224
168
255
224
168
255
224
168
255
224
168
255
224
168
255
224
168
255
224
168
255
224
168
255
224
168
255
224
168
255
224
168
255
224
168
255
224
168
255
224
168
255
224
168
255
224
168
255
224
168
255
224
168
255
224
168
255
224
168
255
224
168
255
224
168
255
224
168
255
224
168
255
224
168
255
224
168
255
224
168
255
224
168
255
224
168
255
224
168
255
224
168
255
224
168
255
224
168
255
224
168
255
224
168
255
224
168
255
224
168
255
224
168
255
224
168
255
224
168
255
224
168
255
224
168
255
224
168
255
224
168
255
224
168
255
224
168
255
224
168
255
224
168
255
224
168
255
224
168
255
224
168
255
224
168
255
224
168
255
224
168
255
224
168
255
224
168
255
224
168
255
224
168
255
224
168
255
224
168
255
224
168
255
224
168
255
224
168
255
224
168
255
224
168
255
224
168
255
224
168
255
224
168
255
224
168
255
224
168
255
224
168
255
224
168
255
224
168
255
224
168
255
224
168
255
224
168
255
224
168
255
224
168
255
224
168
255
224
168
255
224
168
255
224
168
255
224
168
255
224
168
255
224
168
255
224
168
255
224
168
255
224
168
255
224
168
255
224
168
255
224
168
255
224
168
255
224
168
255
224
168
255
224
168
255
224
168
255
224
168
255
224
168
255
224
168
255
224
168
255
224
168
255
224
168
255
224
168
255
224
168
255
224
168
255
224
168
255
224
168
255
224
168
255
224
168
255
224
168
255
224
168
255
224
168
255
224
168
255
224
168
255
224
168
255
224
168
255
224
168
255
224
168
255
224
168
255
224
168
255
224
168
255
224
168
255
224
168
255
224
168
255
224
168
255
224
168
255
224
168
255
224
168
255
224
168
255
224
168
255
224
168
255
224
168
255
224
168
255
224
168
255
224
168
255
224
168
255
224
168
255
224
168
255
224
168
255
224
168
255
224
168
255
224
168
255
224
168
255
224
168
255
224
168
255
224
168
255
224
168
255
224
168
255
224
168
255
224
168
255
224
168
255
224
168
255
224
168
255
224
168
255
224
168
255
224
168
255
224
168
255
224
168
255
224
168
255
224
168
255
224
168
255
224
168
255
224
168
255
224
168
255
224
168
255
224
168
255
224
168
255
224
168
255
224
168
255
224
168
255
224
168
255
224
168
255
224
168
255
224
168
255
224
168
255
224
168
255
224
168
255
224
168
255
224
168
255
224
168
255
224
168
255
224
168
255
224
168
255
224
168
255
224
168
255
224
168
255
224
168
255
224
168
255
224
168
255
224
168
255
224
168
255
224
168
255
224
168
255
224
168
255
224
168
255
224
168
255
224
168
255
224
168
255
224
168
255
224
168
255
224
168
255
224
168
255
224
168
255
224
168
255
224
168
255
224
168
255
224
168
255
224
168
255
224
168
255
224
168
255
224
168
255
224
168
255
224
168
255
224
168
255
224
168
255
224
168
255
224
168
255
224
168
255
224
168
255
224
168
255
224
168
255
224
168
255
224
168
255
224
168
255
224
168
255
224
168
255
224
168
255
224
168
255
224
168
255
224
168
255
224
168
255
224
168
255
224
168
255
224
168
255
224
168
255
224
168
255
224
168
255
224
168
255
224
168
255
224
168
255
224
168
255
224
168
255
224
168
255
224
168
255
224
168
255
224
168
255
224
168
255
224
168
255
224
168
255
224
168
255
224
168
255
224
168
255
224
168
255
224
168
255
224
168
255
224
168
255
224
168
255
224
168
255
224
168
255
224
168
255
224
168
255
224
168
255
224
168
255
224
168
255
224
168
255
224
168
255
224
168
255
224
168
255
224
168
255
224
168
255
224
168
255
224
168
255
224
168
255
224
168
255
224
168
255
224
168
255
224
168
255
224
168
255
224
168
255
224
168
255
224
168
255
224
168
255
224
168
255
224
168
255
224
168
255
224
168
255
224
168
255
224
168
255
224
168
255
224
168
255
224
168
255
224
168
255
224
168
255
224
168
255
224
168
255
224
168
255
224
168
255
224
168
255
224
168
255
224
168
255
224
168
255
224
168
255
224
168
255
224
168
255
224
168
255
224
168
255
224
168
255
224
168
255
224
168
255
224
168
255
224
168
255
224
168
255
224
168
255
224
168
255
224
168
255
224
168
255
224
168
255
224
168
255
224
168
255
224
168
255
224
168
255
224
168
255
224
168
255
224
168
255
224
168
255
224
168
255
224
168
255
224
168
255
224
168
255
224
168
255
224
168
255
224
168
255
224
168
255
224
168
255
224
168
255
224
168
255
224
168
255
224
168
255
224
168
255
224
168
255
224
168
255
224
168
255
224
168
255
224
168
255
224
168
255
224
168
255
224
168
255
224
168
255
224
168
255
224
168
255
224
168
255
224
168
255
224
168
255
224
168
255
224
168
255
224
168
255
224
168
255
224
168
255
224
168
255
224
168
255
224
168
255
224
168
255
224
168
255
224
168
255
224
168
255
224
168
255
224
168
255
224
168
255
224
168
255
224
168
255
224
168
255
224
168
255
224
168
255
224
168
255
224
168
255
224
168
255
224
168
255
224
168
255
224
168
255
224
168
255
224
168
255
224
168
255
224
168
255
224
168
255
224
168
255
224
168
255
224
168
255
224
168
255
224
168
255
224
168
255
224
168
255
224
168
255
224
168
255
224
168
255
224
168
255
224
168
255
224
168
255
224
168
255
224
168
255
224
168
255
224
168
255
224
168
255
224
168
255
224
168
255
224
168
255
224
168
255
224
168
255
224
168
255
224
168
255
224
168
255
224
168
255
224
168
255
224
168
255
224
168
255
224
168
255
224
168
255
224
168
255
224
168
255
224
168
255
224
168
255
224
168
255
224
168
255
224
168
255
224
168
255
224
168
255
224
168
255
224
168
255
224
168
255
224
168
255
224
168
255
224
168
255
224
168
255
224
168
255
224
168
255
224
168
255
224
168
255
224
168
255
224
168
255
224
168
255
224
168
255
224
168
255
224
168
255
224
168
255
224
168
255
224
168
255
224
168
255
224
168
255
224
168
255
224
168
255
224
168
255
224
168
255
224
168
255
224
168
255
224
168
255
224
168
255
224
168
255
224
168
255
224
168
255
164
64
255
164
64
255
164
64
255
224
168
255
224
168
255
224
168
255
224
168
255
224
168
255
224
168
255
224
168
255
224
168
255
224
168
255
224
168
255
224
168
255
224
168
255
224
168
255
224
168
255
224
168
255
224
168
255
224
168
255
224
168
255
224
168
255
224
168
255
224
168
255
224
168
255
224
168
255
224
168
255
224
168
255
224
168
255
224
168
255
224
168
255
224
168
255
224
168
255
224
168
255
224
168
248
56
0
248
56
0
248
56
0
248
56
0
248
56
0
248
56
0
248
56
0
255
224
168
255
224
168
255
224
168
255
224
168
255
224
168
255
224
168
255
224
168
255
224
168
255
224
168
255
224
168
255
224
168
255
224
168
255
224
168
255
224
168
255
224
168
255
224
168
255
224
168
255
224
168
255
224
168
255
224
168
255
224
168
255
224
168
255
224
168
255
224
168
255
224
168
255
224
168
255
224
168
255
224
168
255
224
168
255
224
168
255
224
168
255
224
168
255
224
168
255
224
168
255
224
168
255
224
168
255
224
168
255
224
168
255
224
168
255
224
168
255
224
168
255
224
168
255
224
168
255
224
168
255
224
168
255
224
168
255
224
168
255
224
168
255
224
168
255
224
168
255
224
168
255
224
168
248
56
0
248
56
0
248
56
0
248
56
0
248
56
0
255
224
168
255
224
168
255
224
168
255
224
168
255
224
168
255
224
168
255
224
168
255
224
168
255
224
168
255
224
168
255
224
168
255
224
168
255
224
168
255
224
168
255
224
168
255
224
168
255
224
168
255
224
168
255
224
168
255
224
168
255
224
168
255
224
168
255
224
168
255
224
168
255
224
168
248
56
0
248
56
0
248
56
0
248
56
0
248
56
0
255
224
168
255
224
168
255
224
168
255
224
168
255
224
168
255
224
168
255
224
168
255
224
168
255
224
168
255
224
168
255
224
168
255
224
168
255
224
168
255
224
168
255
224
168
255
224
168
255
224
168
255
224
168
255
224
168
255
224
168
255
224
168
255
224
168
255
224
168
255
224
168
255
224
168
248
56
0
248
56
0
248
56
0
248
56
0
248
56
0
255
224
168
255
224
168
255
224
168
255
224
168
255
224
168
255
224
168
255
224
168
255
224
168
255
224
168
255
224
168
255
224
168
255
224
168
255
224
168
255
224
168
255
224
168
255
224
168
255
224
168
255
224
168
255
224
168
255
224
168
255
224
168
255
224
168
255
224
168
255
224
168
255
224
168
248
56
0
248
56
0
248
56
0
248
56
0
248
56
0
255
224
168
255
224
168
255
224
168
255
224
168
255
224
168
255
224
168
255
224
168
255
224
168
255
224
168
255
224
168
255
224
168
255
224
168
255
224
168
255
224
168
255
224
168
255
224
168
255
224
168
255
224
168
255
224
168
255
224
168
255
224
168
255
224
168
255
224
168
255
224
168
255
224
168
248
56
0
248
56
0
248
56
0
248
56
0
248
56
0
255
224
168
255
224
168
255
224
168
255
224
168
255
224
168
255
224
168
255
224
168
255
224
168
255
224
168
255
224
168
255
224
168
255
224
168
255
224
168
255
224
168
255
224
168
255
224
168
255
224
168
255
224
168
255
224
168
255
224
168
255
224
168
255
224
168
255
224
168
255
224
168
255
224
168
248
56
0
248
56
0
248
56
0
248
56
0
248
56
0
255
224
168
255
224
168
255
224
168
255
224
168
255
224
168
255
224
168
255
224
168
255
224
168
255
224
168
255
224
168
255
224
168
255
224
168
255
224
168
255
224
168
255
224
168
255
224
168
255
224
168
255
224
168
255
224
168
255
224
168
255
224
168
255
224
168
255
224
168
255
224
168
255
224
168
255
224
168
255
224
168
255
224
168
255
224
168
255
224
168
255
224
168
255
224
168
255
224
168
255
224
168
255
224
168
255
224
168
255
224
168
255
224
168
255
224
168
255
224
168
255
224
168
255
224
168
255
224
168
255
224
168
255
224
168
255
224
168
255
224
168
255
224
168
255
224
168
255
224
168
255
224
168
255
224
168
248
56
0
248
56
0
248
56
0
248
56
0
248
56
0
248
56
0
248
56
0
255
224
168
255
224
168
255
224
168
255
224
168
255
224
168
255
224
168
255
224
168
255
224
168
255
224
168
255
224
168
255
224
168
255
224
168
255
224
168
255
224
168
255
224
168
255
224
168
255
224
168
255
224
168
255
224
168
255
224
168
255
224
168
255
224
168
255
224
168
255
224
168
255
224
168
255
224
168
255
224
168
255
224
168
255
224
168
255
224
168
255
224
168
255
224
168
255
164
64
255
164
64
255
164
64
255
224
168
255
224
168
255
224
168
255
224
168
255
224
168
255
224
168
255
224
168
255
224
168
255
224
168
255
224
168
255
224
168
255
224
168
255
224
168
255
224
168
255
224
168
255
224
168
255
224
168
255
224
168
255
224
168
255
224
168
255
224
168
255
224
168
255
224
168
255
224
168
255
224
168
255
224
168
255
224
168
255
224
168
255
224
168
255
224
168
255
224
168
255
224
168
255
224
168
255
224
168
255
224
168
255
224
168
255
224
168
255
224
168
255
224
168
255
224
168
255
224
168
255
224
168
255
224
168
255
224
168
255
224
168
255
224
168
255
224
168
255
224
168
255
224
168
255
224
168
255
224
168
255
224
168
255
224
168
255
224
168
255
224
168
255
224
168
255
224
168
255
224
168
255
224
168
255
224
168
255
224
168
255
164
64
255
164
64
172
124
0
255
164
64
255
164
64
255
224
168
255
224
168
255
224
168
255
224
168
255
224
168
255
224
168
255
224
168
255
224
168
255
224
168
255
224
168
255
224
168
255
224
168
255
224
168
255
224
168
255
224
168
255
224
168
255
224
168
255
224
168
255
224
168
255
224
168
255
224
168
255
224
168
255
224
168
255
224
168
255
224
168
255
224
168
255
224
168
172
124
0
172
124
0
248
56
0
248
56
0
248
56
0
248
56
0
248
56
0
248
56
0
248
56
0
255
160
68
255
160
68
255
224
168
255
224
168
255
224
168
255
224
168
255
224
168
255
224
168
255
224
168
255
224
168
255
224
168
255
224
168
255
224
168
255
224
168
255
224
168
255
224
168
255
224
168
255
224
168
255
224
168
255
224
168
255
224
168
255
224
168
255
224
168
248
56
0
248
56
0
248
56
0
248
56
0
248
56
0
255
224
168
255
224
168
255
224
168
255
224
168
255
224
168
255
224
168
255
224
168
255
224
168
255
224
168
255
224
168
255
224
168
255
224
168
255
224
168
255
224
168
255
224
168
255
224
168
255
224
168
255
224
168
255
224
168
255
224
168
255
224
168
255
224
168
255
224
168
255
224
168
255
224
168
255
224
168
255
164
64
248
56
0
248
56
0
248
56
0
248
56
0
248
56
0
248
56
0
255
224
168
255
224
168
255
224
168
255
224
168
255
224
168
255
224
168
255
224
168
255
224
168
255
224
168
255
224
168
255
224
168
255
224
168
255
224
168
255
224
168
255
224
168
255
224
168
255
224
168
255
224
168
255
224
168
255
224
168
255
224
168
255
224
168
255
224
168
255
164
64
248
56
0
248
56
0
248
56
0
248
56
0
248
56
0
248
56
0
255
224
168
255
224
168
255
224
168
255
224
168
255
224
168
255
224
168
255
224
168
255
224
168
255
224
168
255
224
168
255
224
168
255
224
168
255
224
168
255
224
168
255
224
168
255
224
168
255
224
168
255
224
168
255
224
168
255
224
168
255
224
168
255
224
168
255
224
168
255
164
64
248
56
0
248
56
0
248
56
0
248
56
0
248
56
0
248
56
0
255
224
168
255
224
168
255
224
168
255
224
168
255
224
168
255
224
168
255
224
168
255
224
168
255
224
168
255
224
168
255
224
168
255
224
168
255
224
168
255
224
168
255
224
168
255
224
168
255
224
168
255
224
168
255
224
168
255
224
168
255
224
168
248
56
0
248
56
0
248
56
0
248
56
0
248
56
0
248
56
0
255
164
64
255
224
168
255
224
168
255
224
168
255
224
168
255
224
168
255
224
168
255
224
168
255
224
168
255
224
168
255
224
168
255
224
168
255
224
168
255
224
168
255
224
168
255
224
168
255
224
168
255
224
168
255
224
168
255
224
168
255
224
168
255
224
168
255
224
168
255
224
168
248
56
0
248
56
0
248
56
0
248
56
0
248
56
0
248
56
0
255
164
64
255
224
168
255
224
168
255
224
168
255
224
168
255
224
168
255
224
168
255
224
168
255
224
168
255
224
168
255
224
168
255
224
168
255
224
168
255
224
168
255
224
168
255
224
168
255
224
168
255
224
168
255
224
168
255
224
168
255
224
168
255
224
168
255
224
168
255
224
168
248
56
0
248
56
0
248
56
0
248
56
0
248
56
0
248
56
0
255
164
64
255
224
168
255
224
168
255
224
168
255
224
168
255
224
168
255
224
168
255
224
168
255
224
168
255
224
168
255
224
168
255
224
168
255
224
168
255
224
168
255
224
168
255
224
168
255
224
168
255
224
168
255
224
168
255
224
168
255
224
168
255
224
168
255
224
168
255
224
168
255
224
168
255
224
168
255
224
168
248
56
0
248
56
0
248
56
0
248
56
0
248
56
0
255
224
168
255
224
168
255
224
168
255
224
168
255
224
168
255
224
168
255
224
168
255
224
168
255
224
168
255
224
168
255
224
168
255
224
168
255
224
168
255
224
168
255
224
168
255
224
168
255
224
168
255
224
168
255
224
168
255
224
168
255
224
168
255
160
68
255
160
68
248
56
0
248
56
0
248
56
0
248
56
0
248
56
0
248
56
0
248
56
0
172
124
0
172
124
0
255
224
168
255
224
168
255
224
168
255
224
168
255
224
168
255
224
168
255
224
168
255
224
168
255
224
168
255
224
168
255
224
168
255
224
168
255
224
168
255
224
168
255
224
168
255
224
168
255
224
168
255
224
168
255
224
168
255
224
168
255
224
168
255
224
168
255
224
168
255
224
168
255
224
168
255
224
168
255
224
168
255
164
64
255
164
64
172
124
0
255
164
64
255
164
64
255
224
168
255
224
168
255
224
168
255
224
168
255
224
168
255
224
168
255
224
168
255
224
168
255
224
168
255
224
168
255
224
168
255
224
168
255
224
168
255
224
168
255
224
168
255
224
168
255
224
168
255
224
168
255
224
168
255
224
168
255
224
168
255
224
168
255
224
168
255
224
168
255
224
168
255
224
168
255
224
168
255
224
168
255
224
168
255
224
168
255
224
168
255
224
168
255
224
168
255
224
168
255
224
168
255
224
168
255
224
168
255
224
168
255
224
168
255
224
168
255
224
168
255
224
168
255
224
168
255
224
168
255
224
168
255
224
168
255
224
168
255
224
168
255
224
168
255
224
168
255
224
168
255
224
168
255
224
168
255
224
168
255
224
168
255
224
168
255
224
168
255
224
168
255
224
168
255
224
168
255
164
64
172
124
0
172
124
0
255
164
64
255
164
64
248
56
0
248
56
0
248
56
0
248
56
0
248
56
0
255
224
168
255
224
168
255
224
168
255
224
168
255
224
168
255
224
168
255
224
168
255
224
168
255
224
168
255
224
168
255
224
168
255
224
168
255
224
168
255
224
168
255
224
168
255
224
168
255
224
168
255
224
168
255
224
168
255
224
168
255
224
168
172
124
0
172
124
0
172
124
0
248
56
0
248
56
0
248
56
0
248
56
0
248
56
0
248
56
0
248
56
0
255
160
68
255
224
168
255
224
168
255
224
168
255
224
168
255
224
168
255
224
168
255
224
168
255
224
168
255
224
168
255
224
168
255
224
168
255
224
168
255
224
168
255
224
168
255
224
168
255
224
168
255
224
168
255
224
168
255
224
168
255
224
168
255
224
168
255
224
168
255
164
64
248
56
0
248
56
0
248
56
0
248
56
0
248
56
0
248
56
0
255
224
168
255
224
168
255
224
168
255
224
168
255
224
168
255
224
168
255
224
168
255
224
168
255
224
168
255
224
168
255
224
168
255
224
168
255
224
168
255
224
168
255
224
168
255
224
168
255
224
168
255
224
168
255
224
168
255
224
168
255
224
168
255
224
168
255
224
168
255
224
168
255
164
64
255
164
64
248
56
0
248
56
0
248
56
0
248
56
0
248
56
0
248
56
0
255
224
168
255
224
168
255
224
168
255
224
168
255
224
168
255
224
168
255
224
168
255
224
168
255
224
168
255
224
168
255
224
168
255
224
168
255
224
168
255
224
168
255
224
168
255
224
168
255
224
168
255
224
168
255
224
168
255
224
168
255
224
168
255
224
168
255
164
64
255
164
64
248
56
0
248
56
0
248
56
0
248
56
0
248
56
0
248
56
0
255
224
168
255
224
168
255
224
168
255
224
168
255
224
168
255
224
168
255
224
168
255
224
168
255
224
168
255
224
168
255
224
168
255
224
168
255
224
168
255
224
168
255
224
168
255
224
168
255
224
168
255
224
168
255
224
168
255
224
168
255
224
168
255
224
168
255
164
64
255
164
64
248
56
0
248
56
0
248
56
0
248
56
0
248
56
0
248
56
0
255
224
168
255
224
168
255
224
168
255
224
168
255
224
168
255
224
168
255
224
168
255
224
168
255
224
168
255
224
168
255
224
168
255
224
168
255
224
168
255
224
168
255
224
168
255
224
168
255
224
168
255
224
168
255
224
168
248
56
0
248
56
0
248
56
0
248
56
0
248
56
0
248
56
0
255
164
64
255
164
64
255
224
168
255
224
168
255
224
168
255
224
168
255
224
168
255
224
168
255
224
168
255
224
168
255
224
168
255
224
168
255
224
168
255
224
168
255
224
168
255
224
168
255
224
168
255
224
168
255
224
168
255
224
168
255
224
168
255
224
168
255
224
168
255
224
168
248
56
0
248
56
0
248
56
0
248
56
0
248
56
0
248
56
0
255
164
64
255
164
64
255
224
168
255
224
168
255
224
168
255
224
168
255
224
168
255
224
168
255
224
168
255
224
168
255
224
168
255
224
168
255
224
168
255
224
168
255
224
168
255
224
168
255
224
168
255
224
168
255
224
168
255
224
168
255
224
168
255
224
168
255
224
168
255
224
168
248
56
0
248
56
0
248
56
0
248
56
0
248
56
0
248
56
0
255
164
64
255
164
64
255
224
168
255
224
168
255
224
168
255
224
168
255
224
168
255
224
168
255
224
168
255
224
168
255
224
168
255
224
168
255
224
168
255
224
168
255
224
168
255
224
168
255
224
168
255
224
168
255
224
168
255
224
168
255
224
168
255
224
168
255
224
168
255
224
168
255
224
168
255
224
168
248
56
0
248
56
0
248
56
0
248
56
0
248
56
0
248
56
0
255
164
64
255
224
168
255
224
168
255
224
168
255
224
168
255
224
168
255
224
168
255
224
168
255
224
168
255
224
168
255
224
168
255
224
168
255
224
168
255
224
168
255
224
168
255
224
168
255
224
168
255
224
168
255
224
168
255
224
168
255
224
168
255
224
168
255
224
168
255
160
68
248
56
0
248
56
0
248
56
0
248
56
0
248
56
0
248
56
0
248
56
0
172
124
0
172
124
0
172
124
0
255
224
168
255
224
168
255
224
168
255
224
168
255
224
168
255
224
168
255
224
168
255
224
168
255
224
168
255
224
168
255
224
168
255
224
168
255
224
168
255
224
168
255
224
168
255
224
168
255
224
168
255
224
168
255
224
168
255
224
168
255
224
168
248
56
0
248
56
0
248
56
0
248
56
0
248
56
0
255
164
64
255
164
64
172
124
0
172
124
0
255
164
64
255
224
168
255
224
168
255
224
168
255
224
168
255
224
168
255
224
168
255
224
168
255
224
168
255
224
168
255
224
168
255
224
168
255
224
168
255
224
168
255
224
168
255
224
168
255
224
168
255
224
168
255
224
168
255
224
168
255
224
168
255
224
168
255
224
168
255
224
168
255
224
168
255
224
168
255
224
168
255
224
168
255
224
168
255
224
168
255
224
168
255
224
168
255
224
168
255
224
168
255
224
168
255
224
168
255
224
168
255
224
168
255
224
168
255
224
168
255
224
168
255
224
168
255
224
168
255
224
168
255
224
168
255
224
168
255
224
168
255
224
168
255
224
168
255
224
168
255
224
168
255
224
168
255
224
168
255
224
168
255
224
168
255
224
168
255
224
168
255
224
168
255
224
168
255
224
168
255
224
168
255
164
64
255
164
64
255
164
64
255
164
64
255
164
64
248
56
0
248
56
0
248
56
0
248
56
0
248
56
0
248
56
0
248
56
0
255
224
168
255
224
168
255
224
168
255
224
168
255
224
168
255
224
168
255
224
168
255
224
168
255
224
168
255
224
168
255
224
168
255
224
168
255
224
168
255
224
168
255
224
168
255
224
168
255
224
168
255
224
168
255
224
168
255
160
68
255
160
68
172
124
0
172
124
0
255
160
68
255
160
68
172
124
0
248
56
0
248
56
0
248
56
0
248
56
0
248
56
0
248
56
0
255
224
168
255
224
168
255
224
168
255
224
168
255
224
168
255
224
168
255
224
168
255
224
168
255
224
168
255
224
168
255
224
168
255
224
168
255
224
168
255
224
168
255
224
168
255
224
168
255
224
168
255
224
168
255
224
168
255
224
168
255
164
64
255
164
64
248
56
0
248
56
0
248
56
0
248
56
0
248
56
0
248
56
0
255
224
168
255
224
168
255
224
168
255
224
168
255
224
168
255
224
168
255
224
168
255
224
168
255
224
168
255
224
168
255
224
168
255
224
168
255
224
168
255
224
168
255
224
168
255
224
168
255
224
168
255
224
168
255
224
168
255
224
168
248
56
0
248
56
0
248
56
0
248
56
0
248
56
0
248
56
0
248
56
0
248
56
0
248
56
0
248
56
0
248
56
0
255
224
168
255
224
168
255
224
168
255
224
168
255
224
168
255
224
168
255
224
168
255
224
168
255
224
168
255
224
168
255
224
168
255
224
168
255
224
168
255
224
168
255
224
168
255
224
168
255
224
168
255
224
168
255
224
168
248
56
0
248
56
0
248
56
0
248
56
0
248
56
0
248
56
0
248
56
0
248
56
0
248
56
0
248
56
0
248
56
0
255
224
168
255
224
168
255
224
168
255
224
168
255
224
168
255
224
168
255
224
168
255
224
168
255
224
168
255
224
168
255
224
168
255
224
168
255
224
168
255
224
168
255
224
168
255
224
168
255
224
168
255
224
168
255
224
168
248
56
0
248
56
0
248
56
0
248
56
0
248
56
0
248
56
0
248
56
0
248
56
0
248
56
0
248
56
0
248
56
0
255
224
168
255
224
168
255
224
168
255
224
168
255
224
168
255
224
168
255
224
168
255
224
168
255
224
168
255
224
168
255
224
168
255
224
168
255
224
168
255
224
168
255
224
168
255
224
168
255
224
168
255
224
168
255
224
168
248
56
0
248
56
0
248
56
0
248
56
0
248
56
0
248
56
0
248
56
0
248
56
0
248
56
0
248
56
0
248
56
0
255
224
168
255
224
168
255
224
168
255
224
168
255
224
168
255
224
168
255
224
168
255
224
168
255
224
168
255
224
168
255
224
168
255
224
168
255
224
168
255
224
168
255
224
168
255
224
168
255
224
168
255
224
168
255
224
168
248
56
0
248
56
0
248
56
0
248
56
0
248
56
0
248
56
0
248
56
0
248
56
0
248
56
0
248
56
0
248
56
0
255
224
168
255
224
168
255
224
168
255
224
168
255
224
168
255
224
168
255
224
168
255
224
168
255
224
168
255
224
168
255
224
168
255
224
168
255
224
168
255
224
168
255
224
168
255
224
168
255
224
168
255
224
168
255
224
168
248
56
0
248
56
0
248
56
0
248
56
0
248
56
0
248
56
0
248
56
0
248
56
0
248
56
0
248
56
0
248
56
0
255
224
168
255
224
168
255
224
168
255
224
168
255
224
168
255
224
168
255
224
168
255
224
168
255
224
168
255
224
168
255
224
168
255
224
168
255
224
168
255
224
168
255
224
168
255
224
168
255
224
168
255
224
168
255
224
168
255
224
168
248
56
0
248
56
0
248
56
0
248
56
0
248
56
0
248
56
0
255
164
64
255
164
64
255
224
168
255
224
168
255
224
168
255
224
168
255
224
168
255
224
168
255
224
168
255
224
168
255
224
168
255
224
168
255
224
168
255
224
168
255
224
168
255
224
168
255
224
168
255
224
168
255
224
168
255
224
168
255
224
168
255
224
168
248
56
0
248
56
0
248
56
0
248
56
0
248
56
0
248
56
0
172
124
0
255
160
68
255
160
68
172
124
0
172
124
0
255
160
68
255
160
68
255
224
168
255
224
168
255
224
168
255
224
168
255
224
168
255
224
168
255
224
168
255
224
168
255
224
168
255
224
168
255
224
168
255
224
168
255
224
168
255
224
168
255
224
168
255
224
168
255
224
168
255
224
168
255
224
168
248
56
0
248
56
0
248
56
0
248
56
0
248
56
0
248
56
0
248
56
0
255
164
64
255
164
64
255
164
64
255
164
64
255
164
64
255
224
168
255
224
168
255
224
168
255
224
168
255
224
168
255
224
168
255
224
168
255
224
168
255
224
168
255
224
168
255
224
168
255
224
168
255
224
168
255
224
168
255
224
168
255
224
168
255
224
168
255
224
168
255
224
168
255
224
168
255
224
168
255
224
168
255
224
168
255
224
168
255
224
168
255
224
168
255
224
168
255
224
168
255
224
168
255
224
168
255
224
168
255
224
168
255
224
168
255
224
168
255
224
168
255
224
168
255
224
168
255
224
168
255
224
168
255
224
168
255
224
168
255
224
168
255
224
168
255
224
168
255
224
168
255
224
168
255
224
168
255
224
168
255
224
168
255
224
168
255
224
168
255
224
168
255
224
168
255
224
168
255
224
168
255
224
168
255
224
168
255
224
168
255
224
168
255
224
168
172
124
0
172
124
0
172
124
0
172
124
0
172
124
0
248
56
0
248
56
0
248
56
0
248
56
0
248
56
0
248
56
0
248
56
0
248
56
0
255
224
168
255
224
168
255
224
168
255
224
168
255
224
168
255
224
168
255
224
168
255
224
168
255
224
168
255
224
168
255
224
168
255
224
168
255
224
168
255
224
168
255
224
168
255
224
168
255
224
168
255
160
68
255
160
68
255
160
68
255
160
68
172
124
0
255
160
68
255
160
68
172
124
0
255
160
68
255
160
68
172
124
0
255
160
68
255
160
68
248
56
0
248
56
0
255
224
168
255
224
168
255
224
168
255
224
168
255
224
168
255
224
168
255
224
168
255
224
168
255
224
168
255
224
168
255
224
168
255
224
168
255
224
168
255
224
168
255
224
168
255
224
168
248
56
0
248
56
0
248
56
0
248
56
0
248
56
0
248
56
0
248
56
0
248
56
0
248
56
0
248
56
0
248
56
0
255
224
168
255
224
168
255
224
168
255
224
168
255
224
168
255
224
168
255
224
168
255
224
168
255
224
168
255
224
168
255
224
168
255
224
168
255
224
168
255
224
168
255
224
168
255
224
168
255
224
168
255
224
168
255
224
168
255
224
168
255
224
168
255
224
168
255
164
64
255
164
64
255
164
64
172
124
0
255
164
64
255
164
64
172
124
0
172
124
0
172
124
0
255
224
168
255
224
168
255
224
168
255
224
168
255
224
168
255
224
168
255
224
168
255
224
168
255
224
168
255
224
168
255
224
168
255
224
168
255
224
168
255
224
168
255
224
168
255
224
168
255
224
168
255
224
168
255
224
168
255
224
168
255
224
168
255
164
64
255
164
64
255
164
64
172
124
0
255
164
64
255
164
64
172
124
0
172
124
0
172
124
0
255
224
168
255
224
168
255
224
168
255
224
168
255
224
168
255
224
168
255
224
168
255
224
168
255
224
168
255
224
168
255
224
168
255
224
168
255
224
168
255
224
168
255
224
168
255
224
168
255
224
168
255
224
168
255
224
168
255
224
168
255
224
168
255
164
64
255
164
64
255
164
64
172
124
0
255
164
64
255
164
64
172
124
0
172
124
0
172
124
0
255
224
168
255
224
168
255
224
168
255
224
168
255
224
168
255
224
168
255
224
168
255
224
168
255
224
168
255
224
168
255
224
168
255
224
168
255
224
168
255
224
168
255
224
168
255
224
168
255
224
168
255
224
168
255
224
168
172
124
0
172
124
0
172
124
0
255
164
64
255
164
64
172
124
0
255
164
64
255
164
64
255
164
64
255
224
168
255
224
168
255
224
168
255
224
168
255
224
168
255
224
168
255
224
168
255
224
168
255
224
168
255
224
168
255
224
168
255
224
168
255
224
168
255
224
168
255
224
168
255
224
168
255
224
168
255
224
168
255
224
168
255
224
168
255
224
168
172
124
0
172
124
0
172
124
0
255
164
64
255
164
64
172
124
0
255
164
64
255
164
64
255
164
64
255
224
168
255
224
168
255
224
168
255
224
168
255
224
168
255
224
168
255
224
168
255
224
168
255
224
168
255
224
168
255
224
168
255
224
168
255
224
168
255
224
168
255
224
168
255
224
168
255
224
168
255
224
168
255
224
168
255
224
168
255
224
168
172
124
0
172
124
0
172
124
0
255
164
64
255
164
64
172
124
0
255
164
64
255
164
64
255
164
64
255
224
168
255
224
168
255
224
168
255
224
168
255
224
168
255
224
168
255
224
168
255
224
168
255
224
168
255
224
168
255
224
168
255
224
168
255
224
168
255
224
168
255
224
168
255
224
168
255
224
168
255
224
168
255
224
168
255
224
168
255
224
168
255
224
168
248
56
0
248
56
0
248
56
0
248
56
0
248
56
0
248
56
0
248
56
0
248
56
0
248
56
0
248
56
0
248
56
0
255
224
168
255
224
168
255
224
168
255
224
168
255
224
168
255
224
168
255
224
168
255
224
168
255
224
168
255
224
168
255
224
168
255
224
168
255
224
168
255
224
168
255
224
168
255
224
168
248
56
0
248
56
0
255
160
68
255
160
68
172
124
0
255
160
68
255
160
68
172
124
0
255
160
68
255
160
68
172
124
0
255
160
68
255
160
68
255
160
68
255
160
68
255
224
168
255
224
168
255
224
168
255
224
168
255
224
168
255
224
168
255
224
168
255
224
168
255
224
168
255
224
168
255
224
168
255
224
168
255
224
168
255
224
168
255
224
168
255
224
168
255
224
168
248
56
0
248
56
0
248
56
0
248
56
0
248
56
0
248
56
0
248
56
0
248
56
0
172
124
0
172
124
0
172
124
0
172
124
0
172
124
0
255
224
168
255
224
168
255
224
168
255
224
168
255
224
168
255
224
168
255
224
168
255
224
168
255
224
168
255
224
168
255
224
168
255
224
168
255
224
168
255
224
168
255
224
168
255
224
168
255
224
168
255
224
168
255
224
168
255
224
168
255
224
168
255
224
168
255
224
168
255
224
168
255
224
168
255
224
168
255
224
168
255
224
168
255
224
168
255
224
168
255
224
168
255
224
168
255
224
168
255
224
168
248
56
0
248
56
0
248
56
0
248
56
0
248
56
0
255
224
168
255
224
168
255
224
168
255
224
168
255
224
168
255
224
168
255
224
168
255
224
168
255
224
168
255
224
168
255
224
168
255
224
168
255
224
168
255
224
168
255
224
168
255
224
168
255
224
168
255
224
168
255
224
168
255
224
168
255
224
168
172
124
0
172
124
0
248
56
0
248
56
0
248
56
0
248
56
0
248
56
0
248
56
0
248
56
0
248
56
0
248
56
0
248
56
0
248
56
0
255
224
168
255
224
168
255
224
168
255
224
168
255
224
168
255
224
168
255
224
168
255
224
168
255
224
168
255
224
168
255
224
168
255
224
168
255
224
168
255
224
168
255
224
168
255
224
168
255
224
168
255
160
68
255
160
68
255
160
68
255
160
68
172
124
0
255
160
68
255
160
68
172
124
0
255
160
68
255
160
68
172
124
0
172
124
0
255
160
68
255
224
168
255
224
168
255
224
168
255
224
168
255
224
168
255
224
168
255
224
168
255
224
168
255
224
168
255
224
168
255
224
168
255
224
168
255
224
168
255
224
168
255
224
168
255
224
168
255
224
168
255
224
168
255
224
168
255
224
168
255
164
64
255
164
64
255
164
64
172
124
0
255
164
64
255
164
64
172
124
0
172
124
0
172
124
0
255
224
168
255
224
168
255
224
168
255
224
168
255
224
168
255
224
168
255
224
168
255
224
168
255
224
168
255
224
168
255
224
168
255
224
168
255
224
168
255
224
168
255
224
168
255
224
168
255
224
168
255
224
168
255
224
168
255
224
168
255
164
64
255
164
64
255
164
64
255
164
64
172
124
0
172
124
0
255
164
64
255
164
64
172
124
0
255
164
64
255
164
64
172
124
0
255
224
168
255
224
168
255
224
168
255
224
168
255
224
168
255
224
168
255
224
168
255
224
168
255
224
168
255
224
168
255
224
168
255
224
168
255
224
168
255
224
168
255
224
168
255
224
168
255
224
168
255
224
168
255
164
64
255
164
64
255
164
64
255
164
64
172
124
0
172
124
0
255
164
64
255
164
64
172
124
0
255
164
64
255
164
64
172
124
0
255
224
168
255
224
168
255
224
168
255
224
168
255
224
168
255
224
168
255
224
168
255
224
168
255
224
168
255
224
168
255
224
168
255
224
168
255
224
168
255
224
168
255
224
168
255
224
168
255
224
168
255
224
168
255
164
64
255
164
64
255
164
64
255
164
64
172
124
0
172
124
0
255
164
64
255
164
64
172
124
0
255
164
64
255
164
64
172
124
0
255
224
168
255
224
168
255
224
168
255
224
168
255
224
168
255
224
168
255
224
168
255
224
168
255
224
168
255
224
168
255
224
168
255
224
168
255
224
168
255
224
168
255
224
168
255
224
168
255
224
168
172
124
0
255
164
64
255
164
64
172
124
0
255
164
64
255
164
64
172
124
0
172
124
0
255
164
64
255
164
64
255
164
64
255
164
64
255
224
168
255
224
168
255
224
168
255
224
168
255
224
168
255
224
168
255
224
168
255
224
168
255
224
168
255
224
168
255
224
168
255
224
168
255
224
168
255
224
168
255
224
168
255
224
168
255
224
168
255
224
168
172
124
0
255
164
64
255
164
64
172
124
0
255
164
64
255
164
64
172
124
0
172
124
0
255
164
64
255
164
64
255
164
64
255
164
64
255
224
168
255
224
168
255
224
168
255
224
168
255
224
168
255
224
168
255
224
168
255
224
168
255
224
168
255
224
168
255
224
168
255
224
168
255
224
168
255
224
168
255
224
168
255
224
168
255
224
168
255
224
168
172
124
0
255
164
64
255
164
64
172
124
0
255
164
64
255
164
64
172
124
0
172
124
0
255
164
64
255
164
64
255
164
64
255
164
64
255
224
168
255
224
168
255
224
168
255
224
168
255
224
168
255
224
168
255
224
168
255
224
168
255
224
168
255
224
168
255
224
168
255
224
168
255
224
168
255
224
168
255
224
168
255
224
168
255
224
168
255
224
168
255
224
168
255
224
168
172
124
0
172
124
0
172
124
0
255
164
64
255
164
64
172
124
0
255
164
64
255
164
64
255
164
64
255
224
168
255
224
168
255
224
168
255
224
168
255
224
168
255
224
168
255
224
168
255
224
168
255
224
168
255
224
168
255
224
168
255
224
168
255
224
168
255
224
168
255
224
168
255
224
168
255
224
168
255
224
168
255
224
168
255
224
168
255
160
68
172
124
0
172
124
0
255
160
68
255
160
68
172
124
0
255
160
68
255
160
68
172
124
0
255
160
68
255
160
68
255
160
68
255
160
68
255
224
168
255
224
168
255
224
168
255
224
168
255
224
168
255
224
168
255
224
168
255
224
168
255
224
168
255
224
168
255
224
168
255
224
168
255
224
168
255
224
168
255
224
168
255
224
168
255
224
168
248
56
0
248
56
0
248
56
0
248
56
0
248
56
0
248
56
0
248
56
0
248
56
0
248
56
0
248
56
0
248
56
0
172
124
0
172
124
0
255
224
168
255
224
168
255
224
168
255
224
168
255
224
168
255
224
168
255
224
168
255
224
168
255
224
168
255
224
168
255
224
168
255
224
168
255
224
168
255
224
168
255
224
168
255
224
168
255
224
168
255
224
168
255
224
168
255
224
168
255
224
168
248
56
0
248
56
0
248
56
0
248
56
0
248
56
0
255
224
168
255
224
168
255
224
168
255
224
168
255
224
168
255
224
168
255
224
168
255
224
168
255
160
68
248
56
0
248
56
0
248
56
0
248
56
0
248
56
0
248
56
0
255
224
168
255
224
168
255
224
168
255
224
168
255
224
168
255
224
168
255
224
168
255
224
168
255
224
168
255
224
168
255
224
168
255
224
168
255
224
168
255
224
168
255
224
168
255
224
168
255
224
168
255
224
168
255
224
168
172
124
0
172
124
0
172
124
0
172
124
0
255
164
64
255
164
64
255
164
64
172
124
0
255
164
64
255
164
64
172
124
0
172
124
0
172
124
0
255
224
168
255
224
168
255
224
168
255
224
168
255
224
168
255
224
168
255
224
168
255
224
168
255
224
168
255
224
168
255
224
168
255
224
168
255
224
168
255
224
168
255
224
168
255
224
168
255
224
168
255
160
68
255
160
68
172
124
0
255
160
68
248
56
0
255
160
68
255
160
68
255
160
68
172
124
0
255
160
68
255
160
68
255
160
68
255
160
68
255
160
68
255
160
68
255
224
168
255
224
168
255
224
168
255
224
168
255
224
168
255
224
168
255
224
168
255
224
168
255
224
168
255
224
168
255
224
168
255
224
168
255
224
168
255
224
168
255
224
168
255
224
168
255
164
64
255
164
64
255
164
64
255
164
64
172
124
0
172
124
0
255
164
64
255
164
64
172
124
0
255
164
64
255
164
64
172
124
0
255
224
168
255
224
168
255
224
168
255
224
168
255
224
168
255
224
168
255
224
168
255
224
168
255
224
168
255
224
168
255
224
168
255
224
168
255
224
168
255
224
168
255
224
168
255
224
168
255
224
168
255
224
168
255
164
64
255
164
64
255
164
64
255
164
64
255
164
64
255
164
64
255
164
64
255
164
64
172
124
0
172
124
0
255
164
64
255
164
64
172
124
0
255
224
168
255
224
168
255
224
168
255
224
168
255
224
168
255
224
168
255
224
168
255
224
168
255
224
168
255
224
168
255
224
168
255
224
168
255
224
168
255
224
168
255
224
168
255
224
168
255
224
168
255
164
64
255
164
64
255
164
64
255
164
64
255
164
64
255
164
64
255
164
64
255
164
64
172
124
0
172
124
0
255
164
64
255
164
64
172
124
0
255
224
168
255
224
168
255
224
168
255
224
168
255
224
168
255
224
168
255
224
168
255
224
168
255
224
168
255
224
168
255
224
168
255
224
168
255
224
168
255
224
168
255
224
168
255
224
168
255
224
168
255
164
64
255
164
64
255
164
64
255
164
64
255
164
64
255
164
64
255
164
64
255
164
64
172
124
0
172
124
0
255
164
64
255
164
64
172
124
0
255
224
168
255
224
168
255
224
168
255
224
168
255
224
168
255
224
168
255
224
168
255
224
168
255
224
168
255
224
168
255
224
168
255
224
168
255
224
168
255
224
168
255
224
168
255
224
168
255
224
168
172
124
0
255
164
64
255
164
64
172
124
0
172
124
0
255
164
64
255
164
64
255
164
64
255
164
64
255
164
64
255
164
64
255
164
64
255
164
64
255
224
168
255
224
168
255
224
168
255
224
168
255
224
168
255
224
168
255
224
168
255
224
168
255
224
168
255
224
168
255
224
168
255
224
168
255
224
168
255
224
168
255
224
168
255
224
168
255
224
168
172
124
0
255
164
64
255
164
64
172
124
0
172
124
0
255
164
64
255
164
64
255
164
64
255
164
64
255
164
64
255
164
64
255
164
64
255
164
64
255
224
168
255
224
168
255
224
168
255
224
168
255
224
168
255
224
168
255
224
168
255
224
168
255
224
168
255
224
168
255
224
168
255
224
168
255
224
168
255
224
168
255
224
168
255
224
168
255
224
168
172
124
0
255
164
64
255
164
64
172
124
0
172
124
0
255
164
64
255
164
64
255
164
64
255
164
64
255
164
64
255
164
64
255
164
64
255
164
64
255
224
168
255
224
168
255
224
168
255
224
168
255
224
168
255
224
168
255
224
168
255
224
168
255
224
168
255
224
168
255
224
168
255
224
168
255
224
168
255
224
168
255
224
168
255
224
168
255
224
168
255
224
168
172
124
0
255
164
64
255
164
64
172
124
0
255
164
64
255
164
64
172
124
0
172
124
0
255
164
64
255
164
64
255
164
64
255
164
64
255
224
168
255
224
168
255
224
168
255
224
168
255
224
168
255
224
168
255
224
168
255
224
168
255
224
168
255
224
168
255
224
168
255
224
168
255
224
168
255
224
168
255
224
168
255
224
168
255
160
68
255
160
68
255
160
68
255
160
68
255
160
68
255
160
68
172
124
0
255
160
68
255
160
68
255
160
68
248
56
0
255
160
68
172
124
0
255
160
68
255
160
68
255
224
168
255
224
168
255
224
168
255
224
168
255
224
168
255
224
168
255
224
168
255
224
168
255
224
168
255
224
168
255
224
168
255
224
168
255
224
168
255
224
168
255
224
168
255
224
168
255
224
168
172
124
0
172
124
0
172
124
0
255
164
64
255
164
64
172
124
0
255
164
64
255
164
64
255
164
64
172
124
0
172
124
0
172
124
0
172
124
0
255
224
168
255
224
168
255
224
168
255
224
168
255
224
168
255
224
168
255
224
168
255
224
168
255
224
168
255
224
168
255
224
168
255
224
168
255
224
168
255
224
168
255
224
168
255
224
168
255
224
168
255
224
168
255
224
168
248
56
0
248
56
0
248
56
0
248
56
0
248
56
0
248
56
0
255
160
68
255
224
168
255
224
168
255
224
168
255
224
168
255
224
168
255
224
168
255
224
168
255
224
168
255
160
68
255
160
68
248
56
0
248
56
0
248
56
0
248
56
0
248
56
0
248
56
0
255
224
168
255
224
168
255
224
168
255
224
168
255
224
168
255
224
168
255
224
168
255
224
168
255
224
168
255
224
168
255
224
168
255
224
168
255
224
168
255
224
168
255
224
168
255
224
168
255
224
168
255
224
168
172
124
0
172
124
0
255
164
64
255
164
64
255
164
64
255
164
64
255
164
64
172
124
0
255
164
64
255
164
64
172
124
0
255
164
64
255
164
64
172
124
0
255
224
168
255
224
168
255
224
168
255
224
168
255
224
168
255
224
168
255
224
168
255
224
168
255
224
168
255
224
168
255
224
168
255
224
168
255
224
168
255
224
168
255
224
168
255
224
168
255
160
68
172
124
0
255
160
68
172
124
0
248
56
0
248
56
0
255
160
68
255
160
68
255
160
68
255
160
68
255
160
68
172
124
0
255
160
68
255
160
68
255
160
68
255
160
68
255
224
168
255
224
168
255
224
168
255
224
168
255
224
168
255
224
168
255
224
168
255
224
168
255
224
168
255
224
168
255
224
168
255
224
168
255
224
168
255
224
168
255
164
64
255
164
64
255
164
64
255
164
64
255
164
64
255
164
64
255
164
64
255
164
64
172
124
0
172
124
0
255
164
64
255
164
64
172
124
0
255
224
168
255
224
168
255
224
168
255
224
168
255
224
168
255
224
168
255
224
168
255
224
168
255
224
168
255
224
168
255
224
168
255
224
168
255
224
168
255
224
168
255
224
168
255
224
168
255
224
168
255
224
168
255
164
64
255
164
64
255
164
64
255
164
64
172
124
0
255
164
64
255
164
64
255
164
64
172
124
0
172
124
0
255
164
64
255
164
64
172
124
0
172
124
0
255
224
168
255
224
168
255
224
168
255
224
168
255
224
168
255
224
168
255
224
168
255
224
168
255
224
168
255
224
168
255
224
168
255
224
168
255
224
168
255
224
168
255
224
168
255
224
168
255
164
64
255
164
64
255
164
64
255
164
64
172
124
0
255
164
64
255
164
64
255
164
64
172
124
0
172
124
0
255
164
64
255
164
64
172
124
0
172
124
0
255
224
168
255
224
168
255
224
168
255
224
168
255
224
168
255
224
168
255
224
168
255
224
168
255
224
168
255
224
168
255
224
168
255
224
168
255
224
168
255
224
168
255
224
168
255
224
168
255
164
64
255
164
64
255
164
64
255
164
64
172
124
0
255
164
64
255
164
64
255
164
64
172
124
0
172
124
0
255
164
64
255
164
64
172
124
0
172
124
0
255
224
168
255
224
168
255
224
168
255
224
168
255
224
168
255
224
168
255
224
168
255
224
168
255
224
168
255
224
168
255
224
168
255
224
168
255
224
168
255
224
168
255
224
168
172
124
0
172
124
0
255
164
64
255
164
64
172
124
0
172
124
0
255
164
64
255
164
64
255
164
64
172
124
0
255
164
64
255
164
64
255
164
64
255
164
64
255
224
168
255
224
168
255
224
168
255
224
168
255
224
168
255
224
168
255
224
168
255
224
168
255
224
168
255
224
168
255
224
168
255
224
168
255
224
168
255
224
168
255
224
168
255
224
168
172
124
0
172
124
0
255
164
64
255
164
64
172
124
0
172
124
0
255
164
64
255
164
64
255
164
64
172
124
0
255
164
64
255
164
64
255
164
64
255
164
64
255
224
168
255
224
168
255
224
168
255
224
168
255
224
168
255
224
168
255
224
168
255
224
168
255
224
168
255
224
168
255
224
168
255
224
168
255
224
168
255
224
168
255
224
168
255
224
168
172
124
0
172
124
0
255
164
64
255
164
64
172
124
0
172
124
0
255
164
64
255
164
64
255
164
64
172
124
0
255
164
64
255
164
64
255
164
64
255
164
64
255
224
168
255
224
168
255
224
168
255
224
168
255
224
168
255
224
168
255
224
168
255
224
168
255
224
168
255
224
168
255
224
168
255
224
168
255
224
168
255
224
168
255
224
168
255
224
168
255
224
168
255
224
168
172
124
0
255
164
64
255
164
64
172
124
0
172
124
0
255
164
64
255
164
64
255
164
64
255
164
64
255
164
64
255
164
64
255
164
64
255
164
64
255
224
168
255
224
168
255
224
168
255
224
168
255
224
168
255
224
168
255
224
168
255
224
168
255
224
168
255
224
168
255
224
168
255
224
168
255
224
168
255
224
168
255
160
68
255
160
68
255
160
68
255
160
68
172
124
0
255
160
68
255
160
68
255
160
68
255
160
68
255
160
68
248
56
0
248
56
0
172
124
0
255
160
68
172
124
0
255
160
68
255
224
168
255
224
168
255
224
168
255
224
168
255
224
168
255
224
168
255
224
168
255
224
168
255
224
168
255
224
168
255
224
168
255
224
168
255
224
168
255
224
168
255
224
168
255
224
168
172
124
0
255
164
64
255
164
64
172
124
0
255
164
64
255
164
64
172
124
0
255
164
64
255
164
64
255
164
64
255
164
64
255
164
64
172
124
0
172
124
0
255
224
168
255
224
168
255
224
168
255
224
168
255
224
168
255
224
168
255
224
168
255
224
168
255
224
168
255
224
168
255
224
168
255
224
168
255
224
168
255
224
168
255
224
168
255
224
168
255
224
168
255
224
168
248
56
0
248
56
0
248
56
0
248
56
0
248
56
0
248
56
0
255
160
68
255
160
68
255
224
168
255
224
168
255
224
168
255
224
168
255
224
168
248
56
0
248
56
0
248
56
0
248
56
0
248
56
0
248
56
0
248
56
0
248
56
0
248
56
0
248
56
0
248
56
0
255
224
168
255
224
168
255
224
168
255
224
168
255
224
168
255
224
168
255
224
168
255
224
168
255
224
168
255
224
168
255
224
168
255
224
168
255
224
168
255
224
168
255
224
168
255
224
168
255
224
168
255
224
168
172
124
0
255
164
64
255
164
64
255
164
64
255
164
64
255
164
64
255
164
64
255
164
64
255
164
64
172
124
0
172
124
0
255
164
64
255
164
64
172
124
0
255
224
168
255
224
168
255
224
168
255
224
168
255
224
168
255
224
168
255
224
168
255
224
168
255
224
168
255
224
168
255
224
168
255
224
168
255
224
168
255
224
168
255
224
168
255
224
168
255
160
68
255
160
68
172
124
0
248
56
0
248
56
0
172
124
0
172
124
0
255
160
68
255
160
68
172
124
0
172
124
0
172
124
0
172
124
0
255
160
68
255
160
68
255
160
68
255
224
168
255
224
168
255
224
168
255
224
168
255
224
168
255
224
168
255
224
168
255
224
168
255
224
168
255
224
168
255
224
168
255
224
168
255
224
168
255
224
168
255
164
64
255
164
64
255
164
64
255
164
64
172
124
0
255
164
64
255
164
64
255
164
64
172
124
0
172
124
0
255
164
64
255
164
64
172
124
0
172
124
0
255
224
168
255
224
168
255
224
168
255
224
168
255
224
168
255
224
168
255
224
168
255
224
168
255
224
168
255
224
168
255
224
168
255
224
168
255
224
168
255
224
168
255
224
168
255
224
168
255
224
168
255
224
168
172
124
0
172
124
0
172
124
0
172
124
0
172
124
0
172
124
0
255
164
64
255
164
64
255
164
64
255
164
64
255
164
64
172
124
0
172
124
0
255
224
168
255
224
168
255
224
168
255
224
168
255
224
168
255
224
168
255
224
168
255
224
168
255
224
168
255
224
168
255
224
168
255
224
168
255
224
168
255
224
168
255
224
168
255
224
168
255
224
168
172
124
0
172
124
0
172
124
0
172
124
0
172
124
0
172
124
0
255
164
64
255
164
64
255
164
64
255
164
64
255
164
64
172
124
0
172
124
0
255
224
168
255
224
168
255
224
168
255
224
168
255
224
168
255
224
168
255
224
168
255
224
168
255
224
168
255
224
168
255
224
168
255
224
168
255
224
168
255
224
168
255
224
168
255
224
168
255
224
168
172
124
0
172
124
0
172
124
0
172
124
0
172
124
0
172
124
0
255
164
64
255
164
64
255
164
64
255
164
64
255
164
64
172
124
0
172
124
0
255
224
168
255
224
168
255
224
168
255
224
168
255
224
168
255
224
168
255
224
168
255
224
168
255
224
168
255
224
168
255
224
168
255
224
168
255
224
168
255
224
168
255
224
168
172
124
0
172
124
0
255
164
64
255
164
64
255
164
64
255
164
64
255
164
64
172
124
0
172
124
0
172
124
0
172
124
0
172
124
0
172
124
0
255
224
168
255
224
168
255
224
168
255
224
168
255
224
168
255
224
168
255
224
168
255
224
168
255
224
168
255
224
168
255
224
168
255
224
168
255
224
168
255
224
168
255
224
168
255
224
168
255
224
168
172
124
0
172
124
0
255
164
64
255
164
64
255
164
64
255
164
64
255
164
64
172
124
0
172
124
0
172
124
0
172
124
0
172
124
0
172
124
0
255
224
168
255
224
168
255
224
168
255
224
168
255
224
168
255
224
168
255
224
168
255
224
168
255
224
168
255
224
168
255
224
168
255
224
168
255
224
168
255
224
168
255
224
168
255
224
168
255
224
168
172
124
0
172
124
0
255
164
64
255
164
64
255
164
64
255
164
64
255
164
64
172
124
0
172
124
0
172
124
0
172
124
0
172
124
0
172
124
0
255
224
168
255
224
168
255
224
168
255
224
168
255
224
168
255
224
168
255
224
168
255
224
168
255
224
168
255
224
168
255
224
168
255
224
168
255
224
168
255
224
168
255
224
168
255
224
168
255
224
168
255
224
168
172
124
0
172
124
0
255
164
64
255
164
64
172
124
0
172
124
0
255
164
64
255
164
64
255
164
64
172
124
0
255
164
64
255
164
64
255
164
64
255
164
64
255
224
168
255
224
168
255
224
168
255
224
168
255
224
168
255
224
168
255
224
168
255
224
168
255
224
168
255
224
168
255
224
168
255
224
168
255
224
168
255
224
168
255
160
68
255
160
68
255
160
68
172
124
0
172
124
0
172
124
0
172
124
0
255
160
68
255
160
68
172
124
0
172
124
0
248
56
0
248
56
0
172
124
0
255
160
68
255
160
68
255
224
168
255
224
168
255
224
168
255
224
168
255
224
168
255
224
168
255
224
168
255
224
168
255
224
168
255
224
168
255
224
168
255
224
168
255
224
168
255
224
168
255
224
168
255
224
168
172
124
0
255
164
64
255
164
64
172
124
0
172
124
0
255
164
64
255
164
64
255
164
64
255
164
64
255
164
64
255
164
64
255
164
64
255
164
64
172
124
0
255
224
168
255
224
168
255
224
168
255
224
168
255
224
168
255
224
168
255
224
168
255
224
168
255
224
168
255
224
168
255
224
168
255
224
168
255
224
168
255
224
168
255
224
168
255
224
168
255
224
168
255
224
168
248
56
0
248
56
0
248
56
0
248
56
0
248
56
0
248
56
0
248
56
0
248
56
0
248
56
0
248
56
0
248
56
0
255
224
168
255
224
168
255
224
168
255
224
168
255
160
68
255
160
68
255
160
68
172
124
0
255
160
68
255
160
68
172
124
0
172
124
0
172
124
0
255
224
168
255
224
168
255
224
168
255
224
168
255
224
168
255
224
168
255
224
168
255
224
168
255
224
168
255
224
168
255
224
168
255
224
168
255
224
168
255
224
168
255
224
168
255
224
168
255
224
168
255
224
168
172
124
0
255
164
64
255
164
64
255
164
64
255
164
64
172
124
0
255
164
64
255
164
64
255
164
64
172
124
0
172
124
0
255
164
64
255
164
64
172
124
0
255
224
168
255
224
168
255
224
168
255
224
168
255
224
168
255
224
168
255
224
168
255
224
168
255
224
168
255
224
168
255
224
168
255
224
168
255
224
168
255
224
168
255
224
168
255
224
168
255
224
168
255
224
168
255
224
168
248
56
0
172
124
0
172
124
0
172
124
0
255
160
68
255
160
68
255
160
68
255
160
68
172
124
0
172
124
0
172
124
0
172
124
0
255
224
168
255
224
168
255
224
168
255
224
168
255
224
168
255
224
168
255
224
168
255
224
168
255
224
168
255
224
168
255
224
168
255
224
168
255
224
168
255
224
168
255
224
168
255
224
168
172
124
0
172
124
0
172
124
0
172
124
0
172
124
0
172
124
0
255
164
64
255
164
64
255
164
64
255
164
64
255
164
64
172
124
0
172
124
0
255
224
168
255
224
168
255
224
168
255
224
168
255
224
168
255
224
168
255
224
168
255
224
168
255
224
168
255
224
168
255
224
168
255
224
168
255
224
168
255
224
168
255
224
168
255
224
168
255
224
168
255
224
168
172
124
0
172
124
0
172
124
0
172
124
0
172
124
0
255
164
64
255
164
64
255
164
64
255
164
64
255
164
64
172
124
0
172
124
0
255
224
168
255
224
168
255
224
168
255
224
168
255
224
168
255
224
168
255
224
168
255
224
168
255
224
168
255
224
168
255
224
168
255
224
168
255
224
168
255
224
168
255
224
168
255
224
168
255
224
168
255
224
168
172
124
0
172
124
0
172
124
0
172
124
0
172
124
0
255
164
64
255
164
64
255
164
64
255
164
64
255
164
64
172
124
0
172
124
0
172
124
0
255
224
168
255
224
168
255
224
168
255
224
168
255
224
168
255
224
168
255
224
168
255
224
168
255
224
168
255
224
168
255
224
168
255
224
168
255
224
168
255
224
168
255
224
168
255
224
168
255
224
168
172
124
0
172
124
0
172
124
0
172
124
0
172
124
0
255
164
64
255
164
64
255
164
64
255
164
64
255
164
64
172
124
0
172
124
0
172
124
0
255
224
168
255
224
168
255
224
168
255
224
168
255
224
168
255
224
168
255
224
168
255
224
168
255
224
168
255
224
168
255
224
168
255
224
168
255
224
168
255
224
168
255
224
168
172
124
0
172
124
0
172
124
0
255
164
64
255
164
64
255
164
64
255
164
64
255
164
64
172
124
0
172
124
0
172
124
0
172
124
0
172
124
0
255
224
168
255
224
168
255
224
168
255
224
168
255
224
168
255
224
168
255
224
168
255
224
168
255
224
168
255
224
168
255
224
168
255
224
168
255
224
168
255
224
168
255
224
168
255
224
168
255
224
168
172
124
0
172
124
0
172
124
0
255
164
64
255
164
64
255
164
64
255
164
64
255
164
64
172
124
0
172
124
0
172
124
0
172
124
0
172
124
0
255
224
168
255
224
168
255
224
168
255
224
168
255
224
168
255
224
168
255
224
168
255
224
168
255
224
168
255
224
168
255
224
168
255
224
168
255
224
168
255
224
168
255
224
168
255
224
168
255
224
168
255
224
168
172
124
0
172
124
0
255
164
64
255
164
64
255
164
64
255
164
64
255
164
64
172
124
0
172
124
0
172
124
0
172
124
0
172
124
0
255
224
168
255
224
168
255
224
168
255
224
168
255
224
168
255
224
168
255
224
168
255
224
168
255
224
168
255
224
168
255
224
168
255
224
168
255
224
168
255
224
168
255
224
168
255
224
168
255
224
168
255
224
168
172
124
0
172
124
0
255
164
64
255
164
64
255
164
64
255
164
64
255
164
64
172
124
0
172
124
0
172
124
0
172
124
0
172
124
0
172
124
0
255
224
168
255
224
168
255
224
168
255
224
168
255
224
168
255
224
168
255
224
168
255
224
168
255
224
168
255
224
168
255
224
168
255
224
168
255
224
168
255
224
168
255
224
168
255
224
168
172
124
0
172
124
0
172
124
0
172
124
0
255
160
68
255
160
68
255
160
68
255
160
68
172
124
0
172
124
0
172
124
0
248
56
0
255
224
168
255
224
168
255
224
168
255
224
168
255
224
168
255
224
168
255
224
168
255
224
168
255
224
168
255
224
168
255
224
168
255
224
168
255
224
168
255
224
168
255
224
168
255
224
168
255
224
168
255
224
168
255
224
168
172
124
0
255
164
64
255
164
64
172
124
0
172
124
0
255
164
64
255
164
64
255
164
64
172
124
0
255
164
64
255
164
64
255
164
64
255
164
64
172
124
0
255
224
168
255
224
168
255
224
168
255
224
168
255
224
168
255
224
168
255
224
168
255
224
168
255
224
168
255
224
168
255
224
168
255
224
168
255
224
168
255
224
168
255
224
168
255
224
168
255
224
168
255
224
168
172
124
0
172
124
0
172
124
0
255
160
68
255
160
68
172
124
0
255
160
68
255
160
68
255
160
68
255
224
168
255
224
168
255
224
168
255
224
168
255
160
68
255
160
68
255
160
68
255
160
68
172
124
0
172
124
0
255
160
68
255
160
68
172
124
0
255
160
68
255
160
68
172
124
0
255
224
168
255
224
168
255
224
168
255
224
168
255
224
168
255
224
168
255
224
168
255
224
168
255
224
168
255
224
168
255
224
168
255
224
168
255
224
168
255
224
168
255
224
168
255
224
168
255
224
168
255
224
168
172
124
0
172
124
0
172
124
0
172
124
0
172
124
0
172
124
0
172
124
0
255
164
64
255
164
64
255
164
64
255
164
64
255
164
64
172
124
0
172
124
0
255
224
168
255
224
168
255
224
168
255
224
168
255
224
168
255
224
168
255
224
168
255
224
168
255
224
168
255
224
168
255
224
168
255
224
168
255
224
168
255
224
168
255
224
168
255
224
168
255
224
168
248
56
0
248
56
0
172
124
0
172
124
0
172
124
0
172
124
0
172
124
0
255
160
68
255
160
68
255
160
68
255
160
68
255
160
68
255
224
168
255
224
168
255
224
168
255
224
168
255
224
168
255
224
168
255
224
168
255
224
168
255
224
168
255
224
168
255
224
168
255
224
168
255
224
168
255
224
168
255
224
168
255
224
168
255
224
168
172
124
0
172
124
0
172
124
0
172
124
0
172
124
0
255
164
64
255
164
64
255
164
64
255
164
64
255
164
64
172
124
0
172
124
0
255
224
168
255
224
168
255
224
168
255
224
168
255
224
168
255
224
168
255
224
168
255
224
168
255
224
168
255
224
168
255
224
168
255
224
168
255
224
168
255
224
168
255
224
168
255
224
168
255
224
168
255
224
168
255
224
168
255
224
168
255
164
64
255
164
64
255
164
64
255
164
64
255
164
64
255
164
64
255
164
64
255
164
64
172
124
0
172
124
0
255
224
168
255
224
168
255
224
168
255
224
168
255
224
168
255
224
168
255
224
168
255
224
168
255
224
168
255
224
168
255
224
168
255
224
168
255
224
168
255
224
168
255
224
168
255
224
168
255
224
168
255
224
168
255
224
168
255
224
168
255
164
64
255
164
64
255
164
64
255
164
64
255
164
64
255
164
64
255
164
64
255
164
64
172
124
0
172
124
0
255
224
168
255
224
168
255
224
168
255
224
168
255
224
168
255
224
168
255
224
168
255
224
168
255
224
168
255
224
168
255
224
168
255
224
168
255
224
168
255
224
168
255
224
168
255
224
168
255
224
168
255
224
168
255
224
168
255
224
168
255
164
64
255
164
64
255
164
64
255
164
64
255
164
64
255
164
64
255
164
64
255
164
64
172
124
0
172
124
0
255
224
168
255
224
168
255
224
168
255
224
168
255
224
168
255
224
168
255
224
168
255
224
168
255
224
168
255
224
168
255
224
168
255
224
168
255
224
168
255
224
168
255
224
168
255
224
168
255
224
168
255
224
168
255
224
168
172
124
0
172
124
0
255
164
64
255
164
64
255
164
64
255
164
64
255
164
64
255
164
64
255
164
64
255
164
64
255
224
168
255
224
168
255
224
168
255
224
168
255
224
168
255
224
168
255
224
168
255
224
168
255
224
168
255
224
168
255
224
168
255
224
168
255
224
168
255
224
168
255
224
168
255
224
168
255
224
168
255
224
168
255
224
168
255
224
168
172
124
0
172
124
0
255
164
64
255
164
64
255
164
64
255
164
64
255
164
64
255
164
64
255
164
64
255
164
64
255
224
168
255
224
168
255
224
168
255
224
168
255
224
168
255
224
168
255
224
168
255
224
168
255
224
168
255
224
168
255
224
168
255
224
168
255
224
168
255
224
168
255
224
168
255
224
168
255
224
168
255
224
168
255
224
168
255
224
168
172
124
0
172
124
0
255
164
64
255
164
64
255
164
64
255
164
64
255
164
64
255
164
64
255
164
64
255
164
64
255
224
168
255
224
168
255
224
168
255
224
168
255
224
168
255
224
168
255
224
168
255
224
168
255
224
168
255
224
168
255
224
168
255
224
168
255
224
168
255
224
168
255
224
168
255
224
168
255
224
168
255
224
168
255
224
168
255
224
168
172
124
0
172
124
0
255
164
64
255
164
64
255
164
64
255
164
64
255
164
64
172
124
0
172
124
0
172
124
0
172
124
0
172
124
0
255
224
168
255
224
168
255
224
168
255
224
168
255
224
168
255
224
168
255
224
168
255
224
168
255
224
168
255
224
168
255
224
168
255
224
168
255
224
168
255
224
168
255
224
168
255
224
168
255
224
168
255
160
68
255
160
68
255
160
68
255
160
68
255
160
68
172
124
0
172
124
0
172
124
0
172
124
0
172
124
0
248
56
0
248
56
0
255
224
168
255
224
168
255
224
168
255
224
168
255
224
168
255
224
168
255
224
168
255
224
168
255
224
168
255
224
168
255
224
168
255
224
168
255
224
168
255
224
168
255
224
168
255
224
168
255
224
168
172
124
0
172
124
0
255
164
64
255
164
64
255
164
64
255
164
64
255
164
64
172
124
0
172
124
0
172
124
0
172
124
0
172
124
0
172
124
0
172
124
0
255
224
168
255
224
168
255
224
168
255
224
168
255
224
168
255
224
168
255
224
168
255
224
168
255
224
168
255
224
168
255
224
168
255
224
168
255
224
168
255
224
168
255
224
168
255
224
168
255
224
168
255
224
168
172
124
0
255
160
68
255
160
68
172
124
0
255
160
68
255
160
68
172
124
0
172
124
0
255
160
68
255
160
68
255
160
68
255
160
68
255
224
168
255
160
68
255
160
68
255
160
68
255
160
68
172
124
0
255
160
68
255
160
68
255
160
68
172
124
0
255
160
68
255
160
68
255
160
68
172
124
0
172
124
0
255
224
168
255
224
168
255
224
168
255
224
168
255
224
168
255
224
168
255
224
168
255
224
168
255
224
168
255
224
168
255
224
168
255
224
168
255
224
168
255
224
168
255
224
168
255
224
168
255
224
168
172
124
0
255
164
64
172
124
0
172
124
0
172
124
0
172
124
0
255
164
64
255
164
64
255
164
64
255
164
64
172
124
0
172
124
0
172
124
0
172
124
0
255
224
168
255
224
168
255
224
168
255
224
168
255
224
168
255
224
168
255
224
168
255
224
168
255
224
168
255
224
168
255
224
168
255
224
168
255
224
168
255
224
168
255
224
168
255
224
168
255
224
168
248
56
0
172
124
0
172
124
0
255
160
68
255
160
68
255
160
68
172
124
0
172
124
0
248
56
0
248
56
0
248
56
0
172
124
0
172
124
0
255
224
168
255
224
168
255
224
168
255
224
168
255
224
168
255
224
168
255
224
168
255
224
168
255
224
168
255
224
168
255
224
168
255
224
168
255
224
168
255
224
168
255
224
168
255
224
168
255
224
168
255
164
64
255
164
64
255
164
64
255
164
64
255
164
64
255
164
64
255
164
64
255
164
64
172
124
0
255
224
168
255
224
168
255
224
168
255
224
168
255
224
168
255
224
168
255
224
168
255
224
168
255
224
168
255
224
168
255
224
168
255
224
168
255
224
168
255
224
168
255
224
168
255
224
168
255
224
168
255
224
168
255
224
168
255
224
168
255
224
168
255
224
168
255
224
168
255
224
168
255
224
168
255
164
64
255
164
64
248
56
0
248
56
0
248
56
0
248
56
0
255
224
168
255
224
168
255
224
168
255
224
168
255
224
168
255
224
168
255
224
168
255
224
168
255
224
168
255
224
168
255
224
168
255
224
168
255
224
168
255
224
168
255
224
168
255
224
168
255
224
168
255
224
168
255
224
168
255
224
168
255
224
168
255
224
168
255
224
168
255
224
168
255
164
64
255
164
64
172
124
0
172
124
0
172
124
0
255
224
168
255
224
168
255
224
168
255
224
168
255
224
168
255
224
168
255
224
168
255
224
168
255
224
168
255
224
168
255
224
168
255
224
168
255
224
168
255
224
168
255
224
168
255
224
168
255
224
168
255
224
168
255
224
168
255
224
168
255
224
168
255
224
168
255
224
168
255
224
168
172
124
0
255
164
64
255
164
64
255
164
64
255
164
64
255
164
64
248
56
0
255
224
168
255
224
168
255
224
168
255
224
168
255
224
168
255
224
168
255
224
168
255
224
168
255
224
168
255
224
168
255
224
168
255
224
168
255
224
168
255
224
168
255
224
168
255
224
168
255
224
168
255
224
168
255
224
168
255
224
168
255
224
168
248
56
0
255
164
64
255
164
64
255
164
64
255
164
64
255
164
64
172
124
0
255
224
168
255
224
168
255
224
168
255
224
168
255
224
168
255
224
168
255
224
168
255
224
168
255
224
168
255
224
168
255
224
168
255
224
168
255
224
168
255
224
168
255
224
168
255
224
168
255
224
168
255
224
168
255
224
168
255
224
168
255
224
168
255
224
168
255
224
168
255
224
168
172
124
0
172
124
0
172
124
0
255
164
64
255
164
64
255
224
168
255
224
168
255
224
168
255
224
168
255
224
168
255
224
168
255
224
168
255
224
168
255
224
168
255
224
168
255
224
168
255
224
168
255
224
168
255
224
168
255
224
168
255
224
168
255
224
168
255
224
168
255
224
168
255
224
168
255
224
168
255
224
168
255
224
168
255
224
168
248
56
0
248
56
0
248
56
0
248
56
0
255
164
64
255
164
64
255
224
168
255
224
168
255
224
168
255
224
168
255
224
168
255
224
168
255
224
168
255
224
168
255
224
168
255
224
168
255
224
168
255
224
168
255
224
168
255
224
168
255
224
168
255
224
168
255
224
168
255
224
168
255
224
168
255
224
168
255
224
168
255
224
168
255
224
168
255
224
168
255
224
168
172
124
0
255
164
64
255
164
64
255
164
64
255
164
64
255
164
64
255
164
64
255
164
64
255
164
64
255
224
168
255
224
168
255
224
168
255
224
168
255
224
168
255
224
168
255
224
168
255
224
168
255
224
168
255
224
168
255
224
168
255
224
168
255
224
168
255
224
168
255
224
168
255
224
168
255
224
168
172
124
0
172
124
0
248
56
0
248
56
0
248
56
0
172
124
0
172
124
0
255
160
68
255
160
68
255
160
68
172
124
0
172
124
0
248
56
0
255
224
168
255
224
168
255
224
168
255
224
168
255
224
168
255
224
168
255
224
168
255
224
168
255
224
168
255
224
168
255
224
168
255
224
168
255
224
168
255
224
168
255
224
168
255
224
168
255
224
168
172
124
0
172
124
0
172
124
0
172
124
0
255
164
64
255
164
64
255
164
64
255
164
64
172
124
0
172
124
0
172
124
0
172
124
0
255
164
64
172
124
0
255
224
168
255
224
168
255
224
168
255
224
168
255
224
168
255
224
168
255
224
168
255
224
168
255
224
168
255
224
168
255
224
168
255
224
168
255
224
168
255
224
168
255
224
168
255
224
168
255
224
168
172
124
0
172
124
0
255
160
68
255
160
68
255
160
68
172
124
0
255
160
68
255
160
68
255
160
68
172
124
0
255
160
68
255
160
68
255
160
68
255
160
68
255
224
168
172
124
0
172
124
0
172
124
0
172
124
0
172
124
0
172
124
0
255
160
68
255
160
68
255
160
68
255
160
68
255
160
68
172
124
0
172
124
0
255
224
168
255
224
168
255
224
168
255
224
168
255
224
168
255
224
168
255
224
168
255
224
168
255
224
168
255
224
168
255
224
168
255
224
168
255
224
168
255
224
168
255
224
168
255
224
168
255
224
168
172
124
0
172
124
0
255
164
64
255
164
64
255
164
64
255
164
64
255
164
64
255
164
64
255
164
64
255
164
64
172
124
0
172
124
0
255
224
168
255
224
168
255
224
168
255
224
168
255
224
168
255
224
168
255
224
168
255
224
168
255
224
168
255
224
168
255
224
168
255
224
168
255
224
168
255
224
168
255
224
168
255
224
168
255
224
168
255
224
168
255
224
168
248
56
0
172
124
0
255
160
68
255
160
68
255
160
68
255
160
68
255
160
68
248
56
0
248
56
0
248
56
0
172
124
0
172
124
0
172
124
0
255
224
168
255
224
168
255
224
168
255
224
168
255
224
168
255
224
168
255
224
168
255
224
168
255
224
168
255
224
168
255
224
168
255
224
168
255
224
168
255
224
168
255
224
168
255
224
168
255
224
168
255
224
168
255
224
168
255
224
168
255
164
64
255
164
64
255
164
64
248
56
0
248
56
0
248
56
0
172
124
0
255
224
168
255
224
168
255
224
168
255
224
168
255
224
168
255
224
168
255
224
168
255
224
168
255
224
168
255
224
168
255
224
168
255
224
168
255
224
168
255
224
168
255
224
168
255
224
168
255
224
168
255
224
168
255
224
168
255
224
168
255
224
168
255
224
168
255
224
168
172
124
0
172
124
0
248
56
0
248
56
0
172
124
0
172
124
0
248
56
0
172
124
0
255
224
168
255
224
168
255
224
168
255
224
168
255
224
168
255
224
168
255
224
168
255
224
168
255
224
168
255
224
168
255
224
168
255
224
168
255
224
168
255
224
168
255
224
168
255
224
168
255
224
168
255
224
168
255
164
64
255
224
168
255
224
168
255
224
168
248
56
0
172
124
0
172
124
0
248
56
0
248
56
0
248
56
0
248
56
0
255
224
168
255
224
168
255
224
168
255
224
168
255
224
168
255
224
168
255
224
168
255
224
168
255
224
168
255
224
168
255
224
168
255
224
168
255
224
168
255
224
168
255
224
168
255
224
168
255
224
168
255
224
168
255
224
168
255
224
168
255
224
168
255
224
168
172
124
0
248
56
0
172
124
0
172
124
0
172
124
0
172
124
0
248
56
0
172
124
0
255
224
168
255
224
168
255
224
168
255
224
168
255
224
168
255
224
168
255
224
168
255
224
168
255
224
168
255
224
168
255
224
168
255
224
168
255
224
168
255
224
168
255
224
168
255
224
168
255
224
168
255
224
168
255
224
168
255
224
168
255
224
168
172
124
0
248
56
0
172
124
0
172
124
0
172
124
0
172
124
0
248
56
0
172
124
0
255
224
168
255
224
168
255
224
168
255
224
168
255
224
168
255
224
168
255
224
168
255
224
168
255
224
168
255
224
168
255
224
168
255
224
168
255
224
168
255
224
168
255
224
168
255
224
168
255
224
168
255
224
168
255
224
168
255
224
168
255
224
168
255
224
168
248
56
0
248
56
0
248
56
0
248
56
0
172
124
0
172
124
0
248
56
0
255
224
168
255
224
168
255
224
168
255
164
64
255
224
168
255
224
168
255
224
168
255
224
168
255
224
168
255
224
168
255
224
168
255
224
168
255
224
168
255
224
168
255
224
168
255
224
168
255
224
168
255
224
168
255
224
168
255
224
168
255
224
168
255
224
168
172
124
0
248
56
0
172
124
0
172
124
0
248
56
0
248
56
0
172
124
0
172
124
0
255
224
168
255
224
168
255
224
168
255
224
168
255
224
168
255
224
168
255
224
168
255
224
168
255
224
168
255
224
168
255
224
168
255
224
168
255
224
168
255
224
168
255
224
168
255
224
168
255
224
168
255
224
168
255
224
168
255
224
168
255
224
168
255
224
168
255
224
168
172
124
0
248
56
0
248
56
0
248
56
0
255
164
64
255
164
64
255
164
64
255
224
168
255
224
168
255
224
168
255
224
168
255
224
168
255
224
168
255
224
168
255
224
168
255
224
168
255
224
168
255
224
168
255
224
168
255
224
168
255
224
168
255
224
168
255
224
168
255
224
168
255
224
168
255
224
168
255
224
168
172
124
0
172
124
0
172
124
0
248
56
0
248
56
0
248
56
0
255
160
68
255
160
68
255
160
68
255
160
68
255
160
68
172
124
0
248
56
0
255
224
168
255
224
168
255
224
168
255
224
168
255
224
168
255
224
168
255
224
168
255
224
168
255
224
168
255
224
168
255
224
168
255
224
168
255
224
168
255
224
168
255
224
168
255
224
168
255
224
168
255
224
168
255
224
168
172
124
0
172
124
0
255
164
64
255
164
64
255
164
64
255
164
64
255
164
64
255
164
64
255
164
64
255
164
64
172
124
0
172
124
0
255
224
168
255
224
168
255
224
168
255
224
168
255
224
168
255
224
168
255
224
168
255
224
168
255
224
168
255
224
168
255
224
168
255
224
168
255
224
168
255
224
168
255
224
168
255
224
168
255
224
168
172
124
0
172
124
0
255
160
68
255
160
68
255
160
68
255
160
68
255
160
68
172
124
0
172
124
0
172
124
0
172
124
0
172
124
0
172
124
0
255
224
168
255
224
168
172
124
0
172
124
0
172
124
0
172
124
0
172
124
0
255
160
68
255
160
68
255
160
68
255
160
68
255
160
68
172
124
0
248
56
0
248
56
0
255
224
168
255
224
168
255
224
168
255
224
168
255
224
168
255
224
168
255
224
168
255
224
168
255
224
168
255
224
168
255
224
168
255
224
168
255
224
168
255
224
168
255
224
168
255
224
168
255
224
168
172
124
0
172
124
0
172
124
0
172
124
0
248
56
0
172
124
0
172
124
0
248
56
0
248
56
0
248
56
0
248
56
0
255
224
168
255
224
168
255
224
168
255
224
168
255
224
168
255
224
168
255
224
168
255
224
168
255
224
168
255
224
168
255
224
168
255
224
168
255
224
168
255
224
168
255
224
168
255
224
168
255
224
168
255
224
168
255
224
168
255
224
168
248
56
0
172
124
0
255
160
68
255
160
68
255
160
68
255
160
68
255
160
68
172
124
0
172
124
0
248
56
0
172
124
0
172
124
0
172
124
0
255
224
168
255
224
168
255
224
168
255
224
168
255
224
168
255
224
168
255
224
168
255
224
168
255
224
168
255
224
168
255
224
168
255
224
168
255
224
168
255
224
168
255
224
168
255
224
168
255
224
168
255
224
168
255
224
168
255
224
168
255
224
168
172
124
0
248
56
0
172
124
0
172
124
0
172
124
0
248
56
0
172
124
0
255
224
168
255
224
168
255
224
168
255
224
168
255
224
168
255
224
168
255
224
168
255
224
168
255
224
168
255
224
168
255
224
168
255
224
168
255
224
168
255
224
168
255
224
168
255
224
168
255
224
168
255
224
168
255
224
168
255
224
168
255
224
168
255
224
168
172
124
0
248
56
0
248
56
0
172
124
0
172
124
0
172
124
0
172
124
0
248
56
0
172
124
0
255
224
168
255
224
168
255
224
168
255
224
168
255
224
168
255
224
168
255
224
168
255
224
168
255
224
168
255
224
168
255
224
168
255
224
168
255
224
168
255
224
168
255
224
168
255
224
168
255
164
64
255
164
64
255
164
64
255
224
168
248
56
0
172
124
0
172
124
0
248
56
0
248
56
0
172
124
0
172
124
0
172
124
0
172
124
0
255
224
168
255
224
168
255
224
168
255
224
168
255
224
168
255
224
168
255
224
168
255
224
168
255
224
168
255
224
168
255
224
168
255
224
168
255
224
168
255
224
168
255
224
168
255
224
168
255
224
168
255
224
168
255
224
168
255
224
168
172
124
0
172
124
0
248
56
0
172
124
0
172
124
0
172
124
0
172
124
0
248
56
0
172
124
0
172
124
0
255
224
168
255
224
168
255
224
168
255
224
168
255
224
168
255
224
168
255
224
168
255
224
168
255
224
168
255
224
168
255
224
168
255
224
168
255
224
168
255
224
168
255
224
168
255
224
168
255
224
168
255
224
168
255
224
168
172
124
0
172
124
0
248
56
0
172
124
0
172
124
0
172
124
0
172
124
0
248
56
0
172
124
0
172
124
0
255
224
168
255
224
168
255
224
168
255
224
168
255
224
168
255
224
168
255
224
168
255
224
168
255
224
168
255
224
168
255
224
168
255
224
168
255
224
168
255
224
168
255
224
168
255
224
168
255
224
168
255
224
168
255
224
168
255
224
168
172
124
0
172
124
0
172
124
0
172
124
0
248
56
0
248
56
0
172
124
0
172
124
0
248
56
0
255
224
168
255
164
64
255
164
64
255
164
64
255
224
168
255
224
168
255
224
168
255
224
168
255
224
168
255
224
168
255
224
168
255
224
168
255
224
168
255
224
168
255
224
168
255
224
168
255
224
168
255
224
168
255
224
168
255
224
168
172
124
0
248
56
0
172
124
0
172
124
0
172
124
0
172
124
0
248
56
0
248
56
0
172
124
0
255
224
168
255
224
168
255
224
168
255
224
168
255
224
168
255
224
168
255
224
168
255
224
168
255
224
168
255
224
168
255
224
168
255
224
168
255
224
168
255
224
168
255
224
168
255
224
168
255
224
168
255
224
168
255
224
168
255
224
168
255
224
168
255
224
168
172
124
0
248
56
0
172
124
0
172
124
0
172
124
0
248
56
0
172
124
0
255
224
168
255
224
168
255
224
168
255
224
168
255
224
168
255
224
168
255
224
168
255
224
168
255
224
168
255
224
168
255
224
168
255
224
168
255
224
168
255
224
168
255
224
168
255
224
168
255
224
168
255
224
168
255
224
168
255
224
168
255
224
168
172
124
0
172
124
0
172
124
0
248
56
0
172
124
0
172
124
0
255
160
68
255
160
68
255
160
68
255
160
68
255
160
68
172
124
0
248
56
0
255
224
168
255
224
168
255
224
168
255
224
168
255
224
168
255
224
168
255
224
168
255
224
168
255
224
168
255
224
168
255
224
168
255
224
168
255
224
168
255
224
168
255
224
168
255
224
168
255
224
168
255
224
168
255
224
168
255
224
168
248
56
0
248
56
0
248
56
0
248
56
0
172
124
0
172
124
0
248
56
0
172
124
0
172
124
0
172
124
0
172
124
0
255
224
168
255
224
168
255
224
168
255
224
168
255
224
168
255
224
168
255
224
168
255
224
168
255
224
168
255
224
168
255
224
168
255
224
168
255
224
168
255
224
168
255
224
168
255
224
168
255
224
168
248
56
0
248
56
0
172
124
0
255
160
68
255
160
68
255
160
68
255
160
68
255
160
68
172
124
0
172
124
0
172
124
0
172
124
0
172
124
0
255
224
168
255
224
168
255
160
68
255
160
68
255
160
68
255
160
68
255
160
68
255
160
68
255
160
68
255
160
68
255
160
68
172
124
0
248
56
0
172
124
0
172
124
0
172
124
0
255
224
168
255
224
168
255
224
168
255
224
168
255
224
168
255
224
168
255
224
168
255
224
168
255
224
168
255
224
168
255
224
168
255
224
168
255
224
168
255
224
168
255
224
168
255
224
168
255
224
168
172
124
0
172
124
0
172
124
0
248
56
0
172
124
0
248
56
0
248
56
0
172
124
0
172
124
0
172
124
0
172
124
0
172
124
0
172
124
0
255
224
168
255
224
168
255
224
168
255
224
168
255
224
168
255
224
168
255
224
168
255
224
168
255
224
168
255
224
168
255
224
168
255
224
168
255
224
168
255
224
168
255
224
168
255
224
168
255
224
168
255
224
168
255
224
168
255
160
68
255
160
68
255
160
68
255
160
68
255
160
68
172
124
0
172
124
0
172
124
0
172
124
0
172
124
0
172
124
0
172
124
0
255
224
168
255
224
168
255
224
168
255
224
168
255
224
168
255
224
168
255
224
168
255
224
168
255
224
168
255
224
168
255
224
168
255
224
168
255
224
168
255
224
168
255
224
168
255
224
168
255
224
168
255
224
168
255
224
168
172
124
0
248
56
0
172
124
0
172
124
0
172
124
0
172
124
0
248
56
0
172
124
0
255
224
168
255
224
168
255
224
168
255
224
168
255
224
168
255
224
168
255
224
168
255
224
168
255
224
168
255
224
168
255
224
168
255
224
168
255
224
168
255
224
168
255
224
168
255
224
168
255
224
168
255
224
168
255
224
168
255
224
168
255
224
168
172
124
0
172
124
0
248
56
0
248
56
0
172
124
0
172
124
0
172
124
0
172
124
0
248
56
0
172
124
0
255
224
168
255
224
168
255
224
168
255
224
168
255
224
168
255
224
168
255
224
168
255
224
168
255
224
168
255
224
168
255
224
168
255
224
168
255
224
168
255
224
168
255
224
168
255
224
168
255
164
64
255
164
64
255
164
64
172
124
0
248
56
0
172
124
0
248
56
0
248
56
0
172
124
0
172
124
0
172
124
0
172
124
0
172
124
0
172
124
0
255
224
168
255
224
168
255
224
168
255
224
168
255
224
168
255
224
168
255
224
168
255
224
168
255
224
168
255
224
168
255
224
168
255
224
168
255
224
168
255
224
168
255
224
168
255
224
168
255
224
168
255
224
168
172
124
0
172
124
0
172
124
0
248
56
0
172
124
0
172
124
0
172
124
0
172
124
0
248
56
0
172
124
0
172
124
0
172
124
0
255
224
168
255
224
168
255
224
168
255
224
168
255
224
168
255
224
168
255
224
168
255
224
168
255
224
168
255
224
168
255
224
168
255
224
168
255
224
168
255
224
168
255
224
168
255
224
168
255
224
168
172
124
0
172
124
0
172
124
0
248
56
0
172
124
0
172
124
0
172
124
0
172
124
0
248
56
0
172
124
0
172
124
0
172
124
0
255
224
168
255
224
168
255
224
168
255
224
168
255
224
168
255
224
168
255
224
168
255
224
168
255
224
168
255
224
168
255
224
168
255
224
168
255
224
168
255
224
168
255
224
168
255
224
168
255
224
168
255
224
168
172
124
0
172
124
0
172
124
0
172
124
0
172
124
0
172
124
0
248
56
0
248
56
0
172
124
0
248
56
0
172
124
0
255
164
64
255
164
64
255
164
64
255
224
168
255
224
168
255
224
168
255
224
168
255
224
168
255
224
168
255
224
168
255
224
168
255
224
168
255
224
168
255
224
168
255
224
168
255
224
168
255
224
168
255
224
168
255
224
168
172
124
0
248
56
0
172
124
0
172
124
0
172
124
0
172
124
0
248
56
0
248
56
0
172
124
0
172
124
0
255
224
168
255
224
168
255
224
168
255
224
168
255
224
168
255
224
168
255
224
168
255
224
168
255
224
168
255
224
168
255
224
168
255
224
168
255
224
168
255
224
168
255
224
168
255
224
168
255
224
168
255
224
168
255
224
168
255
224
168
255
224
168
172
124
0
248
56
0
172
124
0
172
124
0
172
124
0
172
124
0
248
56
0
172
124
0
255
224
168
255
224
168
255
224
168
255
224
168
255
224
168
255
224
168
255
224
168
255
224
168
255
224
168
255
224
168
255
224
168
255
224
168
255
224
168
255
224
168
255
224
168
255
224
168
255
224
168
255
224
168
255
224
168
172
124
0
172
124
0
172
124
0
172
124
0
172
124
0
172
124
0
172
124
0
255
160
68
255
160
68
255
160
68
255
160
68
255
160
68
255
224
168
255
224
168
255
224
168
255
224
168
255
224
168
255
224
168
255
224
168
255
224
168
255
224
168
255
224
168
255
224
168
255
224
168
255
224
168
255
224
168
255
224
168
255
224
168
255
224
168
255
224
168
255
224
168
172
124
0
172
124
0
172
124
0
172
124
0
172
124
0
172
124
0
248
56
0
248
56
0
172
124
0
248
56
0
172
124
0
172
124
0
172
124
0
255
224
168
255
224
168
255
224
168
255
224
168
255
224
168
255
224
168
255
224
168
255
224
168
255
224
168
255
224
168
255
224
168
255
224
168
255
224
168
255
224
168
255
224
168
255
224
168
255
224
168
172
124
0
172
124
0
172
124
0
248
56
0
172
124
0
255
160
68
255
160
68
255
160
68
255
160
68
255
160
68
255
160
68
255
160
68
255
160
68
255
160
68
255
224
168
255
224
168
172
124
0
248
56
0
172
124
0
172
124
0
255
160
68
255
160
68
255
160
68
172
124
0
172
124
0
172
124
0
248
56
0
172
124
0
172
124
0
172
124
0
255
224
168
255
224
168
255
224
168
255
224
168
255
224
168
255
224
168
255
224
168
255
224
168
255
224
168
255
224
168
255
224
168
255
224
168
255
224
168
255
224
168
255
224
168
255
224
168
255
224
168
172
124
0
172
124
0
248
56
0
172
124
0
172
124
0
248
56
0
172
124
0
172
124
0
172
124
0
172
124
0
172
124
0
172
124
0
172
124
0
172
124
0
255
224
168
255
224
168
255
224
168
255
224
168
255
224
168
255
224
168
255
224
168
255
224
168
255
224
168
255
224
168
255
224
168
255
224
168
255
224
168
255
224
168
255
224
168
255
224
168
248
56
0
248
56
0
248
56
0
255
160
68
172
124
0
255
160
68
255
160
68
172
124
0
172
124
0
172
124
0
172
124
0
172
124
0
172
124
0
172
124
0
255
224
168
255
224
168
255
224
168
255
224
168
255
224
168
255
224
168
255
224
168
255
224
168
255
224
168
255
224
168
255
224
168
255
224
168
255
224
168
255
224
168
255
224
168
255
224
168
255
164
64
255
164
64
248
56
0
248
56
0
172
124
0
172
124
0
172
124
0
172
124
0
172
124
0
248
56
0
172
124
0
172
124
0
255
224
168
255
224
168
255
224
168
255
224
168
255
224
168
255
224
168
255
224
168
255
224
168
255
224
168
255
224
168
255
224
168
255
224
168
255
224
168
255
224
168
255
224
168
255
224
168
255
224
168
255
224
168
255
224
168
255
224
168
172
124
0
248
56
0
248
56
0
248
56
0
172
124
0
172
124
0
172
124
0
172
124
0
248
56
0
172
124
0
255
224
168
255
224
168
255
224
168
255
224
168
255
224
168
255
224
168
255
224
168
255
224
168
255
224
168
255
224
168
255
224
168
255
224
168
255
224
168
255
224
168
255
224
168
255
224
168
255
164
64
255
164
64
255
164
64
248
56
0
172
124
0
172
124
0
248
56
0
248
56
0
172
124
0
172
124
0
172
124
0
172
124
0
172
124
0
172
124
0
172
124
0
255
224
168
255
224
168
255
224
168
255
224
168
255
224
168
255
224
168
255
224
168
255
224
168
255
224
168
255
224
168
255
224
168
255
224
168
255
224
168
255
224
168
255
224
168
255
224
168
172
124
0
172
124
0
172
124
0
172
124
0
248
56
0
172
124
0
172
124
0
172
124
0
172
124
0
248
56
0
172
124
0
172
124
0
172
124
0
172
124
0
255
224
168
255
224
168
255
224
168
255
224
168
255
224
168
255
224
168
255
224
168
255
224
168
255
224
168
255
224
168
255
224
168
255
224
168
255
224
168
255
224
168
255
224
168
172
124
0
172
124
0
172
124
0
172
124
0
248
56
0
172
124
0
172
124
0
172
124
0
172
124
0
248
56
0
172
124
0
172
124
0
172
124
0
172
124
0
255
224
168
255
224
168
255
224
168
255
224
168
255
224
168
255
224
168
255
224
168
255
224
168
255
224
168
255
224
168
255
224
168
255
224
168
255
224
168
255
224
168
255
224
168
255
224
168
172
124
0
172
124
0
172
124
0
172
124
0
172
124
0
172
124
0
172
124
0
248
56
0
248
56
0
172
124
0
172
124
0
248
56
0
255
164
64
255
164
64
255
164
64
255
224
168
255
224
168
255
224
168
255
224
168
255
224
168
255
224
168
255
224
168
255
224
168
255
224
168
255
224
168
255
224
168
255
224
168
255
224
168
255
224
168
255
224
168
255
224
168
172
124
0
248
56
0
172
124
0
172
124
0
172
124
0
172
124
0
248
56
0
248
56
0
248
56
0
172
124
0
255
224
168
255
224
168
255
224
168
255
224
168
255
224
168
255
224
168
255
224
168
255
224
168
255
224
168
255
224
168
255
224
168
255
224
168
255
224
168
255
224
168
255
224
168
255
224
168
255
224
168
255
224
168
255
224
168
255
224
168
172
124
0
172
124
0
248
56
0
172
124
0
172
124
0
172
124
0
172
124
0
172
124
0
248
56
0
248
56
0
255
164
64
255
164
64
255
224
168
255
224
168
255
224
168
255
224
168
255
224
168
255
224
168
255
224
168
255
224
168
255
224
168
255
224
168
255
224
168
255
224
168
255
224
168
255
224
168
255
224
168
255
224
168
172
124
0
172
124
0
172
124
0
172
124
0
172
124
0
172
124
0
172
124
0
255
160
68
255
160
68
172
124
0
255
160
68
248
56
0
248
56
0
248
56
0
255
224
168
255
224
168
255
224
168
255
224
168
255
224
168
255
224
168
255
224
168
255
224
168
255
224
168
255
224
168
255
224
168
255
224
168
255
224
168
255
224
168
255
224
168
255
224
168
172
124
0
172
124
0
172
124
0
172
124
0
172
124
0
172
124
0
172
124
0
172
124
0
248
56
0
172
124
0
172
124
0
248
56
0
172
124
0
172
124
0
255
224
168
255
224
168
255
224
168
255
224
168
255
224
168
255
224
168
255
224
168
255
224
168
255
224
168
255
224
168
255
224
168
255
224
168
255
224
168
255
224
168
255
224
168
255
224
168
255
224
168
172
124
0
172
124
0
172
124
0
248
56
0
172
124
0
172
124
0
172
124
0
255
160
68
255
160
68
255
160
68
172
124
0
172
124
0
248
56
0
172
124
0
255
224
168
255
224
168
172
124
0
248
56
0
172
124
0
172
124
0
172
124
0
172
124
0
172
124
0
172
124
0
172
124
0
172
124
0
248
56
0
172
124
0
172
124
0
172
124
0
172
124
0
255
224
168
255
224
168
255
224
168
255
224
168
255
224
168
255
224
168
255
224
168
255
224
168
255
224
168
255
224
168
255
224
168
255
224
168
255
224
168
255
224
168
255
224
168
255
224
168
255
224
168
172
124
0
248
56
0
172
124
0
248
56
0
248
56
0
172
124
0
172
124
0
172
124
0
172
124
0
172
124
0
172
124
0
172
124
0
172
124
0
255
224
168
255
224
168
255
224
168
255
224
168
255
224
168
255
224
168
255
224
168
255
224
168
255
224
168
255
224
168
255
224
168
255
224
168
255
224
168
255
224
168
255
224
168
255
224
168
248
56
0
248
56
0
248
56
0
248
56
0
255
160
68
255
160
68
172
124
0
172
124
0
172
124
0
172
124
0
172
124
0
172
124
0
172
124
0
172
124
0
255
224
168
255
224
168
255
224
168
255
224
168
255
224
168
255
224
168
255
224
168
255
224
168
255
224
168
255
224
168
255
224
168
255
224
168
255
224
168
255
224
168
255
164
64
255
164
64
255
164
64
255
164
64
172
124
0
172
124
0
172
124
0
172
124
0
172
124
0
172
124
0
172
124
0
248
56
0
248
56
0
172
124
0
255
224
168
255
224
168
255
224
168
255
224
168
255
224
168
255
224
168
255
224
168
255
224
168
255
224
168
255
224
168
255
224
168
255
224
168
255
224
168
255
224
168
255
224
168
255
224
168
255
224
168
255
224
168
255
224
168
255
224
168
172
124
0
255
164
64
255
164
64
172
124
0
172
124
0
172
124
0
172
124
0
172
124
0
248
56
0
172
124
0
255
224
168
255
224
168
255
224
168
255
224
168
255
224
168
255
224
168
255
224
168
255
224
168
255
224
168
255
224
168
255
224
168
255
224
168
255
224
168
255
224
168
255
224
168
255
224
168
172
124
0
255
164
64
172
124
0
248
56
0
172
124
0
172
124
0
248
56
0
248
56
0
172
124
0
172
124
0
172
124
0
172
124
0
172
124
0
172
124
0
172
124
0
255
224
168
255
224
168
255
224
168
255
224
168
255
224
168
255
224
168
255
224
168
255
224
168
255
224
168
255
224
168
255
224
168
255
224
168
255
224
168
255
224
168
255
224
168
255
224
168
172
124
0
172
124
0
172
124
0
248
56
0
248
56
0
172
124
0
172
124
0
172
124
0
172
124
0
248
56
0
248
56
0
172
124
0
172
124
0
172
124
0
255
224
168
255
224
168
255
224
168
255
224
168
255
224
168
255
224
168
255
224
168
255
224
168
255
224
168
255
224
168
255
224
168
255
224
168
255
224
168
255
224
168
255
224
168
172
124
0
172
124
0
172
124
0
248
56
0
248
56
0
172
124
0
172
124
0
172
124
0
172
124
0
248
56
0
248
56
0
172
124
0
172
124
0
172
124
0
255
224
168
255
224
168
255
224
168
255
224
168
255
224
168
255
224
168
255
224
168
255
224
168
255
224
168
255
224
168
255
224
168
255
224
168
255
224
168
255
224
168
255
224
168
255
224
168
172
124
0
172
124
0
172
124
0
172
124
0
172
124
0
172
124
0
172
124
0
248
56
0
248
56
0
172
124
0
172
124
0
248
56
0
172
124
0
255
164
64
172
124
0
255
224
168
255
224
168
255
224
168
255
224
168
255
224
168
255
224
168
255
224
168
255
224
168
255
224
168
255
224
168
255
224
168
255
224
168
255
224
168
255
224
168
255
224
168
255
224
168
172
124
0
248
56
0
172
124
0
172
124
0
172
124
0
172
124
0
172
124
0
255
164
64
255
164
64
172
124
0
255
224
168
255
224
168
255
224
168
255
224
168
255
224
168
255
224
168
255
224
168
255
224
168
255
224
168
255
224
168
255
224
168
255
224
168
255
224
168
255
224
168
255
224
168
255
224
168
255
224
168
255
224
168
255
224
168
255
224
168
172
124
0
248
56
0
248
56
0
172
124
0
172
124
0
172
124
0
172
124
0
172
124
0
172
124
0
172
124
0
255
164
64
255
164
64
255
164
64
255
164
64
255
224
168
255
224
168
255
224
168
255
224
168
255
224
168
255
224
168
255
224
168
255
224
168
255
224
168
255
224
168
255
224
168
255
224
168
255
224
168
255
224
168
172
124
0
172
124
0
172
124
0
172
124
0
172
124
0
172
124
0
172
124
0
172
124
0
255
160
68
255
160
68
248
56
0
248
56
0
248
56
0
248
56
0
255
224
168
255
224
168
255
224
168
255
224
168
255
224
168
255
224
168
255
224
168
255
224
168
255
224
168
255
224
168
255
224
168
255
224
168
255
224
168
255
224
168
255
224
168
255
224
168
172
124
0
172
124
0
172
124
0
172
124
0
172
124
0
172
124
0
172
124
0
172
124
0
248
56
0
248
56
0
172
124
0
248
56
0
172
124
0
255
224
168
255
224
168
255
224
168
255
224
168
255
224
168
255
224
168
255
224
168
255
224
168
255
224
168
255
224
168
255
224
168
255
224
168
255
224
168
255
224
168
255
224
168
255
224
168
255
224
168
172
124
0
172
124
0
172
124
0
172
124
0
248
56
0
172
124
0
172
124
0
172
124
0
172
124
0
172
124
0
172
124
0
172
124
0
172
124
0
248
56
0
172
124
0
255
224
168
172
124
0
172
124
0
248
56
0
248
56
0
172
124
0
172
124
0
172
124
0
172
124
0
172
124
0
172
124
0
172
124
0
248
56
0
172
124
0
172
124
0
172
124
0
172
124
0
255
224
168
255
224
168
255
224
168
255
224
168
255
224
168
255
224
168
255
224
168
255
224
168
255
224
168
255
224
168
255
224
168
255
224
168
255
224
168
255
224
168
255
224
168
255
224
168
255
224
168
248
56
0
172
124
0
172
124
0
248
56
0
248
56
0
172
124
0
172
124
0
172
124
0
172
124
0
255
164
64
255
164
64
172
124
0
172
124
0
255
224
168
255
224
168
255
224
168
255
224
168
255
224
168
255
224
168
255
224
168
255
224
168
255
224
168
255
224
168
255
224
168
255
224
168
255
224
168
255
224
168
255
224
168
255
224
168
248
56
0
248
56
0
248
56
0
248
56
0
248
56
0
248
56
0
248
56
0
172
124
0
172
124
0
172
124
0
172
124
0
172
124
0
172
124
0
172
124
0
255
224
168
255
224
168
255
224
168
255
224
168
255
224
168
255
224
168
255
224
168
255
224
168
255
224
168
255
224
168
255
224
168
255
224
168
255
224
168
255
224
168
255
164
64
255
164
64
255
164
64
255
164
64
172
124
0
172
124
0
172
124
0
172
124
0
172
124
0
172
124
0
248
56
0
248
56
0
248
56
0
172
124
0
255
224
168
255
224
168
255
224
168
255
224
168
255
224
168
255
224
168
255
224
168
255
224
168
255
224
168
255
224
168
255
224
168
255
224
168
255
224
168
255
224
168
255
224
168
255
224
168
255
224
168
255
224
168
255
224
168
255
224
168
255
164
64
255
164
64
255
164
64
255
164
64
172
124
0
172
124
0
172
124
0
172
124
0
248
56
0
172
124
0
255
224
168
255
224
168
255
224
168
255
224
168
255
224
168
255
224
168
255
224
168
255
224
168
255
224
168
255
224
168
255
224
168
255
224
168
255
224
168
255
224
168
255
224
168
255
224
168
255
224
168
172
124
0
172
124
0
248
56
0
172
124
0
172
124
0
248
56
0
248
56
0
248
56
0
172
124
0
172
124
0
172
124
0
172
124
0
172
124
0
172
124
0
255
224
168
255
224
168
255
224
168
255
224
168
255
224
168
255
224
168
255
224
168
255
224
168
255
224
168
255
224
168
255
224
168
255
224
168
255
224
168
255
224
168
255
224
168
172
124
0
172
124
0
172
124
0
172
124
0
248
56
0
248
56
0
172
124
0
172
124
0
172
124
0
172
124
0
248
56
0
248
56
0
172
124
0
172
124
0
172
124
0
172
124
0
255
224
168
255
224
168
255
224
168
255
224
168
255
224
168
255
224
168
255
224
168
255
224
168
255
224
168
255
224
168
255
224
168
255
224
168
255
224
168
172
124
0
172
124
0
172
124
0
172
124
0
248
56
0
248
56
0
172
124
0
172
124
0
172
124
0
172
124
0
248
56
0
248
56
0
172
124
0
172
124
0
172
124
0
172
124
0
255
224
168
255
224
168
255
224
168
255
224
168
255
224
168
255
224
168
255
224
168
255
224
168
255
224
168
255
224
168
255
224
168
255
224
168
255
224
168
255
224
168
255
224
168
172
124
0
172
124
0
172
124
0
172
124
0
172
124
0
172
124
0
248
56
0
248
56
0
248
56
0
172
124
0
172
124
0
248
56
0
172
124
0
172
124
0
255
224
168
255
224
168
255
224
168
255
224
168
255
224
168
255
224
168
255
224
168
255
224
168
255
224
168
255
224
168
255
224
168
255
224
168
255
224
168
255
224
168
255
224
168
255
224
168
255
224
168
172
124
0
248
56
0
172
124
0
172
124
0
172
124
0
172
124
0
255
164
64
255
164
64
255
164
64
255
164
64
255
224
168
255
224
168
255
224
168
255
224
168
255
224
168
255
224
168
255
224
168
255
224
168
255
224
168
255
224
168
255
224
168
255
224
168
255
224
168
255
224
168
255
224
168
255
224
168
255
224
168
255
224
168
255
224
168
255
224
168
172
124
0
248
56
0
248
56
0
248
56
0
172
124
0
172
124
0
172
124
0
172
124
0
172
124
0
172
124
0
255
164
64
255
164
64
255
164
64
255
164
64
255
224
168
255
224
168
255
224
168
255
224
168
255
224
168
255
224
168
255
224
168
255
224
168
255
224
168
255
224
168
255
224
168
255
224
168
255
224
168
255
224
168
172
124
0
172
124
0
172
124
0
172
124
0
172
124
0
172
124
0
172
124
0
248
56
0
248
56
0
248
56
0
248
56
0
248
56
0
248
56
0
248
56
0
255
224
168
255
224
168
255
224
168
255
224
168
255
224
168
255
224
168
255
224
168
255
224
168
255
224
168
255
224
168
255
224
168
255
224
168
255
224
168
255
224
168
255
224
168
255
224
168
172
124
0
172
124
0
255
164
64
255
164
64
172
124
0
172
124
0
172
124
0
172
124
0
248
56
0
248
56
0
172
124
0
172
124
0
248
56
0
255
224
168
255
224
168
255
224
168
255
224
168
255
224
168
255
224
168
255
224
168
255
224
168
255
224
168
255
224
168
255
224
168
255
224
168
255
224
168
255
224
168
255
224
168
255
224
168
255
224
168
172
124
0
172
124
0
172
124
0
172
124
0
248
56
0
172
124
0
172
124
0
172
124
0
172
124
0
172
124
0
172
124
0
172
124
0
248
56
0
248
56
0
172
124
0
172
124
0
172
124
0
172
124
0
172
124
0
248
56
0
248
56
0
172
124
0
172
124
0
172
124
0
172
124
0
172
124
0
255
160
68
248
56
0
172
124
0
172
124
0
172
124
0
172
124
0
255
224
168
255
224
168
255
224
168
255
224
168
255
224
168
255
224
168
255
224
168
255
224
168
255
224
168
255
224
168
255
224
168
255
224
168
255
224
168
255
224
168
255
224
168
255
224
168
255
224
168
255
164
64
172
124
0
248
56
0
248
56
0
248
56
0
248
56
0
172
124
0
172
124
0
255
164
64
255
164
64
255
164
64
255
164
64
172
124
0
255
224
168
255
224
168
255
224
168
255
224
168
255
224
168
255
224
168
255
224
168
255
224
168
255
224
168
255
224
168
255
224
168
255
224
168
255
224
168
255
224
168
255
224
168
255
224
168
255
224
168
248
56
0
248
56
0
248
56
0
248
56
0
248
56
0
248
56
0
248
56
0
172
124
0
172
124
0
172
124
0
172
124
0
172
124
0
172
124
0
255
224
168
255
224
168
255
224
168
255
224
168
255
224
168
255
224
168
255
224
168
255
224
168
255
224
168
255
224
168
255
224
168
255
224
168
255
224
168
255
224
168
255
164
64
255
164
64
255
164
64
172
124
0
172
124
0
172
124
0
172
124
0
172
124
0
172
124
0
172
124
0
248
56
0
248
56
0
248
56
0
255
224
168
255
224
168
255
224
168
255
224
168
255
224
168
255
224
168
255
224
168
255
224
168
255
224
168
255
224
168
255
224
168
255
224
168
255
224
168
255
224
168
255
224
168
255
224
168
255
224
168
255
224
168
255
224
168
255
224
168
248
56
0
255
164
64
255
164
64
255
164
64
255
164
64
172
124
0
172
124
0
172
124
0
172
124
0
248
56
0
248
56
0
255
224
168
255
224
168
255
224
168
255
224
168
255
224
168
255
224
168
255
224
168
255
224
168
255
224
168
255
224
168
255
224
168
255
224
168
255
224
168
255
224
168
255
224
168
255
224
168
255
224
168
255
224
168
172
124
0
255
164
64
172
124
0
248
56
0
255
164
64
248
56
0
248
56
0
248
56
0
172
124
0
172
124
0
172
124
0
172
124
0
172
124
0
172
124
0
255
224
168
255
224
168
255
224
168
255
224
168
255
224
168
255
224
168
255
224
168
255
224
168
255
224
168
255
224
168
255
224
168
255
224
168
255
224
168
255
224
168
172
124
0
172
124
0
172
124
0
172
124
0
248
56
0
248
56
0
248
56
0
248
56
0
248
56
0
248
56
0
248
56
0
248
56
0
172
124
0
172
124
0
172
124
0
172
124
0
255
224
168
255
224
168
255
224
168
255
224
168
255
224
168
255
224
168
255
224
168
255
224
168
255
224
168
255
224
168
255
224
168
255
224
168
255
224
168
172
124
0
172
124
0
172
124
0
172
124
0
248
56
0
248
56
0
248
56
0
248
56
0
248
56
0
248
56
0
248
56
0
248
56
0
172
124
0
172
124
0
172
124
0
172
124
0
255
224
168
255
224
168
255
224
168
255
224
168
255
224
168
255
224
168
255
224
168
255
224
168
255
224
168
255
224
168
255
224
168
255
224
168
255
224
168
255
224
168
172
124
0
172
124
0
172
124
0
172
124
0
172
124
0
172
124
0
248
56
0
248
56
0
248
56
0
255
164
64
248
56
0
172
124
0
255
164
64
172
124
0
255
224
168
255
224
168
255
224
168
255
224
168
255
224
168
255
224
168
255
224
168
255
224
168
255
224
168
255
224
168
255
224
168
255
224
168
255
224
168
255
224
168
255
224
168
255
224
168
255
224
168
255
224
168
248
56
0
248
56
0
172
124
0
172
124
0
172
124
0
172
124
0
255
164
64
255
164
64
255
164
64
255
164
64
248
56
0
255
224
168
255
224
168
255
224
168
255
224
168
255
224
168
255
224
168
255
224
168
255
224
168
255
224
168
255
224
168
255
224
168
255
224
168
255
224
168
255
224
168
255
224
168
255
224
168
255
224
168
255
224
168
255
224
168
255
224
168
248
56
0
248
56
0
248
56
0
172
124
0
172
124
0
172
124
0
172
124
0
172
124
0
172
124
0
172
124
0
255
164
64
255
164
64
255
164
64
255
224
168
255
224
168
255
224
168
255
224
168
255
224
168
255
224
168
255
224
168
255
224
168
255
224
168
255
224
168
255
224
168
255
224
168
255
224
168
255
224
168
172
124
0
172
124
0
172
124
0
172
124
0
172
124
0
172
124
0
248
56
0
248
56
0
248
56
0
248
56
0
248
56
0
248
56
0
248
56
0
255
224
168
255
224
168
255
224
168
255
224
168
255
224
168
255
224
168
255
224
168
255
224
168
255
224
168
255
224
168
255
224
168
255
224
168
255
224
168
255
224
168
255
224
168
255
224
168
255
224
168
172
124
0
255
164
64
255
164
64
255
164
64
255
164
64
172
124
0
172
124
0
248
56
0
248
56
0
248
56
0
248
56
0
172
124
0
255
164
64
255
224
168
255
224
168
255
224
168
255
224
168
255
224
168
255
224
168
255
224
168
255
224
168
255
224
168
255
224
168
255
224
168
255
224
168
255
224
168
255
224
168
255
224
168
255
224
168
255
224
168
172
124
0
172
124
0
172
124
0
172
124
0
248
56
0
255
160
68
172
124
0
172
124
0
172
124
0
172
124
0
172
124
0
248
56
0
248
56
0
172
124
0
172
124
0
172
124
0
172
124
0
172
124
0
172
124
0
172
124
0
248
56
0
248
56
0
248
56
0
248
56
0
248
56
0
248
56
0
248
56
0
248
56
0
172
124
0
172
124
0
172
124
0
172
124
0
255
224
168
255
224
168
255
224
168
255
224
168
255
224
168
255
224
168
255
224
168
255
224
168
255
224
168
255
224
168
255
224
168
255
224
168
255
224
168
255
224
168
255
224
168
255
224
168
255
224
168
248
56
0
248
56
0
248
56
0
255
164
64
248
56
0
248
56
0
248
56
0
172
124
0
255
164
64
255
164
64
255
164
64
255
164
64
255
164
64
255
224
168
255
224
168
255
224
168
255
224
168
255
224
168
255
224
168
255
224
168
255
224
168
255
224
168
255
224
168
255
224
168
255
224
168
255
224
168
255
224
168
255
224
168
255
224
168
255
224
168
255
224
168
172
124
0
172
124
0
172
124
0
248
56
0
248
56
0
248
56
0
248
56
0
248
56
0
172
124
0
172
124
0
172
124
0
255
224
168
255
224
168
255
224
168
255
224
168
255
224
168
255
224
168
255
224
168
255
224
168
255
224
168
255
224
168
255
224
168
255
224
168
255
224
168
255
224
168
255
224
168
255
164
64
255
164
64
255
164
64
172
124
0
172
124
0
172
124
0
172
124
0
172
124
0
172
124
0
248
56
0
248
56
0
248
56
0
248
56
0
255
224
168
255
224
168
255
224
168
255
224
168
255
224
168
255
224
168
255
224
168
255
224
168
255
224
168
255
224
168
255
224
168
255
224
168
255
224
168
255
224
168
255
224
168
255
224
168
255
224
168
255
224
168
255
224
168
248
56
0
248
56
0
255
164
64
255
164
64
255
164
64
255
164
64
172
124
0
172
124
0
172
124
0
248
56
0
248
56
0
248
56
0
255
224
168
255
224
168
255
224
168
255
224
168
255
224
168
255
224
168
255
224
168
255
224
168
255
224
168
255
224
168
255
224
168
255
224
168
255
224
168
255
224
168
255
224
168
255
224
168
255
224
168
255
224
168
255
224
168
248
56
0
248
56
0
248
56
0
248
56
0
248
56
0
248
56
0
248
56
0
248
56
0
248
56
0
172
124
0
172
124
0
172
124
0
172
124
0
255
224
168
255
224
168
255
224
168
255
224
168
255
224
168
255
224
168
255
224
168
255
224
168
255
224
168
255
224
168
255
224
168
255
224
168
255
224
168
255
224
168
172
124
0
172
124
0
172
124
0
172
124
0
248
56
0
255
164
64
248
56
0
248
56
0
248
56
0
248
56
0
255
164
64
248
56
0
172
124
0
172
124
0
172
124
0
172
124
0
255
224
168
255
224
168
255
224
168
255
224
168
255
224
168
255
224
168
255
224
168
255
224
168
255
224
168
255
224
168
255
224
168
255
224
168
255
224
168
172
124
0
172
124
0
172
124
0
172
124
0
248
56
0
255
164
64
248
56
0
248
56
0
248
56
0
248
56
0
255
164
64
248
56
0
172
124
0
172
124
0
172
124
0
172
124
0
255
224
168
255
224
168
255
224
168
255
224
168
255
224
168
255
224
168
255
224
168
255
224
168
255
224
168
255
224
168
255
224
168
255
224
168
255
224
168
255
224
168
172
124
0
172
124
0
172
124
0
172
124
0
248
56
0
248
56
0
248
56
0
248
56
0
248
56
0
248
56
0
248
56
0
248
56
0
248
56
0
255
224
168
255
224
168
255
224
168
255
224
168
255
224
168
255
224
168
255
224
168
255
224
168
255
224
168
255
224
168
255
224
168
255
224
168
255
224
168
255
224
168
255
224
168
255
224
168
255
224
168
255
224
168
255
224
168
248
56
0
248
56
0
248
56
0
172
124
0
172
124
0
172
124
0
255
164
64
255
164
64
255
164
64
255
164
64
248
56
0
248
56
0
255
224
168
255
224
168
255
224
168
255
224
168
255
224
168
255
224
168
255
224
168
255
224
168
255
224
168
255
224
168
255
224
168
255
224
168
255
224
168
255
224
168
255
224
168
255
224
168
255
224
168
255
224
168
255
224
168
248
56
0
248
56
0
248
56
0
248
56
0
172
124
0
172
124
0
172
124
0
172
124
0
172
124
0
172
124
0
255
164
64
255
164
64
255
164
64
255
224
168
255
224
168
255
224
168
255
224
168
255
224
168
255
224
168
255
224
168
255
224
168
255
224
168
255
224
168
255
224
168
255
224
168
255
224
168
255
224
168
255
224
168
172
124
0
172
124
0
172
124
0
248
56
0
248
56
0
248
56
0
248
56
0
248
56
0
172
124
0
172
124
0
172
124
0
255
224
168
255
224
168
255
224
168
255
224
168
255
224
168
255
224
168
255
224
168
255
224
168
255
224
168
255
224
168
255
224
168
255
224
168
255
224
168
255
224
168
255
224
168
255
224
168
255
224
168
255
224
168
255
164
64
255
164
64
255
164
64
255
164
64
255
164
64
172
124
0
248
56
0
248
56
0
248
56
0
255
164
64
248
56
0
248
56
0
248
56
0
255
224
168
255
224
168
255
224
168
255
224
168
255
224
168
255
224
168
255
224
168
255
224
168
255
224
168
255
224
168
255
224
168
255
224
168
255
224
168
255
224
168
255
224
168
255
224
168
255
224
168
172
124
0
172
124
0
172
124
0
172
124
0
248
56
0
248
56
0
248
56
0
248
56
0
248
56
0
248
56
0
248
56
0
248
56
0
172
124
0
172
124
0
172
124
0
172
124
0
172
124
0
172
124
0
172
124
0
172
124
0
172
124
0
248
56
0
248
56
0
248
56
0
248
56
0
248
56
0
248
56
0
172
124
0
172
124
0
172
124
0
172
124
0
172
124
0
255
224
168
255
224
168
255
224
168
255
224
168
255
224
168
255
224
168
255
224
168
255
224
168
255
224
168
255
224
168
255
224
168
255
224
168
255
224
168
255
224
168
255
224
168
255
224
168
255
224
168
248
56
0
248
56
0
248
56
0
248
56
0
248
56
0
248
56
0
248
56
0
248
56
0
255
164
64
255
164
64
255
164
64
255
164
64
255
164
64
255
224
168
255
224
168
255
224
168
255
224
168
255
224
168
255
224
168
255
224
168
255
224
168
255
224
168
255
224
168
255
224
168
255
224
168
255
224
168
255
224
168
255
224
168
255
224
168
255
224
168
255
224
168
255
224
168
172
124
0
172
124
0
172
124
0
172
124
0
172
124
0
248
56
0
248
56
0
248
56
0
248
56
0
248
56
0
255
224
168
255
224
168
255
224
168
255
224
168
255
224
168
255
224
168
255
224
168
255
224
168
255
224
168
255
224
168
255
224
168
255
224
168
255
224
168
255
224
168
255
224
168
255
224
168
255
224
168
255
224
168
248
56
0
172
124
0
172
124
0
172
124
0
248
56
0
248
56
0
248
56
0
248
56
0
248
56
0
248
56
0
255
224
168
255
224
168
255
224
168
255
224
168
255
224
168
255
224
168
255
224
168
255
224
168
255
224
168
255
224
168
255
224
168
255
224
168
255
224
168
255
224
168
255
224
168
255
224
168
255
224
168
255
224
168
255
224
168
248
56
0
248
56
0
248
56
0
255
164
64
255
164
64
255
164
64
172
124
0
172
124
0
248
56
0
248
56
0
248
56
0
248
56
0
255
224
168
255
224
168
255
224
168
255
224
168
255
224
168
255
224
168
255
224
168
255
224
168
255
224
168
255
224
168
255
224
168
255
224
168
255
224
168
255
224
168
255
224
168
255
224
168
255
224
168
255
224
168
255
224
168
248
56
0
248
56
0
248
56
0
248
56
0
248
56
0
248
56
0
248
56
0
248
56
0
255
164
64
255
164
64
255
164
64
255
164
64
255
164
64
255
224
168
255
224
168
255
224
168
255
224
168
255
224
168
255
224
168
255
224
168
255
224
168
255
224
168
255
224
168
255
224
168
255
224
168
255
224
168
255
224
168
255
164
64
255
164
64
255
164
64
255
164
64
248
56
0
248
56
0
248
56
0
248
56
0
248
56
0
248
56
0
248
56
0
248
56
0
255
164
64
255
164
64
255
164
64
255
164
64
255
224
168
255
224
168
255
224
168
255
224
168
255
224
168
255
224
168
255
224
168
255
224
168
255
224
168
255
224
168
255
224
168
255
224
168
255
224
168
255
164
64
255
164
64
255
164
64
255
164
64
248
56
0
248
56
0
248
56
0
248
56
0
248
56
0
248
56
0
248
56
0
248
56
0
255
164
64
255
164
64
255
164
64
255
164
64
255
224
168
255
224
168
255
224
168
255
224
168
255
224
168
255
224
168
255
224
168
255
224
168
255
224
168
255
224
168
255
224
168
255
224
168
255
224
168
255
224
168
255
164
64
255
164
64
255
164
64
255
164
64
255
164
64
248
56
0
248
56
0
248
56
0
248
56
0
248
56
0
248
56
0
248
56
0
248
56
0
255
224
168
255
224
168
255
224
168
255
224
168
255
224
168
255
224
168
255
224
168
255
224
168
255
224
168
255
224
168
255
224
168
255
224
168
255
224
168
255
224
168
255
224
168
255
224
168
255
224
168
255
224
168
255
224
168
248
56
0
248
56
0
248
56
0
248
56
0
172
124
0
172
124
0
255
164
64
255
164
64
255
164
64
248
56
0
248
56
0
248
56
0
255
224
168
255
224
168
255
224
168
255
224
168
255
224
168
255
224
168
255
224
168
255
224
168
255
224
168
255
224
168
255
224
168
255
224
168
255
224
168
255
224
168
255
224
168
255
224
168
255
224
168
255
224
168
255
224
168
248
56
0
248
56
0
248
56
0
248
56
0
248
56
0
248
56
0
172
124
0
172
124
0
172
124
0
248
56
0
255
224
168
255
224
168
255
224
168
255
224
168
255
224
168
255
224
168
255
224
168
255
224
168
255
224
168
255
224
168
255
224
168
255
224
168
255
224
168
255
224
168
255
224
168
255
224
168
255
224
168
255
224
168
248
56
0
248
56
0
248
56
0
248
56
0
248
56
0
172
124
0
172
124
0
172
124
0
172
124
0
172
124
0
255
224
168
255
224
168
255
224
168
255
224
168
255
224
168
255
224
168
255
224
168
255
224
168
255
224
168
255
224
168
255
224
168
255
224
168
255
224
168
255
224
168
255
224
168
255
224
168
255
224
168
255
224
168
255
224
168
255
164
64
255
164
64
255
164
64
255
164
64
255
164
64
248
56
0
248
56
0
248
56
0
248
56
0
248
56
0
248
56
0
248
56
0
248
56
0
255
224
168
255
224
168
255
224
168
255
224
168
255
224
168
255
224
168
255
224
168
255
224
168
255
224
168
255
224
168
255
224
168
255
224
168
255
224
168
255
224
168
255
224
168
255
224
168
255
224
168
172
124
0
172
124
0
172
124
0
172
124
0
172
124
0
248
56
0
248
56
0
248
56
0
248
56
0
248
56
0
248
56
0
172
124
0
172
124
0
172
124
0
172
124
0
172
124
0
172
124
0
172
124
0
172
124
0
255
160
68
255
160
68
255
160
68
248
56
0
248
56
0
248
56
0
248
56
0
255
160
68
255
160
68
255
160
68
172
124
0
172
124
0
172
124
0
255
224
168
255
224
168
255
224
168
255
224
168
255
224
168
255
224
168
255
224
168
255
224
168
255
224
168
255
224
168
255
224
168
255
224
168
255
224
168
255
224
168
172
124
0
255
224
168
255
224
168
248
56
0
248
56
0
248
56
0
248
56
0
248
56
0
248
56
0
248
56
0
248
56
0
248
56
0
255
164
64
255
164
64
255
224
168
255
164
64
255
224
168
255
224
168
255
224
168
255
224
168
255
224
168
255
224
168
255
224
168
255
224
168
255
224
168
255
224
168
255
224
168
255
224
168
255
224
168
255
224
168
255
224
168
255
224
168
172
124
0
172
124
0
172
124
0
172
124
0
172
124
0
172
124
0
172
124
0
172
124
0
248
56
0
248
56
0
248
56
0
248
56
0
248
56
0
255
224
168
255
224
168
255
224
168
255
224
168
255
224
168
255
224
168
255
224
168
255
224
168
255
224
168
255
224
168
255
224
168
255
224
168
255
224
168
255
224
168
255
224
168
255
224
168
255
224
168
255
224
168
248
56
0
248
56
0
248
56
0
248
56
0
248
56
0
248
56
0
248
56
0
248
56
0
248
56
0
248
56
0
255
224
168
255
224
168
255
224
168
255
224
168
255
224
168
255
224
168
255
224
168
255
224
168
255
224
168
255
224
168
255
224
168
255
224
168
255
224
168
255
224
168
255
224
168
255
224
168
255
224
168
255
224
168
255
224
168
248
56
0
248
56
0
248
56
0
248
56
0
172
124
0
172
124
0
248
56
0
248
56
0
248
56
0
248
56
0
248
56
0
248
56
0
255
224
168
255
224
168
255
224
168
255
224
168
255
224
168
255
224
168
255
224
168
255
224
168
255
224
168
255
224
168
255
224
168
255
224
168
255
224
168
255
224
168
255
224
168
255
224
168
172
124
0
255
224
168
255
224
168
248
56
0
248
56
0
248
56
0
248
56
0
248
56
0
248
56
0
248
56
0
248
56
0
255
164
64
255
164
64
255
164
64
255
164
64
255
164
64
255
224
168
255
224
168
255
224
168
255
224
168
255
224
168
255
224
168
255
224
168
255
224
168
255
224
168
255
224
168
255
224
168
255
224
168
255
224
168
255
224
168
255
164
64
255
164
64
255
164
64
255
164
64
248
56
0
248
56
0
248
56
0
248
56
0
248
56
0
248
56
0
248
56
0
248
56
0
255
164
64
255
164
64
255
164
64
255
164
64
255
224
168
255
224
168
255
224
168
255
224
168
255
224
168
255
224
168
255
224
168
255
224
168
255
224
168
255
224
168
255
224
168
255
224
168
255
224
168
255
164
64
255
164
64
255
164
64
255
164
64
248
56
0
248
56
0
248
56
0
248
56
0
248
56
0
248
56
0
248
56
0
248
56
0
255
164
64
255
164
64
255
164
64
255
164
64
255
224
168
255
224
168
255
224
168
255
224
168
255
224
168
255
224
168
255
224
168
255
224
168
255
224
168
255
224
168
255
224
168
255
224
168
255
224
168
255
224
168
255
164
64
255
164
64
255
164
64
255
164
64
255
164
64
248
56
0
248
56
0
248
56
0
248
56
0
248
56
0
248
56
0
248
56
0
248
56
0
255
224
168
255
224
168
172
124
0
255
224
168
255
224
168
255
224
168
255
224
168
255
224
168
255
224
168
255
224
168
255
224
168
255
224
168
255
224
168
255
224
168
255
224
168
255
224
168
255
224
168
255
224
168
255
224
168
248
56
0
248
56
0
248
56
0
248
56
0
248
56
0
248
56
0
172
124
0
172
124
0
248
56
0
248
56
0
248
56
0
248
56
0
255
224
168
255
224
168
255
224
168
255
224
168
255
224
168
255
224
168
255
224
168
255
224
168
255
224
168
255
224
168
255
224
168
255
224
168
255
224
168
255
224
168
255
224
168
255
224
168
255
224
168
255
224
168
255
224
168
248
56
0
248
56
0
248
56
0
248
56
0
248
56
0
248
56
0
248
56
0
248
56
0
248
56
0
248
56
0
255
224
168
255
224
168
255
224
168
255
224
168
255
224
168
255
224
168
255
224
168
255
224
168
255
224
168
255
224
168
255
224
168
255
224
168
255
224
168
255
224
168
255
224
168
255
224
168
255
224
168
255
224
168
248
56
0
248
56
0
248
56
0
248
56
0
248
56
0
172
124
0
172
124
0
172
124
0
172
124
0
172
124
0
172
124
0
172
124
0
172
124
0
255
224
168
255
224
168
255
224
168
255
224
168
255
224
168
255
224
168
255
224
168
255
224
168
255
224
168
255
224
168
255
224
168
255
224
168
255
224
168
255
224
168
255
224
168
255
224
168
255
164
64
255
224
168
255
164
64
255
164
64
248
56
0
248
56
0
248
56
0
248
56
0
248
56
0
248
56
0
248
56
0
248
56
0
248
56
0
255
224
168
255
224
168
172
124
0
255
224
168
255
224
168
255
224
168
255
224
168
255
224
168
255
224
168
255
224
168
255
224
168
255
224
168
255
224
168
255
224
168
255
224
168
255
224
168
255
224
168
172
124
0
172
124
0
172
124
0
255
160
68
255
160
68
255
160
68
248
56
0
248
56
0
248
56
0
248
56
0
255
160
68
255
160
68
255
160
68
172
124
0
172
124
0
172
124
0
248
56
0
172
124
0
255
160
68
255
160
68
255
160
68
255
160
68
248
56
0
248
56
0
248
56
0
248
56
0
255
160
68
255
160
68
255
160
68
255
160
68
172
124
0
248
56
0
255
224
168
255
224
168
255
224
168
255
224
168
255
224
168
255
224
168
255
224
168
255
224
168
255
224
168
255
224
168
255
224
168
255
224
168
255
224
168
255
224
168
172
124
0
172
124
0
255
224
168
248
56
0
248
56
0
248
56
0
248
56
0
248
56
0
248
56
0
248
56
0
248
56
0
248
56
0
248
56
0
255
164
64
255
164
64
255
224
168
255
224
168
255
224
168
255
224
168
255
224
168
255
224
168
255
224
168
255
224
168
255
224
168
255
224
168
255
224
168
255
224
168
255
224
168
255
224
168
255
224
168
255
224
168
255
224
168
172
124
0
255
160
68
255
160
68
255
160
68
255
160
68
172
124
0
172
124
0
172
124
0
172
124
0
248
56
0
248
56
0
248
56
0
255
224
168
255
224
168
255
224
168
255
224
168
255
224
168
255
224
168
255
224
168
255
224
168
255
224
168
255
224
168
255
224
168
255
224
168
255
224
168
255
224
168
255
224
168
255
224
168
255
224
168
255
224
168
255
224
168
172
124
0
248
56
0
248
56
0
248
56
0
248
56
0
248
56
0
248
56
0
248
56
0
248
56
0
248
56
0
255
224
168
255
224
168
255
224
168
255
224
168
255
224
168
255
224
168
255
224
168
255
224
168
255
224
168
255
224
168
255
224
168
255
224
168
255
224
168
255
224
168
255
224
168
255
224
168
255
224
168
255
224
168
255
224
168
255
224
168
248
56
0
248
56
0
172
124
0
172
124
0
172
124
0
248
56
0
248
56
0
248
56
0
248
56
0
248
56
0
255
224
168
255
224
168
255
224
168
255
224
168
255
224
168
255
224
168
255
224
168
255
224
168
255
224
168
255
224
168
255
224
168
255
224
168
255
224
168
255
224
168
255
224
168
255
224
168
255
224
168
172
124
0
172
124
0
255
224
168
248
56
0
248
56
0
248
56
0
248
56
0
248
56
0
248
56
0
248
56
0
248
56
0
248
56
0
255
164
64
255
164
64
255
164
64
255
164
64
255
224
168
255
224
168
255
224
168
255
224
168
255
224
168
255
224
168
255
224
168
255
224
168
255
224
168
255
224
168
255
224
168
255
224
168
255
224
168
255
224
168
255
224
168
255
164
64
255
164
64
255
164
64
248
56
0
248
56
0
248
56
0
248
56
0
248
56
0
248
56
0
248
56
0
248
56
0
255
164
64
255
164
64
255
164
64
255
224
168
255
224
168
255
224
168
255
224
168
255
224
168
255
224
168
255
224
168
255
224
168
255
224
168
255
224
168
255
224
168
255
224
168
255
224
168
255
224
168
255
224
168
255
164
64
255
164
64
255
164
64
248
56
0
248
56
0
248
56
0
248
56
0
248
56
0
248
56
0
248
56
0
248
56
0
255
164
64
255
164
64
255
164
64
255
224
168
255
224
168
255
224
168
255
224
168
255
224
168
255
224
168
255
224
168
255
224
168
255
224
168
255
224
168
255
224
168
255
224
168
255
224
168
255
224
168
255
224
168
255
164
64
255
164
64
255
164
64
255
164
64
248
56
0
248
56
0
248
56
0
248
56
0
248
56
0
248
56
0
248
56
0
248
56
0
248
56
0
255
224
168
172
124
0
172
124
0
255
224
168
255
224
168
255
224
168
255
224
168
255
224
168
255
224
168
255
224
168
255
224
168
255
224
168
255
224
168
255
224
168
255
224
168
255
224
168
255
224
168
255
224
168
255
224
168
255
224
168
248
56
0
248
56
0
248
56
0
248
56
0
248
56
0
172
124
0
172
124
0
172
124
0
248
56
0
248
56
0
255
224
168
255
224
168
255
224
168
255
224
168
255
224
168
255
224
168
255
224
168
255
224
168
255
224
168
255
224
168
255
224
168
255
224
168
255
224
168
255
224
168
255
224
168
255
224
168
255
224
168
255
224
168
255
224
168
255
224
168
248
56
0
248
56
0
248
56
0
248
56
0
248
56
0
248
56
0
248
56
0
248
56
0
248
56
0
172
124
0
255
224
168
255
224
168
255
224
168
255
224
168
255
224
168
255
224
168
255
224
168
255
224
168
255
224
168
255
224
168
255
224
168
255
224
168
255
224
168
255
224
168
255
224
168
255
224
168
255
224
168
255
224
168
255
224
168
248
56
0
248
56
0
248
56
0
172
124
0
172
124
0
172
124
0
172
124
0
255
160
68
255
160
68
255
160
68
255
160
68
172
124
0
255
224
168
255
224
168
255
224
168
255
224
168
255
224
168
255
224
168
255
224
168
255
224
168
255
224
168
255
224
168
255
224
168
255
224
168
255
224
168
255
224
168
255
224
168
255
224
168
255
224
168
255
164
64
255
164
64
248
56
0
248
56
0
248
56
0
248
56
0
248
56
0
248
56
0
248
56
0
248
56
0
248
56
0
248
56
0
255
224
168
172
124
0
172
124
0
255
224
168
255
224
168
255
224
168
255
224
168
255
224
168
255
224
168
255
224
168
255
224
168
255
224
168
255
224
168
255
224
168
255
224
168
255
224
168
255
224
168
248
56
0
172
124
0
255
160
68
255
160
68
255
160
68
255
160
68
248
56
0
248
56
0
248
56
0
248
56
0
255
160
68
255
160
68
255
160
68
255
160
68
172
124
0
248
56
0
248
56
0
255
160
68
255
160
68
255
160
68
255
160
68
248
56
0
248
56
0
248
56
0
248
56
0
248
56
0
248
56
0
255
160
68
255
160
68
255
160
68
255
160
68
248
56
0
255
224
168
255
224
168
255
224
168
255
224
168
255
224
168
255
224
168
255
224
168
255
224
168
255
224
168
255
224
168
255
224
168
255
224
168
255
224
168
255
224
168
172
124
0
172
124
0
172
124
0
172
124
0
248
56
0
248
56
0
248
56
0
248
56
0
248
56
0
248
56
0
248
56
0
248
56
0
248
56
0
255
224
168
255
224
168
255
224
168
255
224
168
255
224
168
255
224
168
255
224
168
255
224
168
255
224
168
255
224
168
255
224
168
255
224
168
255
224
168
255
224
168
255
224
168
255
224
168
255
224
168
255
224
168
255
224
168
172
124
0
255
160
68
255
160
68
255
160
68
255
160
68
255
160
68
255
160
68
172
124
0
172
124
0
248
56
0
255
224
168
255
224
168
255
224
168
255
224
168
255
224
168
255
224
168
255
224
168
255
224
168
255
224
168
255
224
168
255
224
168
255
224
168
255
224
168
255
224
168
255
224
168
255
224
168
255
224
168
255
224
168
255
224
168
255
224
168
248
56
0
248
56
0
172
124
0
248
56
0
248
56
0
248
56
0
248
56
0
248
56
0
248
56
0
248
56
0
172
124
0
172
124
0
172
124
0
172
124
0
255
224
168
255
224
168
255
224
168
255
224
168
255
224
168
255
224
168
255
224
168
255
224
168
255
224
168
255
224
168
255
224
168
255
224
168
255
224
168
255
224
168
255
224
168
255
224
168
255
224
168
172
124
0
172
124
0
172
124
0
172
124
0
172
124
0
172
124
0
248
56
0
248
56
0
248
56
0
255
224
168
255
224
168
255
224
168
255
224
168
255
224
168
255
224
168
255
224
168
255
224
168
255
224
168
255
224
168
255
224
168
255
224
168
255
224
168
255
224
168
255
224
168
255
224
168
255
224
168
255
224
168
172
124
0
172
124
0
172
124
0
172
124
0
172
124
0
248
56
0
248
56
0
248
56
0
248
56
0
248
56
0
248
56
0
248
56
0
255
164
64
255
164
64
255
164
64
255
224
168
255
224
168
255
224
168
255
224
168
255
224
168
255
224
168
255
224
168
255
224
168
255
224
168
255
224
168
255
224
168
255
224
168
255
224
168
255
224
168
255
224
168
255
224
168
255
164
64
255
164
64
248
56
0
248
56
0
248
56
0
248
56
0
248
56
0
248
56
0
248
56
0
248
56
0
248
56
0
248
56
0
255
164
64
255
164
64
255
224
168
255
224
168
255
224
168
255
224
168
255
224
168
255
224
168
255
224
168
255
224
168
255
224
168
255
224
168
255
224
168
255
224
168
255
224
168
255
224
168
255
224
168
255
164
64
255
164
64
248
56
0
248
56
0
248
56
0
248
56
0
248
56
0
248
56
0
248
56
0
248
56
0
248
56
0
248
56
0
255
164
64
255
164
64
255
224
168
255
224
168
255
224
168
255
224
168
255
224
168
255
224
168
255
224
168
255
224
168
255
224
168
255
224
168
255
224
168
255
224
168
255
224
168
255
224
168
255
224
168
255
224
168
255
164
64
255
164
64
255
164
64
248
56
0
248
56
0
248
56
0
248
56
0
248
56
0
248
56
0
248
56
0
172
124
0
172
124
0
172
124
0
172
124
0
172
124
0
255
224
168
255
224
168
255
224
168
255
224
168
255
224
168
255
224
168
255
224
168
255
224
168
255
224
168
255
224
168
255
224
168
255
224
168
255
224
168
255
224
168
255
224
168
255
224
168
255
224
168
255
224
168
248
56
0
248
56
0
248
56
0
172
124
0
172
124
0
172
124
0
172
124
0
172
124
0
172
124
0
255
224
168
255
224
168
255
224
168
255
224
168
255
224
168
255
224
168
255
224
168
255
224
168
255
224
168
255
224
168
255
224
168
255
224
168
255
224
168
255
224
168
255
224
168
255
224
168
255
224
168
172
124
0
172
124
0
172
124
0
172
124
0
248
56
0
248
56
0
248
56
0
248
56
0
248
56
0
248
56
0
248
56
0
172
124
0
248
56
0
248
56
0
255
224
168
255
224
168
255
224
168
255
224
168
255
224
168
255
224
168
255
224
168
255
224
168
255
224
168
255
224
168
255
224
168
255
224
168
255
224
168
255
224
168
255
224
168
255
224
168
255
224
168
255
224
168
255
224
168
255
224
168
248
56
0
172
124
0
172
124
0
255
160
68
255
160
68
255
160
68
255
160
68
255
160
68
255
160
68
172
124
0
255
224
168
255
224
168
255
224
168
255
224
168
255
224
168
255
224
168
255
224
168
255
224
168
255
224
168
255
224
168
255
224
168
255
224
168
255
224
168
255
224
168
255
224
168
255
224
168
255
224
168
255
224
168
255
224
168
248
56
0
248
56
0
248
56
0
248
56
0
248
56
0
248
56
0
248
56
0
248
56
0
248
56
0
172
124
0
172
124
0
172
124
0
172
124
0
255
224
168
255
224
168
255
224
168
255
224
168
255
224
168
255
224
168
255
224
168
255
224
168
255
224
168
255
224
168
255
224
168
255
224
168
255
224
168
255
224
168
248
56
0
255
160
68
255
160
68
255
160
68
255
160
68
248
56
0
248
56
0
248
56
0
248
56
0
248
56
0
248
56
0
255
160
68
255
160
68
255
160
68
255
160
68
248
56
0
255
224
168
248
56
0
255
160
68
255
160
68
172
124
0
255
224
168
255
224
168
255
224
168
255
224
168
255
224
168
255
224
168
172
124
0
255
160
68
255
160
68
248
56
0
255
224
168
255
224
168
255
224
168
255
224
168
255
224
168
255
224
168
255
224
168
255
224
168
255
224
168
255
224
168
255
224
168
255
224
168
255
224
168
255
224
168
255
224
168
172
124
0
172
124
0
172
124
0
172
124
0
248
56
0
248
56
0
248
56
0
248
56
0
248
56
0
248
56
0
248
56
0
248
56
0
172
124
0
255
224
168
255
224
168
255
224
168
255
224
168
255
224
168
255
224
168
255
224
168
255
224
168
255
224
168
255
224
168
255
224
168
255
224
168
255
224
168
255
224
168
255
224
168
255
224
168
255
224
168
255
224
168
255
224
168
255
224
168
255
224
168
248
56
0
248
56
0
248
56
0
248
56
0
255
160
68
255
160
68
172
124
0
255
224
168
255
224
168
255
224
168
255
224
168
255
224
168
255
224
168
255
224
168
255
224
168
255
224
168
255
224
168
255
224
168
255
224
168
255
224
168
255
224
168
255
224
168
255
224
168
255
224
168
255
224
168
255
224
168
255
224
168
255
224
168
248
56
0
248
56
0
248
56
0
172
124
0
172
124
0
248
56
0
248
56
0
248
56
0
248
56
0
248
56
0
172
124
0
172
124
0
172
124
0
172
124
0
255
224
168
255
224
168
255
224
168
255
224
168
255
224
168
255
224
168
255
224
168
255
224
168
255
224
168
255
224
168
255
224
168
255
224
168
255
224
168
255
224
168
255
224
168
255
224
168
255
224
168
255
224
168
172
124
0
172
124
0
172
124
0
172
124
0
172
124
0
172
124
0
248
56
0
248
56
0
255
224
168
255
224
168
255
224
168
255
224
168
255
224
168
255
224
168
255
224
168
255
224
168
255
224
168
255
224
168
255
224
168
255
224
168
255
224
168
255
224
168
255
224
168
255
224
168
255
224
168
255
224
168
172
124
0
172
124
0
172
124
0
172
124
0
172
124
0
248
56
0
248
56
0
248
56
0
248
56
0
248
56
0
248
56
0
172
124
0
248
56
0
255
224
168
255
224
168
255
224
168
255
224
168
255
224
168
255
224
168
255
224
168
255
224
168
255
224
168
255
224
168
255
224
168
255
224
168
255
224
168
255
224
168
255
224
168
255
224
168
255
224
168
255
224
168
255
224
168
248
56
0
248
56
0
248
56
0
248
56
0
248
56
0
248
56
0
248
56
0
248
56
0
248
56
0
248
56
0
248
56
0
248
56
0
255
224
168
255
224
168
255
224
168
255
224
168
255
224
168
255
224
168
255
224
168
255
224
168
255
224
168
255
224
168
255
224
168
255
224
168
255
224
168
255
224
168
255
224
168
255
224
168
255
224
168
248
56
0
248
56
0
248
56
0
248
56
0
248
56
0
248
56
0
248
56
0
248
56
0
248
56
0
248
56
0
248
56
0
248
56
0
255
224
168
255
224
168
255
224
168
255
224
168
255
224
168
255
224
168
255
224
168
255
224
168
255
224
168
255
224
168
255
224
168
255
224
168
255
224
168
255
224
168
255
224
168
255
224
168
255
224
168
255
224
168
255
224
168
248
56
0
172
124
0
248
56
0
248
56
0
248
56
0
248
56
0
248
56
0
248
56
0
172
124
0
172
124
0
172
124
0
172
124
0
172
124
0
255
224
168
255
224
168
255
224
168
255
224
168
255
224
168
255
224
168
255
224
168
255
224
168
255
224
168
255
224
168
255
224
168
255
224
168
255
224
168
255
224
168
255
224
168
255
224
168
255
224
168
255
224
168
248
56
0
248
56
0
172
124
0
172
124
0
172
124
0
172
124
0
172
124
0
172
124
0
255
224
168
255
224
168
255
224
168
255
224
168
255
224
168
255
224
168
255
224
168
255
224
168
255
224
168
255
224
168
255
224
168
255
224
168
255
224
168
255
224
168
255
224
168
255
224
168
255
224
168
255
224
168
172
124
0
172
124
0
172
124
0
172
124
0
248
56
0
248
56
0
248
56
0
248
56
0
248
56
0
172
124
0
172
124
0
248
56
0
248
56
0
248
56
0
255
224
168
255
224
168
255
224
168
255
224
168
255
224
168
255
224
168
255
224
168
255
224
168
255
224
168
255
224
168
255
224
168
255
224
168
255
224
168
255
224
168
255
224
168
255
224
168
255
224
168
255
224
168
255
224
168
255
224
168
255
224
168
172
124
0
255
160
68
255
160
68
248
56
0
248
56
0
248
56
0
248
56
0
255
224
168
255
224
168
255
224
168
255
224
168
255
224
168
255
224
168
255
224
168
255
224
168
255
224
168
255
224
168
255
224
168
255
224
168
255
224
168
255
224
168
255
224
168
255
224
168
255
224
168
255
224
168
255
224
168
255
224
168
255
224
168
172
124
0
248
56
0
248
56
0
248
56
0
248
56
0
248
56
0
248
56
0
248
56
0
248
56
0
172
124
0
172
124
0
172
124
0
172
124
0
255
224
168
255
224
168
255
224
168
255
224
168
255
224
168
255
224
168
255
224
168
255
224
168
255
224
168
255
224
168
255
224
168
255
224
168
255
224
168
255
224
168
255
224
168
248
56
0
255
160
68
255
160
68
172
124
0
255
224
168
255
224
168
255
224
168
255
224
168
255
224
168
255
224
168
172
124
0
255
160
68
255
160
68
248
56
0
255
224
168
255
224
168
255
224
168
172
124
0
172
124
0
172
124
0
172
124
0
255
224
168
255
224
168
255
224
168
255
224
168
172
124
0
172
124
0
172
124
0
172
124
0
255
224
168
255
224
168
255
224
168
255
224
168
255
224
168
255
224
168
255
224
168
255
224
168
255
224
168
255
224
168
255
224
168
255
224
168
255
224
168
255
224
168
255
224
168
255
224
168
172
124
0
172
124
0
172
124
0
172
124
0
248
56
0
248
56
0
248
56
0
248
56
0
248
56
0
248
56
0
172
124
0
172
124
0
248
56
0
172
124
0
172
124
0
172
124
0
255
224
168
255
224
168
255
224
168
255
224
168
255
224
168
255
224
168
255
224
168
255
224
168
255
224
168
255
224
168
255
224
168
255
224
168
255
224
168
255
224
168
172
124
0
255
224
168
255
224
168
248
56
0
248
56
0
248
56
0
248
56
0
248
56
0
248
56
0
248
56
0
255
224
168
255
224
168
255
224
168
255
224
168
255
224
168
255
224
168
255
224
168
255
224
168
255
224
168
255
224
168
255
224
168
255
224
168
255
224
168
255
224
168
255
224
168
255
224
168
255
224
168
255
224
168
255
224
168
255
224
168
255
224
168
255
224
168
255
224
168
248
56
0
248
56
0
248
56
0
248
56
0
172
124
0
248
56
0
248
56
0
248
56
0
248
56
0
172
124
0
172
124
0
172
124
0
172
124
0
255
224
168
255
224
168
255
224
168
255
224
168
255
224
168
255
224
168
255
224
168
255
224
168
255
224
168
255
224
168
255
224
168
255
224
168
255
224
168
255
224
168
255
224
168
255
224
168
255
224
168
255
224
168
255
224
168
172
124
0
172
124
0
172
124
0
172
124
0
248
56
0
248
56
0
255
224
168
255
224
168
255
224
168
255
224
168
255
224
168
255
224
168
255
224
168
255
224
168
255
224
168
255
224
168
255
224
168
255
224
168
255
224
168
255
224
168
255
224
168
255
224
168
255
224
168
255
224
168
255
224
168
172
124
0
172
124
0
172
124
0
172
124
0
172
124
0
248
56
0
248
56
0
248
56
0
248
56
0
248
56
0
172
124
0
248
56
0
248
56
0
172
124
0
255
224
168
255
224
168
255
224
168
255
224
168
255
224
168
255
224
168
255
224
168
255
224
168
255
224
168
255
224
168
255
224
168
255
224
168
255
224
168
255
224
168
255
224
168
255
224
168
255
224
168
248
56
0
248
56
0
248
56
0
248
56
0
248
56
0
248
56
0
255
224
168
255
224
168
248
56
0
248
56
0
248
56
0
248
56
0
248
56
0
248
56
0
255
224
168
255
224
168
255
224
168
255
224
168
255
224
168
255
224
168
255
224
168
255
224
168
255
224
168
255
224
168
255
224
168
255
224
168
255
224
168
255
224
168
255
224
168
248
56
0
248
56
0
248
56
0
248
56
0
248
56
0
248
56
0
255
224
168
255
224
168
248
56
0
248
56
0
248
56
0
248
56
0
248
56
0
248
56
0
255
224
168
255
224
168
255
224
168
255
224
168
255
224
168
255
224
168
255
224
168
255
224
168
255
224
168
255
224
168
255
224
168
255
224
168
255
224
168
255
224
168
255
224
168
255
224
168
255
224
168
172
124
0
248
56
0
248
56
0
172
124
0
248
56
0
248
56
0
248
56
0
248
56
0
248
56
0
172
124
0
172
124
0
172
124
0
172
124
0
172
124
0
255
224
168
255
224
168
255
224
168
255
224
168
255
224
168
255
224
168
255
224
168
255
224
168
255
224
168
255
224
168
255
224
168
255
224
168
255
224
168
255
224
168
255
224
168
255
224
168
255
224
168
255
224
168
255
224
168
248
56
0
248
56
0
172
124
0
172
124
0
172
124
0
172
124
0
255
224
168
255
224
168
255
224
168
255
224
168
255
224
168
255
224
168
255
224
168
255
224
168
255
224
168
255
224
168
255
224
168
255
224
168
255
224
168
255
224
168
255
224
168
255
224
168
255
224
168
255
224
168
255
224
168
172
124
0
172
124
0
172
124
0
172
124
0
248
56
0
248
56
0
248
56
0
248
56
0
172
124
0
248
56
0
248
56
0
248
56
0
248
56
0
255
224
168
255
224
168
255
224
168
255
224
168
255
224
168
255
224
168
255
224
168
255
224
168
255
224
168
255
224
168
255
224
168
255
224
168
255
224
168
255
224
168
255
224
168
255
224
168
255
224
168
255
224
168
255
224
168
255
224
168
255
224
168
255
224
168
255
224
168
248
56
0
248
56
0
248
56
0
248
56
0
248
56
0
248
56
0
248
56
0
255
224
168
255
224
168
172
124
0
255
224
168
255
224
168
255
224
168
255
224
168
255
224
168
255
224
168
255
224
168
255
224
168
255
224
168
255
224
168
255
224
168
255
224
168
255
224
168
255
224
168
172
124
0
172
124
0
172
124
0
248
56
0
172
124
0
172
124
0
248
56
0
248
56
0
248
56
0
248
56
0
248
56
0
248
56
0
172
124
0
172
124
0
172
124
0
172
124
0
255
224
168
255
224
168
255
224
168
255
224
168
255
224
168
255
224
168
255
224
168
255
224
168
255
224
168
255
224
168
255
224
168
255
224
168
255
224
168
255
224
168
255
224
168
255
224
168
172
124
0
172
124
0
172
124
0
172
124
0
255
224
168
255
224
168
255
224
168
255
224
168
172
124
0
172
124
0
172
124
0
172
124
0
255
224
168
255
224
168
172
124
0
172
124
0
172
124
0
172
124
0
172
124
0
172
124
0
255
224
168
255
224
168
255
224
168
255
224
168
172
124
0
172
124
0
172
124
0
172
124
0
172
124
0
172
124
0
255
224
168
255
224
168
255
224
168
255
224
168
255
224
168
255
224
168
255
224
168
255
224
168
255
224
168
255
224
168
255
224
168
255
224
168
255
224
168
255
224
168
172
124
0
172
124
0
172
124
0
172
124
0
248
56
0
248
56
0
248
56
0
248
56
0
172
124
0
172
124
0
248
56
0
248
56
0
248
56
0
172
124
0
172
124
0
172
124
0
255
224
168
255
224
168
255
224
168
255
224
168
255
224
168
255
224
168
255
224
168
255
224
168
255
224
168
255
224
168
255
224
168
255
224
168
255
224
168
255
224
168
172
124
0
172
124
0
255
224
168
255
224
168
172
124
0
248
56
0
248
56
0
248
56
0
248
56
0
255
224
168
255
224
168
255
224
168
255
224
168
255
224
168
255
224
168
255
224
168
255
224
168
255
224
168
255
224
168
255
224
168
255
224
168
255
224
168
255
224
168
255
224
168
255
224
168
255
224
168
255
224
168
255
224
168
255
224
168
255
224
168
255
224
168
255
224
168
255
224
168
248
56
0
248
56
0
248
56
0
248
56
0
255
224
168
255
224
168
248
56
0
248
56
0
248
56
0
172
124
0
172
124
0
172
124
0
172
124
0
255
224
168
255
224
168
255
224
168
255
224
168
255
224
168
255
224
168
255
224
168
255
224
168
255
224
168
255
224
168
255
224
168
255
224
168
255
224
168
255
224
168
255
224
168
255
224
168
255
224
168
255
224
168
172
124
0
172
124
0
172
124
0
248
56
0
248
56
0
248
56
0
172
124
0
255
224
168
255
224
168
255
224
168
255
224
168
255
224
168
255
224
168
255
224
168
255
224
168
255
224
168
255
224
168
255
224
168
255
224
168
255
224
168
255
224
168
255
224
168
255
224
168
255
224
168
255
224
168
255
224
168
172
124
0
172
124
0
172
124
0
172
124
0
172
124
0
248
56
0
248
56
0
248
56
0
172
124
0
172
124
0
248
56
0
248
56
0
248
56
0
172
124
0
172
124
0
172
124
0
255
224
168
255
224
168
255
224
168
255
224
168
255
224
168
255
224
168
255
224
168
255
224
168
255
224
168
255
224
168
255
224
168
255
224
168
255
224
168
255
224
168
255
224
168
248
56
0
248
56
0
248
56
0
248
56
0
248
56
0
255
224
168
255
224
168
255
224
168
255
224
168
248
56
0
248
56
0
248
56
0
248
56
0
248
56
0
255
224
168
255
224
168
255
224
168
255
224
168
255
224
168
255
224
168
255
224
168
255
224
168
255
224
168
255
224
168
255
224
168
255
224
168
255
224
168
255
224
168
255
224
168
248
56
0
248
56
0
248
56
0
248
56
0
248
56
0
255
224
168
255
224
168
255
224
168
255
224
168
248
56
0
248
56
0
248
56
0
248
56
0
248
56
0
255
224
168
255
224
168
255
224
168
255
224
168
255
224
168
255
224
168
255
224
168
255
224
168
255
224
168
255
224
168
255
224
168
255
224
168
255
224
168
255
224
168
255
224
168
172
124
0
172
124
0
172
124
0
248
56
0
248
56
0
248
56
0
172
124
0
172
124
0
248
56
0
248
56
0
248
56
0
172
124
0
172
124
0
172
124
0
172
124
0
172
124
0
255
224
168
255
224
168
255
224
168
255
224
168
255
224
168
255
224
168
255
224
168
255
224
168
255
224
168
255
224
168
255
224
168
255
224
168
255
224
168
255
224
168
255
224
168
255
224
168
255
224
168
255
224
168
255
224
168
172
124
0
248
56
0
248
56
0
248
56
0
172
124
0
172
124
0
172
124
0
255
224
168
255
224
168
255
224
168
255
224
168
255
224
168
255
224
168
255
224
168
255
224
168
255
224
168
255
224
168
255
224
168
255
224
168
255
224
168
255
224
168
255
224
168
255
224
168
255
224
168
255
224
168
172
124
0
172
124
0
172
124
0
172
124
0
248
56
0
248
56
0
248
56
0
255
224
168
255
224
168
248
56
0
248
56
0
248
56
0
248
56
0
255
224
168
255
224
168
255
224
168
255
224
168
255
224
168
255
224
168
255
224
168
255
224
168
255
224
168
255
224
168
255
224
168
255
224
168
255
224
168
255
224
168
255
224
168
255
224
168
255
224
168
255
224
168
255
224
168
255
224
168
255
224
168
255
224
168
255
224
168
255
224
168
248
56
0
248
56
0
248
56
0
248
56
0
172
124
0
255
224
168
255
224
168
172
124
0
172
124
0
255
224
168
255
224
168
255
224
168
255
224
168
255
224
168
255
224
168
255
224
168
255
224
168
255
224
168
255
224
168
255
224
168
255
224
168
255
224
168
255
224
168
172
124
0
172
124
0
172
124
0
248
56
0
248
56
0
248
56
0
172
124
0
172
124
0
248
56
0
248
56
0
248
56
0
248
56
0
172
124
0
172
124
0
172
124
0
172
124
0
255
224
168
255
224
168
255
224
168
255
224
168
255
224
168
255
224
168
255
224
168
255
224
168
255
224
168
255
224
168
255
224
168
255
224
168
255
224
168
255
224
168
172
124
0
172
124
0
172
124
0
172
124
0
172
124
0
172
124
0
255
224
168
255
224
168
255
224
168
255
224
168
172
124
0
172
124
0
172
124
0
172
124
0
172
124
0
172
124
0
255
224
168
255
224
168
255
224
168
255
224
168
255
224
168
255
224
168
255
224
168
255
224
168
255
224
168
255
224
168
255
224
168
255
224
168
255
224
168
255
224
168
255
224
168
255
224
168
255
224
168
255
224
168
255
224
168
255
224
168
255
224
168
255
224
168
255
224
168
255
224
168
255
224
168
255
224
168
255
224
168
255
224
168
255
224
168
255
224
168
172
124
0
172
124
0
172
124
0
172
124
0
248
56
0
248
56
0
255
224
168
255
224
168
248
56
0
248
56
0
248
56
0
248
56
0
248
56
0
172
124
0
172
124
0
172
124
0
255
224
168
255
224
168
255
224
168
255
224
168
255
224
168
255
224
168
255
224
168
255
224
168
255
224
168
255
224
168
255
224
168
255
224
168
255
224
168
255
224
168
172
124
0
172
124
0
172
124
0
172
124
0
172
124
0
172
124
0
172
124
0
248
56
0
248
56
0
255
224
168
255
224
168
255
224
168
255
224
168
255
224
168
255
224
168
255
224
168
255
224
168
255
224
168
255
224
168
255
224
168
255
224
168
255
224
168
255
224
168
255
224
168
255
224
168
255
224
168
255
224
168
255
224
168
255
224
168
255
224
168
255
224
168
255
224
168
255
224
168
172
124
0
172
124
0
172
124
0
172
124
0
255
224
168
255
224
168
255
224
168
255
224
168
255
224
168
172
124
0
172
124
0
172
124
0
172
124
0
255
224
168
255
224
168
255
224
168
255
224
168
255
224
168
255
224
168
255
224
168
255
224
168
255
224
168
255
224
168
255
224
168
255
224
168
255
224
168
255
224
168
255
224
168
255
224
168
255
224
168
255
224
168
172
124
0
172
124
0
255
224
168
172
124
0
172
124
0
172
124
0
172
124
0
255
224
168
255
224
168
255
224
168
255
224
168
255
224
168
255
224
168
255
224
168
255
224
168
255
224
168
255
224
168
255
224
168
255
224
168
255
224
168
255
224
168
255
224
168
255
224
168
255
224
168
255
224
168
255
224
168
172
124
0
172
124
0
172
124
0
172
124
0
172
124
0
255
224
168
255
224
168
255
224
168
248
56
0
248
56
0
248
56
0
248
56
0
172
124
0
172
124
0
172
124
0
172
124
0
255
224
168
255
224
168
255
224
168
255
224
168
255
224
168
255
224
168
255
224
168
255
224
168
255
224
168
255
224
168
255
224
168
255
224
168
255
224
168
255
224
168
255
224
168
248
56
0
248
56
0
248
56
0
248
56
0
248
56
0
255
224
168
255
224
168
255
224
168
255
224
168
248
56
0
248
56
0
248
56
0
248
56
0
248
56
0
255
224
168
255
224
168
255
224
168
255
224
168
255
224
168
255
224
168
255
224
168
255
224
168
255
224
168
255
224
168
255
224
168
255
224
168
255
224
168
255
224
168
255
224
168
248
56
0
248
56
0
248
56
0
248
56
0
248
56
0
255
224
168
255
224
168
255
224
168
255
224
168
248
56
0
248
56
0
248
56
0
248
56
0
248
56
0
255
224
168
255
224
168
255
224
168
255
224
168
255
224
168
255
224
168
255
224
168
255
224
168
255
224
168
255
224
168
255
224
168
255
224
168
255
224
168
255
224
168
255
224
168
172
124
0
172
124
0
172
124
0
172
124
0
248
56
0
248
56
0
248
56
0
248
56
0
255
224
168
255
224
168
255
224
168
172
124
0
172
124
0
172
124
0
172
124
0
172
124
0
255
224
168
255
224
168
255
224
168
255
224
168
255
224
168
255
224
168
255
224
168
255
224
168
255
224
168
255
224
168
255
224
168
255
224
168
255
224
168
255
224
168
255
224
168
255
224
168
255
224
168
255
224
168
255
224
168
172
124
0
172
124
0
172
124
0
172
124
0
255
224
168
172
124
0
172
124
0
255
224
168
255
224
168
255
224
168
255
224
168
255
224
168
255
224
168
255
224
168
255
224
168
255
224
168
255
224
168
255
224
168
255
224
168
255
224
168
255
224
168
255
224
168
255
224
168
255
224
168
255
224
168
172
124
0
172
124
0
172
124
0
172
124
0
255
224
168
255
224
168
255
224
168
255
224
168
255
224
168
172
124
0
172
124
0
172
124
0
172
124
0
255
224
168
255
224
168
255
224
168
255
224
168
255
224
168
255
224
168
255
224
168
255
224
168
255
224
168
255
224
168
255
224
168
255
224
168
255
224
168
255
224
168
255
224
168
255
224
168
255
224
168
255
224
168
255
224
168
255
224
168
255
224
168
255
224
168
255
224
168
255
224
168
248
56
0
248
56
0
172
124
0
172
124
0
172
124
0
172
124
0
172
124
0
172
124
0
172
124
0
255
224
168
255
224
168
255
224
168
255
224
168
255
224
168
255
224
168
255
224
168
255
224
168
255
224
168
255
224
168
255
224
168
255
224
168
255
224
168
255
224
168
172
124
0
172
124
0
172
124
0
248
56
0
248
56
0
248
56
0
248
56
0
248
56
0
255
224
168
255
224
168
248
56
0
248
56
0
172
124
0
172
124
0
172
124
0
172
124
0
255
224
168
255
224
168
255
224
168
255
224
168
255
224
168
255
224
168
255
224
168
255
224
168
255
224
168
255
224
168
255
224
168
255
224
168
255
224
168
255
224
168
255
224
168
255
224
168
255
224
168
255
224
168
255
224
168
255
224
168
255
224
168
255
224
168
255
224
168
255
224
168
255
224
168
255
224
168
255
224
168
255
224
168
255
224
168
255
224
168
255
224
168
255
224
168
255
224
168
255
224
168
255
224
168
255
224
168
255
224
168
255
224
168
255
224
168
255
224
168
255
224
168
255
224
168
255
224
168
255
224
168
255
224
168
255
224
168
255
224
168
255
224
168
255
224
168
255
224
168
255
224
168
255
224
168
255
224
168
255
224
168
255
224
168
255
224
168
255
224
168
255
224
168
255
224
168
255
224
168
255
224
168
255
224
168
255
224
168
255
224
168
255
224
168
255
224
168
255
224
168
255
224
168
248
56
0
248
56
0
248
56
0
248
56
0
248
56
0
172
124
0
172
124
0
172
124
0
255
224
168
255
224
168
255
224
168
255
224
168
255
224
168
255
224
168
255
224
168
255
224
168
255
224
168
255
224
168
255
224
168
255
224
168
255
224
168
255
224
168
255
224
168
172
124
0
172
124
0
172
124
0
172
124
0
172
124
0
172
124
0
172
124
0
255
224
168
255
224
168
255
224
168
255
224
168
255
224
168
255
224
168
255
224
168
255
224
168
255
224
168
255
224
168
255
224
168
255
224
168
255
224
168
255
224
168
255
224
168
255
224
168
255
224
168
255
224
168
255
224
168
255
224
168
255
224
168
255
224
168
255
224
168
255
224
168
255
224
168
172
124
0
172
124
0
172
124
0
172
124
0
255
224
168
255
224
168
255
224
168
255
224
168
255
224
168
255
224
168
255
224
168
172
124
0
172
124
0
255
224
168
255
224
168
255
224
168
255
224
168
255
224
168
255
224
168
255
224
168
255
224
168
255
224
168
255
224
168
255
224
168
255
224
168
255
224
168
255
224
168
255
224
168
255
224
168
255
224
168
255
224
168
255
224
168
255
224
168
255
224
168
172
124
0
172
124
0
172
124
0
172
124
0
172
124
0
255
224
168
255
224
168
255
224
168
255
224
168
255
224
168
255
224
168
255
224
168
255
224
168
255
224
168
255
224
168
255
224
168
255
224
168
255
224
168
255
224
168
255
224
168
255
224
168
255
224
168
255
224
168
255
224
168
255
224
168
255
224
168
255
224
168
255
224
168
255
224
168
255
224
168
255
224
168
255
224
168
255
224
168
248
56
0
172
124
0
172
124
0
172
124
0
172
124
0
172
124
0
255
224
168
255
224
168
255
224
168
255
224
168
255
224
168
255
224
168
255
224
168
255
224
168
255
224
168
255
224
168
255
224
168
255
224
168
255
224
168
255
224
168
255
224
168
255
224
168
172
124
0
172
124
0
172
124
0
172
124
0
255
224
168
255
224
168
255
224
168
255
224
168
172
124
0
172
124
0
172
124
0
172
124
0
255
224
168
255
224
168
255
224
168
255
224
168
255
224
168
255
224
168
255
224
168
255
224
168
255
224
168
255
224
168
255
224
168
255
224
168
255
224
168
255
224
168
255
224
168
255
224
168
255
224
168
172
124
0
172
124
0
172
124
0
172
124
0
255
224
168
255
224
168
255
224
168
255
224
168
172
124
0
172
124
0
172
124
0
172
124
0
255
224
168
255
224
168
255
224
168
255
224
168
255
224
168
255
224
168
255
224
168
255
224
168
255
224
168
255
224
168
255
224
168
255
224
168
255
224
168
255
224
168
255
224
168
255
224
168
172
124
0
172
124
0
172
124
0
172
124
0
172
124
0
248
56
0
255
224
168
255
224
168
255
224
168
255
224
168
255
224
168
255
224
168
255
224
168
255
224
168
255
224
168
255
224
168
255
224
168
255
224
168
255
224
168
255
224
168
255
224
168
255
224
168
255
224
168
255
224
168
255
224
168
255
224
168
255
224
168
255
224
168
255
224
168
255
224
168
255
224
168
255
224
168
255
224
168
255
224
168
172
124
0
172
124
0
172
124
0
172
124
0
172
124
0
255
224
168
255
224
168
255
224
168
255
224
168
255
224
168
255
224
168
255
224
168
255
224
168
255
224
168
255
224
168
255
224
168
255
224
168
255
224
168
255
224
168
255
224
168
255
224
168
255
224
168
255
224
168
255
224
168
255
224
168
255
224
168
172
124
0
172
124
0
255
224
168
255
224
168
255
224
168
255
224
168
255
224
168
255
224
168
255
224
168
172
124
0
172
124
0
172
124
0
172
124
0
255
224
168
255
224
168
255
224
168
255
224
168
255
224
168
255
224
168
255
224
168
255
224
168
255
224
168
255
224
168
255
224
168
255
224
168
255
224
168
255
224
168
255
224
168
255
224
168
255
224
168
255
224
168
255
224
168
255
224
168
255
224
168
255
224
168
255
224
168
255
224
168
255
224
168
172
124
0
172
124
0
172
124
0
172
124
0
172
124
0
172
124
0
172
124
0
255
224
168
255
224
168
255
224
168
255
224
168
255
224
168
255
224
168
255
224
168
255
224
168
255
224
168
255
224
168
255
224
168
255
224
168
255
224
168
255
224
168
255
224
168
172
124
0
172
124
0
172
124
0
248
56
0
248
56
0
248
56
0
248
56
0
248
56
0
255
224
168
255
224
168
255
224
168
255
224
168
255
224
168
255
224
168
255
224
168
255
224
168
255
224
168
255
224
168
255
224
168
255
224
168
255
224
168
255
224
168
255
224
168
255
224
168
255
224
168
255
224
168
255
224
168
255
224
168
255
224
168
255
224
168
255
224
168
255
224
168
255
224
168
255
224
168
255
224
168
255
224
168
255
224
168
255
224
168
255
224
168
255
224
168
255
224
168
255
224
168
255
224
168
255
224
168
255
224
168
255
224
168
255
224
168
255
224
168
255
224
168
255
224
168
255
224
168
255
224
168
255
224
168
255
224
168
255
224
168
255
224
168
255
224
168
255
224
168
255
224
168
255
224
168
255
224
168
255
224
168
255
224
168
255
224
168
255
224
168
255
224
168
255
224
168
255
224
168
255
224
168
255
224
168
255
224
168
255
224
168
255
224
168
255
224
168
255
224
168
255
224
168
255
224
168
255
224
168
255
224
168
255
224
168
255
224
168
255
224
168
255
224
168
255
224
168
255
224
168
248
56
0
248
56
0
248
56
0
248
56
0
172
124
0
172
124
0
172
124
0
255
224
168
255
224
168
255
224
168
255
224
168
255
224
168
255
224
168
255
224
168
255
224
168
255
224
168
255
224
168
255
224
168
255
224
168
255
224
168
255
224
168
255
224
168
255
224
168
172
124
0
172
124
0
172
124
0
172
124
0
172
124
0
172
124
0
255
224
168
255
224
168
255
224
168
255
224
168
255
224
168
255
224
168
255
224
168
255
224
168
255
224
168
255
224
168
255
224
168
255
224
168
255
224
168
255
224
168
255
224
168
255
224
168
255
224
168
255
224
168
255
224
168
255
224
168
255
224
168
255
224
168
255
224
168
172
124
0
172
124
0
172
124
0
172
124
0
172
124
0
172
124
0
255
224
168
255
224
168
255
224
168
255
224
168
255
224
168
255
224
168
255
224
168
255
224
168
172
124
0
255
224
168
255
224
168
255
224
168
255
224
168
255
224
168
255
224
168
255
224
168
255
224
168
255
224
168
255
224
168
255
224
168
255
224
168
255
224
168
255
224
168
255
224
168
255
224
168
255
224
168
255
224
168
255
224
168
172
124
0
172
124
0
172
124
0
172
124
0
172
124
0
172
124
0
172
124
0
255
224
168
255
224
168
255
224
168
255
224
168
255
224
168
255
224
168
255
224
168
255
224
168
255
224
168
255
224
168
255
224
168
255
224
168
255
224
168
255
224
168
255
224
168
255
224
168
255
224
168
255
224
168
255
224
168
255
224
168
255
224
168
255
224
168
255
224
168
255
224
168
255
224
168
255
224
168
255
224
168
255
224
168
255
224
168
255
224
168
172
124
0
172
124
0
172
124
0
255
224
168
255
224
168
255
224
168
255
224
168
255
224
168
255
224
168
255
224
168
255
224
168
255
224
168
255
224
168
255
224
168
255
224
168
255
224
168
255
224
168
255
224
168
255
224
168
255
224
168
172
124
0
172
124
0
172
124
0
172
124
0
255
224
168
255
224
168
255
224
168
255
224
168
172
124
0
172
124
0
172
124
0
172
124
0
255
224
168
255
224
168
255
224
168
255
224
168
255
224
168
255
224
168
255
224
168
255
224
168
255
224
168
255
224
168
255
224
168
255
224
168
255
224
168
255
224
168
255
224
168
255
224
168
255
224
168
172
124
0
172
124
0
172
124
0
172
124
0
255
224
168
255
224
168
255
224
168
255
224
168
172
124
0
172
124
0
172
124
0
172
124
0
255
224
168
255
224
168
255
224
168
255
224
168
255
224
168
255
224
168
255
224
168
255
224
168
255
224
168
255
224
168
255
224
168
255
224
168
255
224
168
255
224
168
255
224
168
255
224
168
255
224
168
172
124
0
172
124
0
172
124
0
255
224
168
255
224
168
255
224
168
255
224
168
255
224
168
255
224
168
255
224
168
255
224
168
255
224
168
255
224
168
255
224
168
255
224
168
255
224
168
255
224
168
255
224
168
255
224
168
255
224
168
255
224
168
255
224
168
255
224
168
255
224
168
255
224
168
255
224
168
255
224
168
255
224
168
255
224
168
255
224
168
255
224
168
255
224
168
255
224
168
172
124
0
172
124
0
172
124
0
172
124
0
172
124
0
172
124
0
172
124
0
255
224
168
255
224
168
255
224
168
255
224
168
255
224
168
255
224
168
255
224
168
255
224
168
255
224
168
255
224
168
255
224
168
255
224
168
255
224
168
255
224
168
255
224
168
255
224
168
255
224
168
255
224
168
255
224
168
172
124
0
255
224
168
255
224
168
255
224
168
255
224
168
255
224
168
255
224
168
255
224
168
255
224
168
172
124
0
172
124
0
172
124
0
172
124
0
172
124
0
172
124
0
255
224
168
255
224
168
255
224
168
255
224
168
255
224
168
255
224
168
255
224
168
255
224
168
255
224
168
255
224
168
255
224
168
255
224
168
255
224
168
255
224
168
255
224
168
255
224
168
255
224
168
255
224
168
255
224
168
255
224
168
255
224
168
255
224
168
255
224
168
172
124
0
172
124
0
172
124
0
172
124
0
172
124
0
172
124
0
255
224
168
255
224
168
255
224
168
255
224
168
255
224
168
255
224
168
255
224
168
255
224
168
255
224
168
255
224
168
255
224
168
255
224
168
255
224
168
255
224
168
255
224
168
255
224
168
172
124
0
172
124
0
172
124
0
248
56
0
248
56
0
248
56
0
248
56
0
255
224
168
255
224
168
255
224
168
255
224
168
255
224
168
255
224
168
255
224
168
255
224
168
255
224
168
255
224
168
255
224
168
255
224
168
255
224
168
255
224
168
255
224
168
255
224
168
255
224
168
255
224
168
255
224
168
255
224
168
255
224
168
255
224
168
255
224
168
255
224
168
255
224
168
255
224
168
255
224
168
255
224
168
255
224
168
255
224
168
255
224
168
255
224
168
255
224
168
255
224
168
255
224
168
255
224
168
255
224
168
255
224
168
255
224
168
255
224
168
255
224
168
255
224
168
255
224
168
255
224
168
255
224
168
255
224
168
255
224
168
255
224
168
255
224
168
255
224
168
255
224
168
255
224
168
255
224
168
255
224
168
255
224
168
255
224
168
255
224
168
255
224
168
255
224
168
255
224
168
255
224
168
255
224
168
255
224
168
255
224
168
255
224
168
255
224
168
255
224
168
255
224
168
255
224
168
255
224
168
255
224
168
255
224
168
255
224
168
255
224
168
255
224
168
255
224
168
255
224
168
255
224
168
255
224
168
255
224
168
255
224
168
255
224
168
255
224
168
172
124
0
172
124
0
255
224
168
255
224
168
255
224
168
255
224
168
255
224
168
255
224
168
255
224
168
255
224
168
255
224
168
255
224
168
255
224
168
255
224
168
255
224
168
255
224
168
255
224
168
255
224
168
255
224
168
172
124
0
172
124
0
172
124
0
172
124
0
255
224
168
255
224
168
255
224
168
255
224
168
255
224
168
255
224
168
255
224
168
255
224
168
255
224
168
255
224
168
255
224
168
255
224
168
255
224
168
255
224
168
255
224
168
255
224
168
255
224
168
255
224
168
255
224
168
255
224
168
255
224
168
255
224
168
255
224
168
255
224
168
172
124
0
172
124
0
172
124
0
172
124
0
172
124
0
172
124
0
255
224
168
255
224
168
255
224
168
255
224
168
255
224
168
255
224
168
255
224
168
255
224
168
255
224
168
255
224
168
255
224
168
255
224
168
255
224
168
255
224
168
255
224
168
255
224
168
255
224
168
255
224
168
255
224
168
255
224
168
255
224
168
255
224
168
255
224
168
255
224
168
255
224
168
255
224
168
255
224
168
255
224
168
172
124
0
172
124
0
172
124
0
172
124
0
172
124
0
255
224
168
255
224
168
255
224
168
255
224
168
255
224
168
255
224
168
255
224
168
255
224
168
255
224
168
255
224
168
255
224
168
255
224
168
255
224
168
255
224
168
255
224
168
255
224
168
255
224
168
255
224
168
255
224
168
255
224
168
255
224
168
255
224
168
255
224
168
255
224
168
255
224
168
255
224
168
255
224
168
255
224
168
255
224
168
255
224
168
255
224
168
255
224
168
172
124
0
172
124
0
172
124
0
255
224
168
255
224
168
255
224
168
255
224
168
255
224
168
255
224
168
255
224
168
255
224
168
255
224
168
255
224
168
255
224
168
255
224
168
255
224
168
255
224
168
255
224
168
172
124
0
172
124
0
172
124
0
172
124
0
172
124
0
172
124
0
255
224
168
255
224
168
255
224
168
255
224
168
172
124
0
172
124
0
172
124
0
172
124
0
172
124
0
172
124
0
255
224
168
255
224
168
255
224
168
255
224
168
255
224
168
255
224
168
255
224
168
255
224
168
255
224
168
255
224
168
255
224
168
255
224
168
255
224
168
172
124
0
172
124
0
172
124
0
172
124
0
172
124
0
172
124
0
255
224
168
255
224
168
255
224
168
255
224
168
172
124
0
172
124
0
172
124
0
172
124
0
172
124
0
172
124
0
255
224
168
255
224
168
255
224
168
255
224
168
255
224
168
255
224
168
255
224
168
255
224
168
255
224
168
255
224
168
255
224
168
255
224
168
255
224
168
255
224
168
255
224
168
172
124
0
172
124
0
172
124
0
255
224
168
255
224
168
255
224
168
255
224
168
255
224
168
255
224
168
255
224
168
255
224
168
255
224
168
255
224
168
255
224
168
255
224
168
255
224
168
255
224
168
255
224
168
255
224
168
255
224
168
255
224
168
255
224
168
255
224
168
255
224
168
255
224
168
255
224
168
255
224
168
255
224
168
255
224
168
255
224
168
255
224
168
255
224
168
255
224
168
255
224
168
255
224
168
172
124
0
172
124
0
172
124
0
172
124
0
172
124
0
255
224
168
255
224
168
255
224
168
255
224
168
255
224
168
255
224
168
255
224
168
255
224
168
255
224
168
255
224
168
255
224
168
255
224
168
255
224
168
255
224
168
255
224
168
255
224
168
255
224
168
255
224
168
255
224
168
255
224
168
255
224
168
255
224
168
255
224
168
255
224
168
255
224
168
255
224
168
255
224
168
255
224
168
172
124
0
172
124
0
172
124
0
172
124
0
172
124
0
172
124
0
255
224
168
255
224
168
255
224
168
255
224
168
255
224
168
255
224
168
255
224
168
255
224
168
255
224
168
255
224
168
255
224
168
255
224
168
255
224
168
255
224
168
255
224
168
255
224
168
255
224
168
255
224
168
255
224
168
255
224
168
255
224
168
255
224
168
255
224
168
255
224
168
172
124
0
172
124
0
172
124
0
172
124
0
255
224
168
255
224
168
255
224
168
255
224
168
255
224
168
255
224
168
255
224
168
255
224
168
255
224
168
255
224
168
255
224
168
255
224
168
255
224
168
255
224
168
255
224
168
255
224
168
255
224
168
172
124
0
172
124
0
255
224
168
255
224
168
255
224
168
255
224
168
255
224
168
255
224
168
255
224
168
255
224
168
255
224
168
255
224
168
255
224
168
255
224
168
255
224
168
255
224
168
255
224
168
255
224
168
255
224
168
255
224
168
255
224
168
255
224
168
255
224
168
255
224
168
255
224
168
255
224
168
255
224
168
255
224
168
255
224
168
255
224
168
255
224
168
255
224
168
255
224
168
255
224
168
255
224
168
255
224
168
255
224
168
255
224
168
255
224
168
255
224
168
255
224
168
255
224
168
255
224
168
255
224
168
255
224
168
255
224
168
255
224
168
255
224
168
255
224
168
255
224
168
255
224
168
255
224
168
255
224
168
255
224
168
255
224
168
255
224
168
255
224
168
255
224
168
255
224
168
255
224
168
255
224
168
255
224
168
255
224
168
255
224
168
255
224
168
255
224
168
255
224
168
255
224
168
255
224
168
255
224
168
255
224
168
255
224
168
255
224
168
255
224
168
255
224
168
255
224
168
255
224
168
255
224
168
255
224
168
255
224
168
255
224
168
255
224
168
255
224
168
255
224
168
255
224
168
255
224
168
255
224
168
255
224
168
255
224
168
255
224
168
255
224
168
172
124
0
255
224
168
255
224
168
255
224
168
255
224
168
255
224
168
255
224
168
255
224
168
255
224
168
255
224
168
255
224
168
255
224
168
255
224
168
255
224
168
255
224
168
255
224
168
255
224
168
255
224
168
255
224
168
172
124
0
172
124
0
172
124
0
255
224
168
255
224
168
255
224
168
255
224
168
255
224
168
255
224
168
255
224
168
255
224
168
255
224
168
255
224
168
255
224
168
255
224
168
255
224
168
255
224
168
255
224
168
255
224
168
255
224
168
255
224
168
255
224
168
255
224
168
255
224
168
255
224
168
255
224
168
255
224
168
255
224
168
255
224
168
255
224
168
255
224
168
255
224
168
255
224
168
255
224
168
255
224
168
255
224
168
255
224
168
255
224
168
255
224
168
255
224
168
255
224
168
255
224
168
255
224
168
255
224
168
255
224
168
255
224
168
255
224
168
255
224
168
255
224
168
255
224
168
255
224
168
255
224
168
255
224
168
255
224
168
255
224
168
255
224
168
255
224
168
255
224
168
255
224
168
255
224
168
255
224
168
255
224
168
255
224
168
255
224
168
255
224
168
255
224
168
255
224
168
255
224
168
255
224
168
255
224
168
255
224
168
255
224
168
255
224
168
255
224
168
255
224
168
255
224
168
255
224
168
255
224
168
255
224
168
255
224
168
255
224
168
255
224
168
255
224
168
255
224
168
255
224
168
255
224
168
255
224
168
255
224
168
255
224
168
255
224
168
255
224
168
255
224
168
255
224
168
255
224
168
255
224
168
255
224
168
255
224
168
172
124
0
172
124
0
172
124
0
255
224
168
255
224
168
255
224
168
255
224
168
255
224
168
255
224
168
255
224
168
255
224
168
255
224
168
255
224
168
255
224
168
255
224
168
255
224
168
255
224
168
255
224
168
255
224
168
172
124
0
172
124
0
172
124
0
172
124
0
172
124
0
172
124
0
255
224
168
255
224
168
255
224
168
255
224
168
172
124
0
172
124
0
172
124
0
172
124
0
172
124
0
172
124
0
255
224
168
255
224
168
255
224
168
255
224
168
255
224
168
255
224
168
255
224
168
255
224
168
255
224
168
255
224
168
255
224
168
255
224
168
255
224
168
172
124
0
172
124
0
172
124
0
172
124
0
172
124
0
172
124
0
255
224
168
255
224
168
255
224
168
255
224
168
172
124
0
172
124
0
172
124
0
172
124
0
172
124
0
172
124
0
255
224
168
255
224
168
255
224
168
255
224
168
255
224
168
255
224
168
255
224
168
255
224
168
255
224
168
255
224
168
255
224
168
255
224
168
255
224
168
255
224
168
255
224
168
255
224
168
172
124
0
172
124
0
172
124
0
255
224
168
255
224
168
255
224
168
255
224
168
255
224
168
255
224
168
255
224
168
255
224
168
255
224
168
255
224
168
255
224
168
255
224
168
255
224
168
255
224
168
255
224
168
255
224
168
255
224
168
255
224
168
255
224
168
255
224
168
255
224
168
255
224
168
255
224
168
255
224
168
255
224
168
255
224
168
255
224
168
255
224
168
255
224
168
255
224
168
255
224
168
255
224
168
255
224
168
255
224
168
255
224
168
255
224
168
255
224
168
255
224
168
255
224
168
255
224
168
255
224
168
255
224
168
255
224
168
255
224
168
255
224
168
255
224
168
255
224
168
255
224
168
255
224
168
255
224
168
255
224
168
255
224
168
255
224
168
255
224
168
255
224
168
255
224
168
255
224
168
255
224
168
255
224
168
255
224
168
255
224
168
255
224
168
255
224
168
255
224
168
255
224
168
255
224
168
255
224
168
255
224
168
255
224
168
255
224
168
255
224
168
255
224
168
255
224
168
255
224
168
255
224
168
255
224
168
255
224
168
255
224
168
255
224
168
255
224
168
255
224
168
255
224
168
255
224
168
255
224
168
255
224
168
255
224
168
255
224
168
255
224
168
255
224
168
255
224
168
255
224
168
255
224
168
255
224
168
255
224
168
172
124
0
172
124
0
172
124
0
255
224
168
255
224
168
255
224
168
255
224
168
255
224
168
255
224
168
255
224
168
255
224
168
255
224
168
255
224
168
255
224
168
255
224
168
255
224
168
255
224
168
255
224
168
255
224
168
255
224
168
255
224
168
172
124
0
255
224
168
255
224
168
255
224
168
255
224
168
255
224
168
255
224
168
255
224
168
255
224
168
255
224
168
255
224
168
255
224
168
255
224
168
255
224
168
255
224
168
255
224
168
255
224
168
255
224
168
255
224
168
255
224
168
255
224
168
255
224
168
255
224
168
255
224
168
255
224
168
255
224
168
255
224
168
255
224
168
255
224
168
255
224
168
255
224
168
255
224
168
255
224
168
255
224
168
255
224
168
255
224
168
255
224
168
255
224
168
255
224
168
255
224
168
255
224
168
255
224
168
255
224
168
255
224
168
255
224
168
255
224
168
255
224
168
255
224
168
255
224
168
255
224
168
255
224
168
255
224
168
255
224
168
255
224
168
255
224
168
255
224
168
255
224
168
255
224
168
255
224
168
255
224
168
255
224
168
255
224
168
255
224
168
255
224
168
255
224
168
255
224
168
255
224
168
255
224
168
255
224
168
255
224
168
255
224
168
255
224
168
255
224
168
255
224
168
255
224
168
255
224
168
255
224
168
255
224
168
255
224
168
255
224
168
255
224
168
255
224
168
255
224
168
255
224
168
255
224
168
255
224
168
255
224
168
255
224
168
255
224
168
255
224
168
255
224
168
255
224
168
255
224
168
255
224
168
255
224
168
255
224
168
255
224
168
255
224
168
255
224
168
255
224
168
255
224
168
255
224
168
255
224
168
255
224
168
255
224
168
255
224
168
255
224
168
255
224
168
255
224
168
255
224
168
255
224
168
255
224
168
255
224
168
255
224
168
255
224
168
255
224
168
255
224
168
255
224
168
255
224
168
255
224
168
255
224
168
255
224
168
255
224
168
255
224
168
255
224
168
255
224
168
255
224
168
255
224
168
255
224
168
255
224
168
255
224
168
255
224
168
255
224
168
255
224
168
255
224
168
255
224
168
255
224
168
255
224
168
255
224
168
255
224
168
255
224
168
255
224
168
255
224
168
255
224
168
255
224
168
255
224
168
255
224
168
255
224
168
255
224
168
255
224
168
255
224
168
255
224
168
255
224
168
255
224
168
255
224
168
255
224
168
255
224
168
255
224
168
255
224
168
255
224
168
255
224
168
255
224
168
255
224
168
255
224
168
255
224
168
255
224
168
255
224
168
255
224
168
255
224
168
255
224
168
255
224
168
255
224
168
255
224
168
255
224
168
255
224
168
255
224
168
255
224
168
255
224
168
255
224
168
255
224
168
255
224
168
255
224
168
255
224
168
255
224
168
255
224
168
255
224
168
255
224
168
255
224
168
255
224
168
255
224
168
255
224
168
255
224
168
255
224
168
255
224
168
255
224
168
255
224
168
255
224
168
255
224
168
255
224
168
255
224
168
255
224
168
255
224
168
255
224
168
255
224
168
255
224
168
255
224
168
255
224
168
255
224
168
255
224
168
255
224
168
255
224
168
255
224
168
255
224
168
255
224
168
255
224
168
255
224
168
255
224
168
255
224
168
255
224
168
255
224
168
255
224
168
255
224
168
255
224
168
255
224
168
255
224
168
255
224
168
255
224
168
255
224
168
255
224
168
255
224
168
255
224
168
255
224
168
255
224
168
255
224
168
255
224
168
255
224
168
255
224
168
255
224
168
255
224
168
255
224
168
255
224
168
255
224
168
255
224
168
255
224
168
255
224
168
255
224
168
255
224
168
255
224
168
255
224
168
255
224
168
255
224
168
255
224
168
255
224
168
255
224
168
255
224
168
255
224
168
255
224
168
255
224
168
255
224
168
255
224
168
255
224
168
255
224
168
255
224
168
255
224
168
255
224
168
255
224
168
255
224
168
255
224
168
255
224
168
255
224
168
255
224
168
255
224
168
255
224
168
255
224
168
255
224
168
255
224
168
255
224
168
255
224
168
255
224
168
255
224
168
255
224
168
255
224
168
255
224
168
255
224
168
255
224
168
255
224
168
255
224
168
255
224
168
255
224
168
255
224
168
255
224
168
255
224
168
255
224
168
255
224
168
255
224
168
255
224
168
255
224
168
255
224
168
255
224
168
255
224
168
255
224
168
255
224
168
255
224
168
255
224
168
255
224
168
255
224
168
255
224
168
255
224
168
255
224
168
255
224
168
255
224
168
255
224
168
255
224
168
255
224
168
255
224
168
255
224
168
255
224
168
255
224
168
255
224
168
255
224
168
255
224
168
255
224
168
255
224
168
255
224
168
255
224
168
255
224
168
255
224
168
255
224
168
255
224
168
255
224
168
255
224
168
255
224
168
255
224
168
255
224
168
255
224
168
255
224
168
255
224
168
255
224
168
255
224
168
255
224
168
255
224
168
255
224
168
255
224
168
255
224
168
255
224
168
255
224
168
255
224
168
255
224
168
255
224
168
255
224
168
255
224
168
255
224
168
255
224
168
255
224
168
255
224
168
255
224
168
255
224
168
255
224
168
255
224
168
255
224
168
255
224
168
255
224
168
255
224
168
255
224
168
255
224
168
255
224
168
255
224
168
255
224
168
255
224
168
255
224
168
255
224
168
255
224
168
255
224
168
255
224
168
255
224
168
255
224
168
255
224
168
255
224
168
255
224
168
255
224
168
255
224
168
255
224
168
255
224
168
255
224
168
255
224
168
255
224
168
255
224
168
255
224
168
255
224
168
255
224
168
255
224
168
255
224
168
255
224
168
255
224
168
255
224
168
255
224
168
255
224
168
255
224
168
255
224
168
255
224
168
255
224
168
255
224
168
255
224
168
255
224
168
255
224
168
255
224
168
255
224
168
255
224
168
255
224
168
255
224
168
255
224
168
255
224
168
255
224
168
255
224
168
255
224
168
255
224
168
255
224
168
255
224
168
255
224
168
255
224
168
255
224
168
255
224
168
255
224
168
255
224
168
255
224
168
255
224
168
255
224
168
255
224
168
255
224
168
255
224
168
255
224
168
255
224
168
255
224
168
255
224
168
255
224
168
255
224
168
255
224
168
255
224
168
255
224
168
255
224
168
255
224
168
255
224
168
255
224
168
255
224
168
255
224
168
255
224
168
255
224
168
255
224
168
255
224
168
255
224
168
255
224
168
255
224
168
255
224
168
255
224
168
255
224
168
255
224
168
255
224
168
255
224
168
255
224
168
255
224
168
255
224
168
255
224
168
255
224
168
255
224
168
255
224
168
255
224
168
255
224
168
255
224
168
255
224
168
255
224
168
255
224
168
255
224
168
255
224
168
255
224
168
255
224
168
255
224
168
255
224
168
255
224
168
255
224
168
255
224
168
255
224
168
255
224
168
255
224
168
255
224
168
255
224
168
255
224
168
255
224
168
255
224
168
255
224
168
255
224
168
255
224
168
255
224
168
255
224
168
255
224
168
255
224
168
255
224
168
255
224
168
255
224
168
255
224
168
255
224
168
255
224
168
255
224
168
255
224
168
255
224
168
255
224
168
255
224
168
255
224
168
255
224
168
255
224
168
255
224
168
255
224
168
255
224
168
255
224
168
255
224
168
255
224
168
255
224
168
255
224
168
255
224
168
255
224
168
255
224
168
255
224
168
255
224
168
255
224
168
255
224
168
255
224
168
255
224
168
255
224
168
255
224
168
255
224
168
255
224
168
255
224
168
255
224
168
255
224
168
255
224
168
255
224
168
255
224
168
255
224
168
255
224
168
255
224
168
255
224
168
255
224
168
255
224
168
255
224
168
255
224
168
255
224
168
255
224
168
255
224
168
255
224
168
255
224
168
255
224
168
255
224
168
255
224
168
255
224
168
255
224
168
255
224
168
255
224
168
255
224
168
255
224
168
255
224
168
255
224
168
255
224
168
255
224
168
255
224
168
255
224
168
255
224
168
255
224
168
255
224
168
255
224
168
255
224
168
255
224
168
255
224
168
255
224
168
255
224
168
255
224
168
255
224
168
255
224
168
255
224
168
255
224
168
255
224
168
255
224
168
255
224
168
255
224
168
255
224
168
255
224
168
255
224
168
255
224
168
255
224
168
255
224
168
255
224
168
255
224
168
255
224
168
255
224
168
255
224
168
255
224
168
255
224
168
255
224
168
255
224
168
255
224
168
255
224
168
255
224
168
255
224
168
255
224
168
255
224
168
255
224
168
255
224
168
255
224
168
255
224
168
255
224
168
255
224
168
255
224
168
255
224
168
255
224
168
255
224
168
255
224
168
255
224
168
255
224
168
255
224
168
255
224
168
255
224
168
255
224
168
255
224
168
255
224
168
255
224
168
255
224
168
255
224
168
255
224
168
255
224
168
255
224
168
255
224
168
255
224
168
255
224
168
255
224
168
255
224
168
255
224
168
255
224
168
255
224
168
255
224
168
255
224
168
255
224
168
255
224
168
255
224
168
255
224
168
255
224
168
255
224
168
255
224
168
255
224
168
255
224
168
255
224
168
255
224
168
255
224
168
255
224
168
255
224
168
255
224
168
255
224
168
255
224
168
255
224
168
255
224
168
255
224
168
255
224
168
255
224
168
255
224
168
255
224
168
255
224
168
255
224
168
255
224
168
255
224
168
255
224
168
255
224
168
255
224
168
255
224
168
255
224
168
255
224
168
255
224
168
255
224
168
255
224
168
255
224
168
255
224
168
255
224
168
255
224
168
255
224
168
255
224
168
255
224
168
255
224
168
255
224
168
255
224
168
255
224
168
255
224
168
255
224
168
255
224
168
255
224
168
255
224
168
255
224
168
255
224
168
255
224
168
255
224
168
255
224
168
255
224
168
255
224
168
255
224
168
255
224
168
255
224
168
255
224
168
255
224
168
255
224
168
255
224
168
255
224
168
255
224
168
255
224
168
255
224
168
255
224
168
255
224
168
255
224
168
255
224
168
255
224
168
255
224
168
255
224
168
255
224
168
255
224
168
255
224
168
255
224
168
255
224
168
255
224
168
255
224
168
255
224
168
255
224
168
255
224
168
255
224
168
255
224
168
255
224
168
255
224
168
255
224
168
255
224
168
255
224
168
255
224
168
255
224
168
255
224
168
255
224
168
255
224
168
255
224
168
255
224
168
255
224
168
255
224
168
255
224
168
255
224
168
255
224
168
255
224
168
255
224
168
255
224
168
255
224
168
255
224
168
255
224
168
255
224
168
255
224
168
255
224
168
255
224
168
255
224
168
255
224
168
255
224
168
255
224
168
255
224
168
255
224
168
255
224
168
255
224
168
255
224
168
255
224
168
255
224
168
255
224
168
255
224
168
255
224
168
255
224
168
255
224
168
255
224
168
255
224
168
255
224
168
255
224
168
255
224
168
255
224
168
255
224
168
255
224
168
255
224
168
255
224
168
255
224
168
255
224
168
255
224
168
255
224
168
255
224
168
255
224
168
255
224
168
255
224
168
255
224
168
255
224
168
255
224
168
255
224
168
255
224
168
255
224
168
255
224
168
255
224
168
255
224
168
255
224
168
255
224
168
255
224
168
255
224
168
255
224
168
255
224
168
255
224
168
255
224
168
255
224
168
255
224
168
255
224
168
255
224
168
255
224
168
255
224
168
255
224
168
255
224
168
255
224
168
255
224
168
255
224
168
255
224
168
255
224
168
255
224
168
255
224
168
255
224
168
255
224
168
255
224
168
255
224
168
255
224
168
255
224
168
255
224
168
255
224
168
255
224
168
255
224
168
255
224
168
255
224
168
255
224
168
255
224
168
255
224
168
255
224
168
255
224
168
255
224
168
255
224
168
255
224
168
255
224
168
255
224
168
255
224
168
255
224
168
255
224
168
255
224
168
255
224
168
255
224
168
255
224
168
255
224
168
255
224
168
255
224
168
255
224
168
255
224
168
255
224
168
255
224
168
255
224
168
255
224
168
255
224
168
255
224
168
255
224
168
255
224
168
255
224
168
255
224
168
255
224
168
255
224
168
255
224
168
255
224
168
255
224
168
255
224
168
255
224
168
255
224
168
255
224
168
255
224
168
255
224
168
255
224
168
255
224
168
255
224
168
255
224
168
255
224
168
255
224
168
255
224
168
255
224
168
255
224
168
255
224
168
255
224
168
255
224
168
255
224
168
255
224
168
255
224
168
255
224
168
255
224
168
255
224
168
255
224
168
255
224
168
255
224
168
255
224
168
255
224
168
255
224
168
255
224
168
255
224
168
255
224
168
255
224
168
255
224
168
255
224
168
255
224
168
255
224
168
255
224
168
255
224
168
255
224
168
255
224
168
255
224
168
255
224
168
255
224
168
255
224
168
255
224
168
255
224
168
255
224
168
255
224
168
255
224
168
255
224
168
255
224
168
255
224
168
255
224
168
255
224
168
255
224
168
255
224
168
255
224
168
255
224
168
255
224
168
255
224
168
255
224
168
255
224
168
255
224
168
255
224
168
255
224
168
255
224
168
255
224
168
255
224
168
255
224
168
255
224
168
255
224
168
255
224
168
255
224
168
255
224
168
255
224
168
255
224
168
255
224
168
255
224
168
255
224
168
255
224
168
255
224
168
255
224
168
255
224
168
255
224
168
255
224
168
255
224
168
255
224
168
255
224
168
255
224
168
255
224
168
255
224
168
255
224
168
255
224
168
255
224
168
255
224
168
255
224
168
255
224
168
255
224
168
255
224
168
255
224
168
255
224
168
255
224
168
255
224
168
255
224
168
255
224
168
255
224
168
255
224
168
255
224
168
255
224
168
255
224
168
255
224
168
255
224
168
255
224
168
255
224
168
255
224
168
255
224
168
255
224
168
255
224
168
255
224
168
255
224
168
255
224
168
255
224
168
255
224
168
255
224
168
255
224
168
255
224
168
255
224
168
255
224
168
255
224
168
255
224
168
255
224
168
255
224
168
255
224
168
255
224
168
255
224
168
255
224
168
255
224
168
255
224
168
255
224
168
255
224
168
255
224
168
255
224
168
255
224
168
255
224
168
255
224
168
255
224
168
255
224
168
255
224
168
255
224
168
255
224
168
255
224
168
255
224
168
255
224
168
255
224
168
255
224
168
255
224
168
255
224
168
255
224
168
255
224
168
255
224
168
255
224
168
255
224
168
255
224
168
255
224
168
255
224
168
255
224
168
255
224
168
255
224
168
255
224
168
255
224
168
255
224
168
255
224
168
255
224
168
255
224
168
255
224
168
255
224
168
255
224
168
255
224
168
255
224
168
255
224
168
255
224
168
255
224
168
255
224
168
255
224
168
255
224
168
255
224
168
255
224
168
255
224
168
255
224
168
255
224
168
255
224
168
255
224
168
255
224
168
255
224
168
255
224
168
255
224
168
255
224
168
255
224
168
255
224
168
255
224
168
255
224
168
255
224
168
255
224
168
255
224
168
255
224
168
255
224
168
255
224
168
255
224
168
255
224
168
255
224
168
255
224
168
255
224
168
255
224
168
255
224
168
255
224
168
255
224
168
255
224
168
255
224
168
255
224
168
255
224
168
255
224
168
255
224
168
255
224
168
255
224
168
255
224
168
255
224
168
255
224
168
255
224
168
255
224
168
255
224
168
255
224
168
255
224
168
255
224
168
255
224
168
255
224
168
255
224
168
255
224
168
255
224
168
255
224
168
255
224
168
255
224
168
255
224
168
255
224
168
255
224
168
255
224
168
255
224
168
255
224
168
255
224
168
255
224
168
255
224
168
255
224
168
255
224
168
255
224
168
255
224
168
255
224
168
255
224
168
255
224
168
255
224
168
255
224
168
255
224
168
255
224
168
255
224
168
255
224
168
255
224
168
255
224
168
255
224
168
255
224
168
255
224
168
255
224
168
255
224
168
255
224
168
255
224
168
255
224
168
255
224
168
255
224
168
255
224
168
255
224
168
255
224
168
255
224
168
255
224
168
255
224
168
255
224
168
255
224
168
255
224
168
255
224
168
255
224
168
255
224
168
255
224
168
255
224
168
255
224
168
255
224
168
255
224
168
255
224
168
255
224
168
255
224
168
255
224
168
255
224
168
255
224
168
255
224
168
255
224
168
255
224
168
255
224
168
255
224
168
255
224
168
255
224
168
255
224
168
255
224
168
255
224
168
255
224
168
255
224
168
255
224
168
255
224
168
255
224
168
255
224
168
255
224
168
255
224
168
255
224
168
255
224
168
255
224
168
255
224
168
255
224
168
255
224
168
255
224
168
255
224
168
255
224
168
255
224
168
255
224
168
255
224
168
255
224
168
255
224
168
255
224
168
255
224
168
255
224
168
255
224
168
255
224
168
255
224
168
255
224
168
255
224
168
255
224
168
255
224
168
255
224
168
255
224
168
255
224
168
255
224
168
255
224
168
255
224
168
255
224
168
255
224
168
255
224
168
255
224
168
255
224
168
255
224
168
255
224
168
255
224
168
255
224
168
255
224
168
255
224
168
255
224
168
255
224
168
255
224
168
255
224
168
255
224
168
255
224
168
255
224
168
255
224
168
255
224
168
255
224
168
255
224
168
255
224
168
255
224
168
255
224
168
255
224
168
255
224
168
255
224
168
255
224
168
255
224
168
255
224
168
255
224
168
255
224
168
255
224
168
255
224
168
255
224
168
255
224
168
255
224
168
255
224
168
255
224
168
255
224
168
255
224
168
255
224
168
255
224
168
255
224
168
255
224
168
255
224
168
255
224
168
255
224
168
255
224
168
255
224
168
255
224
168
255
224
168
255
224
168
255
224
168
255
224
168
255
224
168
255
224
168
255
224
168
255
224
168
255
224
168
255
224
168
255
224
168
255
224
168
255
224
168
255
224
168
255
224
168
255
224
168
255
224
168
255
224
168
255
224
168
255
224
168
255
224
168
255
224
168
255
224
168
255
224
168
255
224
168
255
224
168
255
224
168
255
224
168
255
224
168
255
224
168
255
224
168
255
224
168
255
224
168
255
224
168
255
224
168
255
224
168
255
224
168
255
224
168
255
224
168
255
224
168
255
224
168
255
224
168
255
224
168
255
224
168
255
224
168
255
224
168
255
224
168
255
224
168
255
224
168
255
224
168
255
224
168
255
224
168
255
224
168
255
224
168
255
224
168
255
224
168
255
224
168
255
224
168
255
224
168
255
224
168
255
224
168
255
224
168
255
224
168
255
224
168
255
224
168
255
224
168
255
224
168
255
224
168
255
224
168
255
224
168
255
224
168
255
224
168
255
224
168
255
224
168
255
224
168
255
224
168
255
224
168
255
224
168
255
224
168
255
224
168
255
224
168
255
224
168
255
224
168
255
224
168
255
224
168
255
224
168
255
224
168
255
224
168
255
224
168
255
224
168
255
224
168
255
224
168
255
224
168
255
224
168
255
224
168
255
224
168
255
224
168
255
224
168
255
224
168
255
224
168
255
224
168
255
224
168
255
224
168
255
224
168
255
224
168
255
224
168
255
224
168
255
224
168
255
224
168
255
224
168
255
224
168
255
224
168
255
224
168
255
224
168
255
224
168
255
224
168
255
224
168
255
224
168
255
224
168
255
224
168
255
224
168
255
224
168
255
224
168
255
224
168
255
224
168
255
224
168
255
224
168
255
224
168
255
224
168
255
224
168
255
224
168
255
224
168
255
224
168
255
224
168
255
224
168
255
224
168
255
224
168
255
224
168
255
224
168
255
224
168
255
224
168
255
224
168
255
224
168
255
224
168
255
224
168
255
224
168
255
224
168
255
224
168
255
224
168
255
224
168
255
224
168
255
224
168
255
224
168
255
224
168
255
224
168
255
224
168
255
224
168
255
224
168
255
224
168
255
224
168
255
224
168
255
224
168
255
224
168
255
224
168
255
224
168
255
224
168
255
224
168
255
224
168
255
224
168
255
224
168
255
224
168
255
224
168
255
224
168
255
224
168
255
224
168
255
224
168
255
224
168
255
224
168
255
224
168
255
224
168
255
224
168
255
224
168
255
224
168
255
224
168
255
224
168
255
224
168
255
224
168
255
224
168
255
224
168
255
224
168
255
224
168
255
224
168
255
224
168
255
224
168
255
224
168
255
224
168
255
224
168
255
224
168
255
224
168
255
224
168
255
224
168
255
224
168
255
224
168
255
224
168
255
224
168
255
224
168
255
224
168
255
224
168
255
224
168
255
224
168
255
224
168
255
224
168
255
224
168
255
224
168
255
224
168
255
224
168
255
224
168
255
224
168
255
224
168
255
224
168
255
224
168
255
224
168
255
224
168
255
224
168
255
224
168
255
224
168
255
224
168
255
224
168
255
224
168
255
224
168
255
224
168
255
224
168
255
224
168
255
224
168
255
224
168
255
224
168
255
224
168
255
224
168
255
224
168
255
224
168
255
224
168
255
224
168
255
224
168
255
224
168
255
224
168
255
224
168
255
224
168
255
224
168
255
224
168
255
224
168
255
224
168
255
224
168
255
224
168
255
224
168
255
224
168
255
224
168
255
224
168
255
224
168
255
224
168
255
224
168
255
224
168
255
224
168
255
224
168
255
224
168
255
224
168
255
224
168
255
224
168
255
224
168
255
224
168
255
224
168
255
224
168
255
224
168
255
224
168
255
224
168
255
224
168
255
224
168
255
224
168
255
224
168
255
224
168
255
224
168
255
224
168
255
224
168
255
224
168
255
224
168
255
224
168
255
224
168
255
224
168
255
224
168
255
224
168
255
224
168
255
224
168
255
224
168
255
224
168
255
224
168
255
224
168
255
224
168
255
224
168
255
224
168
255
224
168
255
224
168
255
224
168
255
224
168
255
224
168
255
224
168
255
224
168
255
224
168
255
224
168
255
224
168
255
224
168
255
224
168
255
224
168
255
224
168
255
224
168
255
224
168
255
224
168
255
224
168
255
224
168
255
224
168
255
224
168
255
224
168
255
224
168
255
224
168
255
224
168
255
224
168
255
224
168
255
224
168
255
224
168
255
224
168
255
224
168
255
224
168
255
224
168
255
224
168
255
224
168
255
224
168
255
224
168
255
224
168
255
224
168
255
224
168
255
224
168
255
224
168
255
224
168
255
224
168
255
224
168
255
224
168
255
224
168
255
224
168
255
224
168
255
224
168
255
224
168
255
224
168
255
224
168
255
224
168
255
224
168
255
224
168
255
224
168
255
224
168
255
224
168
255
224
168
255
224
168
255
224
168
255
224
168
255
224
168
255
224
168
255
224
168
255
224
168
255
224
168
255
224
168
255
224
168
255
224
168
255
224
168
255
224
168
255
224
168
255
224
168
255
224
168
255
224
168
255
224
168
255
224
168
255
224
168
255
224
168
255
224
168
255
224
168
255
224
168
255
224
168
255
224
168
255
224
168
255
224
168
255
224
168
255
224
168
255
224
168
255
224
168
255
224
168
255
224
168
255
224
168
255
224
168
255
224
168
255
224
168
255
224
168
255
224
168
255
224
168
255
224
168
255
224
168
248
56
0
248
56
0
248
56
0
248
56
0
248
56
0
255
224
168
255
224
168
255
224
168
255
224
168
255
224
168
255
224
168
255
224
168
255
224
168
255
224
168
255
224
168
255
224
168
255
224
168
255
224
168
255
224
168
255
224
168
255
224
168
255
224
168
255
224
168
255
224
168
255
224
168
255
224
168
255
224
168
255
224
168
255
224
168
255
224
168
255
224
168
255
224
168
255
224
168
255
224
168
255
224
168
255
224
168
255
224
168
255
224
168
255
224
168
255
224
168
255
224
168
255
224
168
255
224
168
255
224
168
255
224
168
255
224
168
255
224
168
255
224
168
255
224
168
255
224
168
255
224
168
248
56
0
248
56
0
248
56
0
248
56
0
248
56
0
255
224
168
255
224
168
255
224
168
255
224
168
255
224
168
255
224
168
255
224
168
255
224
168
255
224
168
255
224
168
255
224
168
255
224
168
255
224
168
255
224
168
255
224
168
255
224
168
255
224
168
255
224
168
255
224
168
255
224
168
255
224
168
248
56
0
248
56
0
248
56
0
248
56
0
248
56
0
255
224
168
255
224
168
255
224
168
255
224
168
255
224
168
255
224
168
255
224
168
255
224
168
255
224
168
255
224
168
255
224
168
255
224
168
255
224
168
255
224
168
255
224
168
255
224
168
255
224
168
255
224
168
255
224
168
255
224
168
248
56
0
248
56
0
248
56
0
248
56
0
248
56
0
255
224
168
255
224
168
255
224
168
255
224
168
255
224
168
255
224
168
255
224
168
255
224
168
255
224
168
255
224
168
255
224
168
255
224
168
255
224
168
255
224
168
255
224
168
255
224
168
255
224
168
255
224
168
255
224
168
248
56
0
248
56
0
248
56
0
248
56
0
248
56
0
255
224
168
255
224
168
255
224
168
255
224
168
255
224
168
255
224
168
255
224
168
255
224
168
255
224
168
255
224
168
255
224
168
255
224
168
255
224
168
255
224
168
255
224
168
255
224
168
255
224
168
255
224
168
255
224
168
255
224
168
248
56
0
248
56
0
248
56
0
248
56
0
248
56
0
255
224
168
255
224
168
255
224
168
255
224
168
255
224
168
255
224
168
255
224
168
255
224
168
255
224
168
255
224
168
255
224
168
255
224
168
255
224
168
255
224
168
255
224
168
255
224
168
255
224
168
255
224
168
255
224
168
255
224
168
255
224
168
255
224
168
255
224
168
248
56
0
248
56
0
248
56
0
248
56
0
248
56
0
255
224
168
255
224
168
255
224
168
255
224
168
255
224
168
255
224
168
255
224
168
255
224
168
255
224
168
255
224
168
255
224
168
255
224
168
255
224
168
255
224
168
255
224
168
255
224
168
255
224
168
255
224
168
255
224
168
255
224
168
255
224
168
255
224
168
255
224
168
255
224
168
255
224
168
255
224
168
255
224
168
248
56
0
248
56
0
248
56
0
248
56
0
248
56
0
255
224
168
255
224
168
255
224
168
255
224
168
255
224
168
255
224
168
255
224
168
255
224
168
255
224
168
255
224
168
255
224
168
255
224
168
255
224
168
255
224
168
255
224
168
255
224
168
255
224
168
255
224
168
255
224
168
255
224
168
255
224
168
255
224
168
255
224
168
248
56
0
248
56
0
248
56
0
248
56
0
248
56
0
255
224
168
255
224
168
255
224
168
255
224
168
255
224
168
255
224
168
255
224
168
255
224
168
255
224
168
255
224
168
255
224
168
255
224
168
255
224
168
255
224
168
255
224
168
255
224
168
255
224
168
255
224
168
255
224
168
255
224
168
248
56
0
248
56
0
248
56
0
248
56
0
248
56
0
255
224
168
255
224
168
255
224
168
255
224
168
255
224
168
255
224
168
255
224
168
255
224
168
255
224
168
255
224
168
255
224
168
255
224
168
255
224
168
255
224
168
255
224
168
255
224
168
255
224
168
255
224
168
255
224
168
248
56
0
248
56
0
248
56
0
248
56
0
248
56
0
255
224
168
255
224
168
255
224
168
255
224
168
255
224
168
255
224
168
255
224
168
255
224
168
255
224
168
255
224
168
255
224
168
255
224
168
255
224
168
255
224
168
255
224
168
255
224
168
255
224
168
255
224
168
255
224
168
255
224
168
248
56
0
248
56
0
248
56
0
248
56
0
248
56
0
255
224
168
255
224
168
255
224
168
255
224
168
255
224
168
255
224
168
255
224
168
255
224
168
255
224
168
255
224
168
255
224
168
255
224
168
255
224
168
255
224
168
255
224
168
255
224
168
255
224
168
255
224
168
255
224
168
255
224
168
255
224
168
248
56
0
248
56
0
248
56
0
248
56
0
248
56
0
255
224
168
255
224
168
255
224
168
255
224
168
255
224
168
255
224
168
255
224
168
255
224
168
255
224
168
255
224
168
255
224
168
255
224
168
255
224
168
255
224
168
255
224
168
255
224
168
255
224
168
255
224
168
255
224
168
255
224
168
255
224
168
255
224
168
255
224
168
255
224
168
255
224
168
255
224
168
255
224
168
255
224
168
255
224
168
255
224
168
255
224
168
255
224
168
255
224
168
255
224
168
255
224
168
255
224
168
255
224
168
255
224
168
255
224
168
255
224
168
255
224
168
255
224
168
255
224
168
255
224
168
255
224
168
255
224
168
248
56
0
248
56
0
248
56
0
248
56
0
248
56
0
255
224
168
255
224
168
255
224
168
255
224
168
255
224
168
255
224
168
255
224
168
255
224
168
255
224
168
255
224
168
255
160
68
248
56
0
248
56
0
248
56
0
248
56
0
248
56
0
248
56
0
255
224
168
255
224
168
255
224
168
255
224
168
255
224
168
255
224
168
255
224
168
255
224
168
255
224
168
255
224
168
255
224
168
255
224
168
255
224
168
255
224
168
255
224
168
255
224
168
255
224
168
255
224
168
255
224
168
255
224
168
248
56
0
248
56
0
248
56
0
248
56
0
248
56
0
255
224
168
255
224
168
255
224
168
255
224
168
255
224
168
255
224
168
255
224
168
255
224
168
255
224
168
255
224
168
255
224
168
255
224
168
255
224
168
255
224
168
255
224
168
255
224
168
255
224
168
255
224
168
255
224
168
255
160
68
248
56
0
248
56
0
248
56
0
248
56
0
248
56
0
248
56
0
255
224
168
255
224
168
255
224
168
255
224
168
255
224
168
255
224
168
255
224
168
255
224
168
255
224
168
255
224
168
255
224
168
255
224
168
255
224
168
255
224
168
255
224
168
255
224
168
255
224
168
255
224
168
255
224
168
255
160
68
248
56
0
248
56
0
248
56
0
248
56
0
248
56
0
248
56
0
255
224
168
255
224
168
255
224
168
255
224
168
255
224
168
255
224
168
255
224
168
255
224
168
255
224
168
255
224
168
255
224
168
255
224
168
255
224
168
255
224
168
255
224
168
255
224
168
255
224
168
255
224
168
255
160
68
248
56
0
248
56
0
248
56
0
248
56
0
248
56
0
248
56
0
255
224
168
255
224
168
255
224
168
255
224
168
255
224
168
255
224
168
255
224
168
255
224
168
255
224
168
255
224
168
255
224
168
255
224
168
255
224
168
255
224
168
255
224
168
255
224
168
255
224
168
255
160
68
248
56
0
248
56
0
248
56
0
248
56
0
248
56
0
248
56
0
255
224
168
255
224
168
255
224
168
255
224
168
255
224
168
255
224
168
255
224
168
255
224
168
255
224
168
255
224
168
255
224
168
255
224
168
255
224
168
255
224
168
255
224
168
255
224
168
255
224
168
255
224
168
255
160
68
248
56
0
248
56
0
248
56
0
248
56
0
248
56
0
248
56
0
255
224
168
255
224
168
255
224
168
255
224
168
255
224
168
255
224
168
255
224
168
255
224
168
255
224
168
255
224
168
255
224
168
255
224
168
255
224
168
255
224
168
255
224
168
255
224
168
255
224
168
255
224
168
255
224
168
255
224
168
255
224
168
255
160
68
248
56
0
248
56
0
248
56
0
248
56
0
248
56
0
248
56
0
255
224
168
255
224
168
255
224
168
255
224
168
255
224
168
255
224
168
255
224
168
255
224
168
255
224
168
255
224
168
255
224
168
255
224
168
255
224
168
255
224
168
255
224
168
255
224
168
255
224
168
255
224
168
255
224
168
255
224
168
255
224
168
255
224
168
255
224
168
248
56
0
248
56
0
248
56
0
248
56
0
248
56
0
248
56
0
255
160
68
255
224
168
255
224
168
255
224
168
255
224
168
255
224
168
255
224
168
255
224
168
255
224
168
255
224
168
255
224
168
255
224
168
255
224
168
255
224
168
255
224
168
255
224
168
255
224
168
255
224
168
255
224
168
255
224
168
255
224
168
255
224
168
248
56
0
248
56
0
248
56
0
248
56
0
248
56
0
248
56
0
255
160
68
255
224
168
255
224
168
255
224
168
255
224
168
255
224
168
255
224
168
255
224
168
255
224
168
255
224
168
255
224
168
255
224
168
255
224
168
255
224
168
255
224
168
255
224
168
255
224
168
255
224
168
255
224
168
248
56
0
248
56
0
248
56
0
248
56
0
248
56
0
248
56
0
255
160
68
255
224
168
255
224
168
255
224
168
255
224
168
255
224
168
255
224
168
255
224
168
255
224
168
255
224
168
255
224
168
255
224
168
255
224
168
255
224
168
255
224
168
255
224
168
255
224
168
255
224
168
248
56
0
248
56
0
248
56
0
248
56
0
248
56
0
248
56
0
255
160
68
255
224
168
255
224
168
255
224
168
255
224
168
255
224
168
255
224
168
255
224
168
255
224
168
255
224
168
255
224
168
255
224
168
255
224
168
255
224
168
255
224
168
255
224
168
255
224
168
255
224
168
255
224
168
248
56
0
248
56
0
248
56
0
248
56
0
248
56
0
248
56
0
255
160
68
255
224
168
255
224
168
255
224
168
255
224
168
255
224
168
255
224
168
255
224
168
255
224
168
255
224
168
255
224
168
255
224
168
255
224
168
255
224
168
255
224
168
255
224
168
255
224
168
255
224
168
255
224
168
255
224
168
248
56
0
248
56
0
248
56
0
248
56
0
248
56
0
248
56
0
255
160
68
255
224
168
255
224
168
255
224
168
255
224
168
255
224
168
255
224
168
255
224
168
255
224
168
255
224
168
255
224
168
255
224
168
255
224
168
255
224
168
255
224
168
255
224
168
255
224
168
255
224
168
255
224
168
255
224
168
248
56
0
248
56
0
248
56
0
248
56
0
248
56
0
255
224
168
255
224
168
255
224
168
255
224
168
255
224
168
255
224
168
255
224
168
255
224
168
255
224
168
255
224
168
255
224
168
255
224
168
255
224
168
255
224
168
255
224
168
255
224
168
255
224
168
255
224
168
255
224
168
255
224
168
248
56
0
248
56
0
248
56
0
248
56
0
248
56
0
248
56
0
255
160
68
255
224
168
255
224
168
255
224
168
255
224
168
255
224
168
255
224
168
255
224
168
255
224
168
255
224
168
255
224
168
255
160
68
255
160
68
248
56
0
248
56
0
248
56
0
248
56
0
248
56
0
248
56
0
255
224
168
255
224
168
255
224
168
255
224
168
255
224
168
255
224
168
255
224
168
255
224
168
255
224
168
255
224
168
255
224
168
255
224
168
255
224
168
255
224
168
255
224
168
255
224
168
255
224
168
255
224
168
255
224
168
255
160
68
248
56
0
248
56
0
248
56
0
248
56
0
248
56
0
248
56
0
255
224
168
255
224
168
255
224
168
255
224
168
255
224
168
255
224
168
255
224
168
255
224
168
255
224
168
255
224
168
255
224
168
255
224
168
255
224
168
255
224
168
255
224
168
255
224
168
255
224
168
255
160
68
255
160
68
248
56
0
248
56
0
248
56
0
248
56
0
248
56
0
248
56
0
255
224
168
255
224
168
255
224
168
255
224
168
255
224
168
255
224
168
255
224
168
255
224
168
255
224
168
255
224
168
255
224
168
255
224
168
255
224
168
255
224
168
255
224
168
255
224
168
255
224
168
255
224
168
255
160
68
255
160
68
248
56
0
248
56
0
248
56
0
248
56
0
248
56
0
248
56
0
255
224
168
255
224
168
255
224
168
255
224
168
255
224
168
255
224
168
255
224
168
255
224
168
255
224
168
255
224
168
255
224
168
255
224
168
255
224
168
255
224
168
255
224
168
255
224
168
255
224
168
255
160
68
255
160
68
248
56
0
248
56
0
248
56
0
248
56
0
248
56
0
248
56
0
255
224
168
255
224
168
255
224
168
255
224
168
255
224
168
255
224
168
255
224
168
255
224
168
255
224
168
255
224
168
255
224
168
255
224
168
255
224
168
255
224
168
255
224
168
255
224
168
255
160
68
255
160
68
248
56
0
248
56
0
248
56
0
248
56
0
248
56
0
248
56
0
255
224
168
255
224
168
255
224
168
255
224
168
255
224
168
255
224
168
255
224
168
255
224
168
255
224
168
255
224
168
255
224
168
255
224
168
255
224
168
255
224
168
255
224
168
255
224
168
255
224
168
255
160
68
255
160
68
248
56
0
248
56
0
248
56
0
248
56
0
248
56
0
248
56
0
255
224
168
255
224
168
255
224
168
255
224
168
255
224
168
255
224
168
255
224
168
255
224
168
255
224
168
255
224
168
255
224
168
255
224
168
255
224
168
255
224
168
255
224
168
255
224
168
255
224
168
255
224
168
255
224
168
255
224
168
255
160
68
255
160
68
248
56
0
248
56
0
248
56
0
248
56
0
248
56
0
248
56
0
255
224
168
255
224
168
255
224
168
255
224
168
255
224
168
255
224
168
255
224
168
255
224
168
255
224
168
255
224
168
255
224
168
255
224
168
255
224
168
255
224
168
255
224
168
255
224
168
255
224
168
255
224
168
255
224
168
255
224
168
255
224
168
248
56
0
248
56
0
248
56
0
248
56
0
248
56
0
248
56
0
255
160
68
255
160
68
255
224
168
255
224
168
255
224
168
255
224
168
255
224
168
255
224
168
255
224
168
255
224
168
255
224
168
255
224
168
255
224
168
255
224
168
255
224
168
255
224
168
255
224
168
255
224
168
255
224
168
255
224
168
255
224
168
255
224
168
248
56
0
248
56
0
248
56
0
248
56
0
248
56
0
248
56
0
255
160
68
255
160
68
255
224
168
255
224
168
255
224
168
255
224
168
255
224
168
255
224
168
255
224
168
255
224
168
255
224
168
255
224
168
255
224
168
255
224
168
255
224
168
255
224
168
255
224
168
255
224
168
255
224
168
248
56
0
248
56
0
248
56
0
248
56
0
248
56
0
248
56
0
255
160
68
255
160
68
255
224
168
255
224
168
255
224
168
255
224
168
255
224
168
255
224
168
255
224
168
255
224
168
255
224
168
255
224
168
255
224
168
255
224
168
255
224
168
255
224
168
255
224
168
255
224
168
248
56
0
248
56
0
248
56
0
248
56
0
248
56
0
248
56
0
255
160
68
255
160
68
255
224
168
255
224
168
255
224
168
255
224
168
255
224
168
255
224
168
255
224
168
255
224
168
255
224
168
255
224
168
255
224
168
255
224
168
255
224
168
255
224
168
255
224
168
255
224
168
255
224
168
248
56
0
248
56
0
248
56
0
248
56
0
248
56
0
248
56
0
255
160
68
255
160
68
255
224
168
255
224
168
255
224
168
255
224
168
255
224
168
255
224
168
255
224
168
255
224
168
255
224
168
255
224
168
255
224
168
255
224
168
255
224
168
255
224
168
255
224
168
255
224
168
255
224
168
255
224
168
248
56
0
248
56
0
248
56
0
248
56
0
248
56
0
248
56
0
255
160
68
255
160
68
255
224
168
255
224
168
255
224
168
255
224
168
255
224
168
255
224
168
255
224
168
255
224
168
255
224
168
255
224
168
255
224
168
255
224
168
255
224
168
255
224
168
255
224
168
255
224
168
255
224
168
248
56
0
248
56
0
248
56
0
248
56
0
248
56
0
248
56
0
255
160
68
255
224
168
255
224
168
255
224
168
255
224
168
255
224
168
255
224
168
255
224
168
255
224
168
255
224
168
255
224
168
255
224
168
255
224
168
255
224
168
255
224
168
255
224
168
255
224
168
255
224
168
255
224
168
255
224
168
248
56
0
248
56
0
248
56
0
248
56
0
248
56
0
248
56
0
255
160
68
255
160
68
255
224
168
255
224
168
255
224
168
255
224
168
255
224
168
255
224
168
255
224
168
248
56
0
248
56
0
248
56
0
248
56
0
248
56
0
248
56
0
248
56
0
248
56
0
248
56
0
248
56
0
248
56
0
255
224
168
255
224
168
255
224
168
255
224
168
255
224
168
255
224
168
255
224
168
255
224
168
255
224
168
255
224
168
255
224
168
255
224
168
255
224
168
255
224
168
255
224
168
255
224
168
255
224
168
255
224
168
255
224
168
255
160
68
255
160
68
248
56
0
248
56
0
248
56
0
248
56
0
248
56
0
248
56
0
255
224
168
255
224
168
255
224
168
255
224
168
255
224
168
255
224
168
255
224
168
255
224
168
255
224
168
255
224
168
255
224
168
255
224
168
255
224
168
248
56
0
248
56
0
248
56
0
248
56
0
248
56
0
248
56
0
248
56
0
248
56
0
248
56
0
248
56
0
248
56
0
255
224
168
255
224
168
255
224
168
255
224
168
255
224
168
255
224
168
255
224
168
255
224
168
255
224
168
255
224
168
255
224
168
255
224
168
255
224
168
255
224
168
255
224
168
248
56
0
248
56
0
248
56
0
248
56
0
248
56
0
248
56
0
248
56
0
248
56
0
248
56
0
248
56
0
248
56
0
255
224
168
255
224
168
255
224
168
255
224
168
255
224
168
255
224
168
255
224
168
255
224
168
255
224
168
255
224
168
255
224
168
255
224
168
255
224
168
255
224
168
248
56
0
248
56
0
248
56
0
248
56
0
248
56
0
248
56
0
248
56
0
248
56
0
248
56
0
248
56
0
248
56
0
255
224
168
255
224
168
255
224
168
255
224
168
255
224
168
255
224
168
255
224
168
255
224
168
255
224
168
255
224
168
255
224
168
255
224
168
255
224
168
248
56
0
248
56
0
248
56
0
248
56
0
248
56
0
248
56
0
248
56
0
248
56
0
248
56
0
248
56
0
248
56
0
255
224
168
255
224
168
255
224
168
255
224
168
255
224
168
255
224
168
255
224
168
255
224
168
255
224
168
255
224
168
255
224
168
255
224
168
255
224
168
255
224
168
248
56
0
248
56
0
248
56
0
248
56
0
248
56
0
248
56
0
248
56
0
248
56
0
248
56
0
248
56
0
248
56
0
255
224
168
255
224
168
255
224
168
255
224
168
255
224
168
255
224
168
255
224
168
255
224
168
255
224
168
255
224
168
255
224
168
255
224
168
255
224
168
255
224
168
255
224
168
255
224
168
255
224
168
248
56
0
248
56
0
248
56
0
248
56
0
248
56
0
248
56
0
248
56
0
248
56
0
248
56
0
248
56
0
248
56
0
255
224
168
255
224
168
255
224
168
255
224
168
255
224
168
255
224
168
255
224
168
255
224
168
255
224
168
255
224
168
255
224
168
255
224
168
255
224
168
255
224
168
255
224
168
255
224
168
255
224
168
255
224
168
255
224
168
255
224
168
255
224
168
248
56
0
248
56
0
248
56
0
248
56
0
248
56
0
248
56
0
248
56
0
248
56
0
248
56
0
248
56
0
248
56
0
255
224
168
255
224
168
255
224
168
255
224
168
255
224
168
255
224
168
255
224
168
255
224
168
255
224
168
255
224
168
255
224
168
255
224
168
255
224
168
255
224
168
255
224
168
255
224
168
255
224
168
248
56
0
248
56
0
248
56
0
248
56
0
248
56
0
248
56
0
248
56
0
248
56
0
248
56
0
248
56
0
248
56
0
255
224
168
255
224
168
255
224
168
255
224
168
255
224
168
255
224
168
255
224
168
255
224
168
255
224
168
255
224
168
255
224
168
255
224
168
255
224
168
255
224
168
248
56
0
248
56
0
248
56
0
248
56
0
248
56
0
248
56
0
248
56
0
248
56
0
248
56
0
248
56
0
248
56
0
255
224
168
255
224
168
255
224
168
255
224
168
255
224
168
255
224
168
255
224
168
255
224
168
255
224
168
255
224
168
255
224
168
255
224
168
255
224
168
248
56
0
248
56
0
248
56
0
248
56
0
248
56
0
248
56
0
248
56
0
248
56
0
248
56
0
248
56
0
248
56
0
255
224
168
255
224
168
255
224
168
255
224
168
255
224
168
255
224
168
255
224
168
255
224
168
255
224
168
255
224
168
255
224
168
255
224
168
255
224
168
255
224
168
248
56
0
248
56
0
248
56
0
248
56
0
248
56
0
248
56
0
248
56
0
248
56
0
248
56
0
248
56
0
248
56
0
255
224
168
255
224
168
255
224
168
255
224
168
255
224
168
255
224
168
255
224
168
255
224
168
255
224
168
255
224
168
255
224
168
255
224
168
255
224
168
255
224
168
255
224
168
248
56
0
248
56
0
248
56
0
248
56
0
248
56
0
248
56
0
248
56
0
248
56
0
248
56
0
248
56
0
248
56
0
255
224
168
255
224
168
255
224
168
255
224
168
255
224
168
255
224
168
255
224
168
255
224
168
255
224
168
255
224
168
255
224
168
255
224
168
255
224
168
248
56
0
248
56
0
248
56
0
248
56
0
248
56
0
248
56
0
255
160
68
255
160
68
255
224
168
255
224
168
255
224
168
255
224
168
255
224
168
255
224
168
255
224
168
255
224
168
255
224
168
255
224
168
255
224
168
255
224
168
255
224
168
255
224
168
255
224
168
255
224
168
255
224
168
255
224
168
255
224
168
248
56
0
248
56
0
248
56
0
248
56
0
248
56
0
248
56
0
248
56
0
248
56
0
248
56
0
248
56
0
248
56
0
255
224
168
255
224
168
255
224
168
255
224
168
255
224
168
255
224
168
255
160
68
255
160
68
255
160
68
172
124
0
255
160
68
255
160
68
172
124
0
172
124
0
172
124
0
255
224
168
255
224
168
255
224
168
255
224
168
255
224
168
255
224
168
255
224
168
255
224
168
255
224
168
255
224
168
255
224
168
255
224
168
255
224
168
255
224
168
255
224
168
255
224
168
248
56
0
248
56
0
248
56
0
248
56
0
248
56
0
248
56
0
248
56
0
248
56
0
248
56
0
248
56
0
248
56
0
255
224
168
255
224
168
255
224
168
255
224
168
255
224
168
255
224
168
255
224
168
255
224
168
255
224
168
255
224
168
255
224
168
255
224
168
255
224
168
255
224
168
255
224
168
255
160
68
255
160
68
255
160
68
172
124
0
255
160
68
255
160
68
172
124
0
172
124
0
172
124
0
255
224
168
255
224
168
255
224
168
255
224
168
255
224
168
255
224
168
255
224
168
255
224
168
255
224
168
255
224
168
255
224
168
255
224
168
255
224
168
255
224
168
255
224
168
255
224
168
255
224
168
255
160
68
255
160
68
255
160
68
172
124
0
255
160
68
255
160
68
172
124
0
172
124
0
172
124
0
255
224
168
255
224
168
255
224
168
255
224
168
255
224
168
255
224
168
255
224
168
255
224
168
255
224
168
255
224
168
255
224
168
255
224
168
255
224
168
255
224
168
255
224
168
255
224
168
255
160
68
255
160
68
255
160
68
172
124
0
255
160
68
255
160
68
172
124
0
172
124
0
172
124
0
255
224
168
255
224
168
255
224
168
255
224
168
255
224
168
255
224
168
255
224
168
255
224
168
255
224
168
255
224
168
255
224
168
255
224
168
255
224
168
255
224
168
255
224
168
255
160
68
255
160
68
255
160
68
172
124
0
255
160
68
255
160
68
172
124
0
172
124
0
172
124
0
255
224
168
255
224
168
255
224
168
255
224
168
255
224
168
255
224
168
255
224
168
255
224
168
255
224
168
255
224
168
255
224
168
255
224
168
255
224
168
255
224
168
255
224
168
255
224
168
255
160
68
255
160
68
255
160
68
172
124
0
255
160
68
255
160
68
172
124
0
172
124
0
172
124
0
255
224
168
255
224
168
255
224
168
255
224
168
255
224
168
255
224
168
255
224
168
255
224
168
255
224
168
255
224
168
255
224
168
255
224
168
255
224
168
255
224
168
255
224
168
255
224
168
255
224
168
255
224
168
255
224
168
255
160
68
255
160
68
255
160
68
172
124
0
255
160
68
255
160
68
172
124
0
172
124
0
172
124
0
255
224
168
255
224
168
255
224
168
255
224
168
255
224
168
255
224
168
255
224
168
255
224
168
255
224
168
255
224
168
255
224
168
255
224
168
255
224
168
255
224
168
255
224
168
255
224
168
255
224
168
255
224
168
255
224
168
255
224
168
255
224
168
172
124
0
172
124
0
172
124
0
255
160
68
255
160
68
172
124
0
255
160
68
255
160
68
255
160
68
255
224
168
255
224
168
255
224
168
255
224
168
255
224
168
255
224
168
255
224
168
255
224
168
255
224
168
255
224
168
255
224
168
255
224
168
255
224
168
255
224
168
255
224
168
255
224
168
255
224
168
255
224
168
255
224
168
172
124
0
172
124
0
172
124
0
255
160
68
255
160
68
172
124
0
255
160
68
255
160
68
255
160
68
255
224
168
255
224
168
255
224
168
255
224
168
255
224
168
255
224
168
255
224
168
255
224
168
255
224
168
255
224
168
255
224
168
255
224
168
255
224
168
255
224
168
255
224
168
255
224
168
172
124
0
172
124
0
172
124
0
255
160
68
255
160
68
172
124
0
255
160
68
255
160
68
255
160
68
255
224
168
255
224
168
255
224
168
255
224
168
255
224
168
255
224
168
255
224
168
255
224
168
255
224
168
255
224
168
255
224
168
255
224
168
255
224
168
255
224
168
255
224
168
172
124
0
172
124
0
172
124
0
255
160
68
255
160
68
172
124
0
255
160
68
255
160
68
255
160
68
255
224
168
255
224
168
255
224
168
255
224
168
255
224
168
255
224
168
255
224
168
255
224
168
255
224
168
255
224
168
255
224
168
255
224
168
255
224
168
255
224
168
255
224
168
255
224
168
172
124
0
172
124
0
172
124
0
255
160
68
255
160
68
172
124
0
255
160
68
255
160
68
255
160
68
255
224
168
255
224
168
255
224
168
255
224
168
255
224
168
255
224
168
255
224
168
255
224
168
255
224
168
255
224
168
255
224
168
255
224
168
255
224
168
255
224
168
255
224
168
255
224
168
255
224
168
172
124
0
172
124
0
172
124
0
255
160
68
255
160
68
172
124
0
255
160
68
255
160
68
255
160
68
255
224
168
255
224
168
255
224
168
255
224
168
255
224
168
255
224
168
255
224
168
255
224
168
255
224
168
255
224
168
255
224
168
255
224
168
255
224
168
255
224
168
255
224
168
248
56
0
248
56
0
248
56
0
248
56
0
248
56
0
248
56
0
248
56
0
248
56
0
248
56
0
248
56
0
248
56
0
255
224
168
255
224
168
255
224
168
255
224
168
255
224
168
255
224
168
255
224
168
255
224
168
255
224
168
255
224
168
255
224
168
255
224
168
255
224
168
255
224
168
255
224
168
255
224
168
172
124
0
172
124
0
172
124
0
255
160
68
255
160
68
172
124
0
255
160
68
255
160
68
255
160
68
255
224
168
255
224
168
255
224
168
255
224
168
255
224
168
255
224
168
255
160
68
255
160
68
255
160
68
255
160
68
172
124
0
172
124
0
255
160
68
255
160
68
172
124
0
255
160
68
255
160
68
172
124
0
255
224
168
255
224
168
255
224
168
255
224
168
255
224
168
255
224
168
255
224
168
255
224
168
255
224
168
255
224
168
255
224
168
255
224
168
255
224
168
255
224
168
255
224
168
255
224
168
255
224
168
255
160
68
255
160
68
255
160
68
172
124
0
255
160
68
255
160
68
172
124
0
172
124
0
172
124
0
255
224
168
255
224
168
255
224
168
255
224
168
255
224
168
255
224
168
255
224
168
255
224
168
255
224
168
255
224
168
255
224
168
255
224
168
255
224
168
255
160
68
255
160
68
255
160
68
255
160
68
172
124
0
172
124
0
255
160
68
255
160
68
172
124
0
255
160
68
255
160
68
172
124
0
255
224
168
255
224
168
255
224
168
255
224
168
255
224
168
255
224
168
255
224
168
255
224
168
255
224
168
255
224
168
255
224
168
255
224
168
255
224
168
255
224
168
255
160
68
255
160
68
255
160
68
255
160
68
172
124
0
172
124
0
255
160
68
255
160
68
172
124
0
255
160
68
255
160
68
172
124
0
255
224
168
255
224
168
255
224
168
255
224
168
255
224
168
255
224
168
255
224
168
255
224
168
255
224
168
255
224
168
255
224
168
255
224
168
255
224
168
255
160
68
255
160
68
255
160
68
255
160
68
172
124
0
172
124
0
255
160
68
255
160
68
172
124
0
255
160
68
255
160
68
172
124
0
255
224
168
255
224
168
255
224
168
255
224
168
255
224
168
255
224
168
255
224
168
255
224
168
255
224
168
255
224
168
255
224
168
255
224
168
255
160
68
255
160
68
255
160
68
255
160
68
172
124
0
172
124
0
255
160
68
255
160
68
172
124
0
255
160
68
255
160
68
172
124
0
255
224
168
255
224
168
255
224
168
255
224
168
255
224
168
255
224
168
255
224
168
255
224
168
255
224
168
255
224
168
255
224
168
255
224
168
255
224
168
255
160
68
255
160
68
255
160
68
255
160
68
172
124
0
172
124
0
255
160
68
255
160
68
172
124
0
255
160
68
255
160
68
172
124
0
255
224
168
255
224
168
255
224
168
255
224
168
255
224
168
255
224
168
255
224
168
255
224
168
255
224
168
255
224
168
255
224
168
255
224
168
255
224
168
255
224
168
255
224
168
255
224
168
255
160
68
255
160
68
255
160
68
255
160
68
172
124
0
172
124
0
255
160
68
255
160
68
172
124
0
255
160
68
255
160
68
172
124
0
255
224
168
255
224
168
255
224
168
255
224
168
255
224
168
255
224
168
255
224
168
255
224
168
255
224
168
255
224
168
255
224
168
255
224
168
255
224
168
255
224
168
255
224
168
255
224
168
255
224
168
255
224
168
255
224
168
172
124
0
255
160
68
255
160
68
172
124
0
255
160
68
255
160
68
172
124
0
172
124
0
255
160
68
255
160
68
255
160
68
255
160
68
255
224
168
255
224
168
255
224
168
255
224
168
255
224
168
255
224
168
255
224
168
255
224
168
255
224
168
255
224
168
255
224
168
255
224
168
255
224
168
255
224
168
255
224
168
255
224
168
172
124
0
255
160
68
255
160
68
172
124
0
255
160
68
255
160
68
172
124
0
172
124
0
255
160
68
255
160
68
255
160
68
255
160
68
255
224
168
255
224
168
255
224
168
255
224
168
255
224
168
255
224
168
255
224
168
255
224
168
255
224
168
255
224
168
255
224
168
255
224
168
255
224
168
172
124
0
255
160
68
255
160
68
172
124
0
255
160
68
255
160
68
172
124
0
172
124
0
255
160
68
255
160
68
255
160
68
255
160
68
255
224
168
255
224
168
255
224
168
255
224
168
255
224
168
255
224
168
255
224
168
255
224
168
255
224
168
255
224
168
255
224
168
255
224
168
172
124
0
255
160
68
255
160
68
172
124
0
255
160
68
255
160
68
172
124
0
172
124
0
255
160
68
255
160
68
255
160
68
255
160
68
255
224
168
255
224
168
255
224
168
255
224
168
255
224
168
255
224
168
255
224
168
255
224
168
255
224
168
255
224
168
255
224
168
255
224
168
255
224
168
172
124
0
255
160
68
255
160
68
172
124
0
255
160
68
255
160
68
172
124
0
172
124
0
255
160
68
255
160
68
255
160
68
255
160
68
255
224
168
255
224
168
255
224
168
255
224
168
255
224
168
255
224
168
255
224
168
255
224
168
255
224
168
255
224
168
255
224
168
255
224
168
255
224
168
255
224
168
172
124
0
255
160
68
255
160
68
172
124
0
255
160
68
255
160
68
172
124
0
172
124
0
255
160
68
255
160
68
255
160
68
255
160
68
255
224
168
255
224
168
255
224
168
255
224
168
255
224
168
255
224
168
255
224
168
255
224
168
255
224
168
255
224
168
255
224
168
255
224
168
255
224
168
172
124
0
172
124
0
172
124
0
255
160
68
255
160
68
172
124
0
255
160
68
255
160
68
255
160
68
255
224
168
255
224
168
255
224
168
255
224
168
255
224
168
255
224
168
255
224
168
255
224
168
255
224
168
255
224
168
255
224
168
255
224
168
255
224
168
255
224
168
255
224
168
255
224
168
255
224
168
172
124
0
255
160
68
255
160
68
172
124
0
255
160
68
255
160
68
172
124
0
172
124
0
255
160
68
255
160
68
255
160
68
255
160
68
255
224
168
255
224
168
255
224
168
255
160
68
255
160
68
255
160
68
255
160
68
255
160
68
255
160
68
255
160
68
255
160
68
172
124
0
172
124
0
255
160
68
255
160
68
172
124
0
255
224
168
255
224
168
255
224
168
255
224
168
255
224
168
255
224
168
255
224
168
255
224
168
255
224
168
255
224
168
255
224
168
255
224
168
255
224
168
255
224
168
255
224
168
255
160
68
255
160
68
255
160
68
255
160
68
172
124
0
172
124
0
255
160
68
255
160
68
172
124
0
255
160
68
255
160
68
172
124
0
255
224
168
255
224
168
255
224
168
255
224
168
255
224
168
255
224
168
255
224
168
255
224
168
255
224
168
255
224
168
255
224
168
255
160
68
255
160
68
255
160
68
255
160
68
255
160
68
255
160
68
255
160
68
255
160
68
172
124
0
172
124
0
255
160
68
255
160
68
172
124
0
255
224
168
255
224
168
255
224
168
255
224
168
255
224
168
255
224
168
255
224
168
255
224
168
255
224
168
255
224
168
255
224
168
255
224
168
255
224
168
255
160
68
255
160
68
255
160
68
255
160
68
255
160
68
255
160
68
255
160
68
255
160
68
172
124
0
172
124
0
255
160
68
255
160
68
172
124
0
255
224
168
255
224
168
255
224
168
255
224
168
255
224
168
255
224
168
255
224
168
255
224
168
255
224
168
255
224
168
255
224
168
255
224
168
255
160
68
255
160
68
255
160
68
255
160
68
255
160
68
255
160
68
255
160
68
255
160
68
172
124
0
172
124
0
255
160
68
255
160
68
172
124
0
255
224
168
255
224
168
255
224
168
255
224
168
255
224
168
255
224
168
255
224
168
255
224
168
255
224
168
255
224
168
255
224
168
255
160
68
255
160
68
255
160
68
255
160
68
255
160
68
255
160
68
255
160
68
255
160
68
172
124
0
172
124
0
255
160
68
255
160
68
172
124
0
255
224
168
255
224
168
255
224
168
255
224
168
255
224
168
255
224
168
255
224
168
255
224
168
255
224
168
255
224
168
255
224
168
255
224
168
255
160
68
255
160
68
255
160
68
255
160
68
255
160
68
255
160
68
255
160
68
255
160
68
172
124
0
172
124
0
255
160
68
255
160
68
172
124
0
255
224
168
255
224
168
255
224
168
255
224
168
255
224
168
255
224
168
255
224
168
255
224
168
255
224
168
255
224
168
255
224
168
255
224
168
255
224
168
255
224
168
255
224
168
255
160
68
255
160
68
255
160
68
255
160
68
255
160
68
255
160
68
255
160
68
255
160
68
172
124
0
172
124
0
255
160
68
255
160
68
172
124
0
255
224
168
255
224
168
255
224
168
255
224
168
255
224
168
255
224
168
255
224
168
255
224
168
255
224
168
255
224
168
255
224
168
255
224
168
255
224
168
255
224
168
255
224
168
255
224
168
255
224
168
255
224
168
255
224
168
172
124
0
255
160
68
255
160
68
172
124
0
172
124
0
255
160
68
255
160
68
255
160
68
255
160
68
255
160
68
255
160
68
255
160
68
255
160
68
255
224
168
255
224
168
255
224
168
255
224
168
255
224
168
255
224
168
255
224
168
255
224
168
255
224
168
255
224
168
255
224
168
255
224
168
255
224
168
255
224
168
255
224
168
172
124
0
255
160
68
255
160
68
172
124
0
172
124
0
255
160
68
255
160
68
255
160
68
255
160
68
255
160
68
255
160
68
255
160
68
255
160
68
255
224
168
255
224
168
255
224
168
255
224
168
255
224
168
255
224
168
255
224
168
255
224
168
255
224
168
255
224
168
255
224
168
255
224
168
172
124
0
255
160
68
255
160
68
172
124
0
172
124
0
255
160
68
255
160
68
255
160
68
255
160
68
255
160
68
255
160
68
255
160
68
255
160
68
255
224
168
255
224
168
255
224
168
255
224
168
255
224
168
255
224
168
255
224
168
255
224
168
255
224
168
255
224
168
255
224
168
172
124
0
255
160
68
255
160
68
172
124
0
172
124
0
255
160
68
255
160
68
255
160
68
255
160
68
255
160
68
255
160
68
255
160
68
255
160
68
255
224
168
255
224
168
255
224
168
255
224
168
255
224
168
255
224
168
255
224
168
255
224
168
255
224
168
255
224
168
255
224
168
255
224
168
172
124
0
255
160
68
255
160
68
172
124
0
172
124
0
255
160
68
255
160
68
255
160
68
255
160
68
255
160
68
255
160
68
255
160
68
255
160
68
255
224
168
255
224
168
255
224
168
255
224
168
255
224
168
255
224
168
255
224
168
255
224
168
255
224
168
255
224
168
255
224
168
255
224
168
255
224
168
172
124
0
255
160
68
255
160
68
172
124
0
172
124
0
255
160
68
255
160
68
255
160
68
255
160
68
255
160
68
255
160
68
255
160
68
255
160
68
255
224
168
255
224
168
255
224
168
255
224
168
255
224
168
255
224
168
255
224
168
255
224
168
255
224
168
255
224
168
255
224
168
172
124
0
255
160
68
255
160
68
172
124
0
255
160
68
255
160
68
172
124
0
172
124
0
255
160
68
255
160
68
255
160
68
255
160
68
255
224
168
255
224
168
255
224
168
255
224
168
255
224
168
255
224
168
255
224
168
255
224
168
255
224
168
255
224
168
255
224
168
255
224
168
255
224
168
255
224
168
255
224
168
172
124
0
255
160
68
255
160
68
172
124
0
172
124
0
255
160
68
255
160
68
255
160
68
255
160
68
255
160
68
255
160
68
255
160
68
255
160
68
255
224
168
255
224
168
255
160
68
255
160
68
255
160
68
255
160
68
172
124
0
255
160
68
255
160
68
255
160
68
172
124
0
172
124
0
255
160
68
255
160
68
172
124
0
172
124
0
255
224
168
255
224
168
255
224
168
255
224
168
255
224
168
255
224
168
255
224
168
255
224
168
255
224
168
255
224
168
255
224
168
255
224
168
255
224
168
255
160
68
255
160
68
255
160
68
255
160
68
255
160
68
255
160
68
255
160
68
255
160
68
172
124
0
172
124
0
255
160
68
255
160
68
172
124
0
255
224
168
255
224
168
255
224
168
255
224
168
255
224
168
255
224
168
255
224
168
255
224
168
255
224
168
255
224
168
255
224
168
255
160
68
255
160
68
255
160
68
255
160
68
172
124
0
255
160
68
255
160
68
255
160
68
172
124
0
172
124
0
255
160
68
255
160
68
172
124
0
172
124
0
255
224
168
255
224
168
255
224
168
255
224
168
255
224
168
255
224
168
255
224
168
255
224
168
255
224
168
255
224
168
255
224
168
255
224
168
255
160
68
255
160
68
255
160
68
255
160
68
172
124
0
255
160
68
255
160
68
255
160
68
172
124
0
172
124
0
255
160
68
255
160
68
172
124
0
172
124
0
255
224
168
255
224
168
255
224
168
255
224
168
255
224
168
255
224
168
255
224
168
255
224
168
255
224
168
255
224
168
255
224
168
255
160
68
255
160
68
255
160
68
255
160
68
172
124
0
255
160
68
255
160
68
255
160
68
172
124
0
172
124
0
255
160
68
255
160
68
172
124
0
172
124
0
255
224
168
255
224
168
255
224
168
255
224
168
255
224
168
255
224
168
255
224
168
255
224
168
255
224
168
255
224
168
255
160
68
255
160
68
255
160
68
255
160
68
172
124
0
255
160
68
255
160
68
255
160
68
172
124
0
172
124
0
255
160
68
255
160
68
172
124
0
172
124
0
255
224
168
255
224
168
255
224
168
255
224
168
255
224
168
255
224
168
255
224
168
255
224
168
255
224
168
255
224
168
255
224
168
255
160
68
255
160
68
255
160
68
255
160
68
172
124
0
255
160
68
255
160
68
255
160
68
172
124
0
172
124
0
255
160
68
255
160
68
172
124
0
172
124
0
255
224
168
255
224
168
255
224
168
255
224
168
255
224
168
255
224
168
255
224
168
255
224
168
255
224
168
255
224
168
255
224
168
255
224
168
255
224
168
255
224
168
255
160
68
255
160
68
255
160
68
255
160
68
172
124
0
255
160
68
255
160
68
255
160
68
172
124
0
172
124
0
255
160
68
255
160
68
172
124
0
172
124
0
255
224
168
255
224
168
255
224
168
255
224
168
255
224
168
255
224
168
255
224
168
255
224
168
255
224
168
255
224
168
255
224
168
255
224
168
255
224
168
255
224
168
255
224
168
255
224
168
255
224
168
172
124
0
172
124
0
255
160
68
255
160
68
172
124
0
172
124
0
255
160
68
255
160
68
255
160
68
172
124
0
255
160
68
255
160
68
255
160
68
255
160
68
255
224
168
255
224
168
255
224
168
255
224
168
255
224
168
255
224
168
255
224
168
255
224
168
255
224
168
255
224
168
255
224
168
255
224
168
255
224
168
255
224
168
172
124
0
172
124
0
255
160
68
255
160
68
172
124
0
172
124
0
255
160
68
255
160
68
255
160
68
172
124
0
255
160
68
255
160
68
255
160
68
255
160
68
255
224
168
255
224
168
255
224
168
255
224
168
255
224
168
255
224
168
255
224
168
255
224
168
255
224
168
255
224
168
255
224
168
172
124
0
172
124
0
255
160
68
255
160
68
172
124
0
172
124
0
255
160
68
255
160
68
255
160
68
172
124
0
255
160
68
255
160
68
255
160
68
255
160
68
255
224
168
255
224
168
255
224
168
255
224
168
255
224
168
255
224
168
255
224
168
255
224
168
255
224
168
255
224
168
172
124
0
172
124
0
255
160
68
255
160
68
172
124
0
172
124
0
255
160
68
255
160
68
255
160
68
172
124
0
255
160
68
255
160
68
255
160
68
255
160
68
255
224
168
255
224
168
255
224
168
255
224
168
255
224
168
255
224
168
255
224
168
255
224
168
255
224
168
255
224
168
255
224
168
172
124
0
172
124
0
255
160
68
255
160
68
172
124
0
172
124
0
255
160
68
255
160
68
255
160
68
172
124
0
255
160
68
255
160
68
255
160
68
255
160
68
255
224
168
255
224
168
255
224
168
255
224
168
255
224
168
255
224
168
255
224
168
255
224
168
255
224
168
255
224
168
255
224
168
255
224
168
172
124
0
172
124
0
255
160
68
255
160
68
172
124
0
172
124
0
255
160
68
255
160
68
255
160
68
172
124
0
255
160
68
255
160
68
255
160
68
255
160
68
255
224
168
255
224
168
255
224
168
255
224
168
255
224
168
255
224
168
255
224
168
255
224
168
255
224
168
255
224
168
255
224
168
172
124
0
255
160
68
255
160
68
172
124
0
172
124
0
255
160
68
255
160
68
255
160
68
255
160
68
255
160
68
255
160
68
255
160
68
255
160
68
255
224
168
255
224
168
255
224
168
255
224
168
255
224
168
255
224
168
255
224
168
255
224
168
255
224
168
255
224
168
255
224
168
255
224
168
255
224
168
172
124
0
172
124
0
255
160
68
255
160
68
172
124
0
172
124
0
255
160
68
255
160
68
255
160
68
172
124
0
255
160
68
255
160
68
255
160
68
255
160
68
255
224
168
255
224
168
255
224
168
172
124
0
172
124
0
172
124
0
172
124
0
172
124
0
172
124
0
255
160
68
255
160
68
255
160
68
255
160
68
255
160
68
172
124
0
172
124
0
255
224
168
255
224
168
255
224
168
255
224
168
255
224
168
255
224
168
255
224
168
255
224
168
255
224
168
255
224
168
255
224
168
255
224
168
255
224
168
255
160
68
255
160
68
255
160
68
255
160
68
172
124
0
255
160
68
255
160
68
255
160
68
172
124
0
172
124
0
255
160
68
255
160
68
172
124
0
172
124
0
255
224
168
255
224
168
255
224
168
255
224
168
255
224
168
255
224
168
255
224
168
255
224
168
255
224
168
255
224
168
255
224
168
172
124
0
172
124
0
172
124
0
172
124
0
172
124
0
172
124
0
255
160
68
255
160
68
255
160
68
255
160
68
255
160
68
172
124
0
172
124
0
255
224
168
255
224
168
255
224
168
255
224
168
255
224
168
255
224
168
255
224
168
255
224
168
255
224
168
255
224
168
255
224
168
255
224
168
255
224
168
172
124
0
172
124
0
172
124
0
172
124
0
172
124
0
172
124
0
255
160
68
255
160
68
255
160
68
255
160
68
255
160
68
172
124
0
172
124
0
255
224
168
255
224
168
255
224
168
255
224
168
255
224
168
255
224
168
255
224
168
255
224
168
255
224
168
255
224
168
255
224
168
255
224
168
172
124
0
172
124
0
172
124
0
172
124
0
172
124
0
172
124
0
255
160
68
255
160
68
255
160
68
255
160
68
255
160
68
172
124
0
172
124
0
255
224
168
255
224
168
255
224
168
255
224
168
255
224
168
255
224
168
255
224
168
255
224
168
255
224
168
255
224
168
255
224
168
172
124
0
172
124
0
172
124
0
172
124
0
172
124
0
172
124
0
255
160
68
255
160
68
255
160
68
255
160
68
255
160
68
172
124
0
172
124
0
255
224
168
255
224
168
255
224
168
255
224
168
255
224
168
255
224
168
255
224
168
255
224
168
255
224
168
255
224
168
255
224
168
255
224
168
172
124
0
172
124
0
172
124
0
172
124
0
172
124
0
172
124
0
255
160
68
255
160
68
255
160
68
255
160
68
255
160
68
172
124
0
172
124
0
255
224
168
255
224
168
255
224
168
255
224
168
255
224
168
255
224
168
255
224
168
255
224
168
255
224
168
255
224
168
255
224
168
255
224
168
255
224
168
255
224
168
255
224
168
172
124
0
172
124
0
172
124
0
172
124
0
172
124
0
172
124
0
255
160
68
255
160
68
255
160
68
255
160
68
255
160
68
172
124
0
172
124
0
255
224
168
255
224
168
255
224
168
255
224
168
255
224
168
255
224
168
255
224
168
255
224
168
255
224
168
255
224
168
255
224
168
255
224
168
255
224
168
255
224
168
255
224
168
255
224
168
255
224
168
172
124
0
172
124
0
255
160
68
255
160
68
255
160
68
255
160
68
255
160
68
172
124
0
172
124
0
172
124
0
172
124
0
172
124
0
172
124
0
255
224
168
255
224
168
255
224
168
255
224
168
255
224
168
255
224
168
255
224
168
255
224
168
255
224
168
255
224
168
255
224
168
255
224
168
255
224
168
255
224
168
255
224
168
172
124
0
172
124
0
255
160
68
255
160
68
255
160
68
255
160
68
255
160
68
172
124
0
172
124
0
172
124
0
172
124
0
172
124
0
172
124
0
255
224
168
255
224
168
255
224
168
255
224
168
255
224
168
255
224
168
255
224
168
255
224
168
255
224
168
255
224
168
255
224
168
255
224
168
172
124
0
172
124
0
255
160
68
255
160
68
255
160
68
255
160
68
255
160
68
172
124
0
172
124
0
172
124
0
172
124
0
172
124
0
172
124
0
255
224
168
255
224
168
255
224
168
255
224
168
255
224
168
255
224
168
255
224
168
255
224
168
255
224
168
255
224
168
255
224
168
172
124
0
172
124
0
255
160
68
255
160
68
255
160
68
255
160
68
255
160
68
172
124
0
172
124
0
172
124
0
172
124
0
172
124
0
172
124
0
255
224
168
255
224
168
255
224
168
255
224
168
255
224
168
255
224
168
255
224
168
255
224
168
255
224
168
255
224
168
255
224
168
255
224
168
172
124
0
172
124
0
255
160
68
255
160
68
255
160
68
255
160
68
255
160
68
172
124
0
172
124
0
172
124
0
172
124
0
172
124
0
172
124
0
255
224
168
255
224
168
255
224
168
255
224
168
255
224
168
255
224
168
255
224
168
255
224
168
255
224
168
255
224
168
255
224
168
255
224
168
255
224
168
172
124
0
172
124
0
255
160
68
255
160
68
255
160
68
255
160
68
255
160
68
172
124
0
172
124
0
172
124
0
172
124
0
172
124
0
172
124
0
255
224
168
255
224
168
255
224
168
255
224
168
255
224
168
255
224
168
255
224
168
255
224
168
255
224
168
255
224
168
255
224
168
172
124
0
172
124
0
255
160
68
255
160
68
172
124
0
172
124
0
255
160
68
255
160
68
255
160
68
172
124
0
255
160
68
255
160
68
255
160
68
255
160
68
255
224
168
255
224
168
255
224
168
255
224
168
255
224
168
255
224
168
255
224
168
255
224
168
255
224
168
255
224
168
255
224
168
255
224
168
255
224
168
172
124
0
172
124
0
255
160
68
255
160
68
255
160
68
255
160
68
255
160
68
172
124
0
172
124
0
172
124
0
172
124
0
172
124
0
172
124
0
255
224
168
255
224
168
255
224
168
255
160
68
255
160
68
255
160
68
255
160
68
172
124
0
172
124
0
255
160
68
255
160
68
255
160
68
255
160
68
255
160
68
172
124
0
172
124
0
255
224
168
255
224
168
255
224
168
255
224
168
255
224
168
255
224
168
255
224
168
255
224
168
255
224
168
255
224
168
255
224
168
255
224
168
255
224
168
255
224
168
255
224
168
172
124
0
172
124
0
172
124
0
172
124
0
172
124
0
172
124
0
255
160
68
255
160
68
255
160
68
255
160
68
255
160
68
172
124
0
172
124
0
255
224
168
255
224
168
255
224
168
255
224
168
255
224
168
255
224
168
255
224
168
255
224
168
255
224
168
255
224
168
255
224
168
172
124
0
172
124
0
172
124
0
172
124
0
172
124
0
255
160
68
255
160
68
255
160
68
255
160
68
255
160
68
172
124
0
172
124
0
255
224
168
255
224
168
255
224
168
255
224
168
255
224
168
255
224
168
255
224
168
255
224
168
255
224
168
255
224
168
255
224
168
255
224
168
255
224
168
255
224
168
172
124
0
172
124
0
172
124
0
172
124
0
172
124
0
255
160
68
255
160
68
255
160
68
255
160
68
255
160
68
172
124
0
172
124
0
255
224
168
255
224
168
255
224
168
255
224
168
255
224
168
255
224
168
255
224
168
255
224
168
255
224
168
255
224
168
255
224
168
255
224
168
255
160
68
255
160
68
255
160
68
255
160
68
172
124
0
172
124
0
255
160
68
255
160
68
255
160
68
255
160
68
255
160
68
172
124
0
172
124
0
255
224
168
255
224
168
255
224
168
255
224
168
255
224
168
255
224
168
255
224
168
255
224
168
255
224
168
255
224
168
255
224
168
255
224
168
172
124
0
172
124
0
172
124
0
172
124
0
172
124
0
255
160
68
255
160
68
255
160
68
255
160
68
255
160
68
172
124
0
172
124
0
255
224
168
255
224
168
255
224
168
255
224
168
255
224
168
255
224
168
255
224
168
255
224
168
255
224
168
255
224
168
255
224
168
255
224
168
255
224
168
172
124
0
172
124
0
172
124
0
172
124
0
172
124
0
255
160
68
255
160
68
255
160
68
255
160
68
255
160
68
172
124
0
172
124
0
255
224
168
255
224
168
255
224
168
255
224
168
255
224
168
255
224
168
255
224
168
255
224
168
255
224
168
255
224
168
255
224
168
255
224
168
255
224
168
255
224
168
255
224
168
255
160
68
255
160
68
255
160
68
255
160
68
172
124
0
172
124
0
255
160
68
255
160
68
255
160
68
255
160
68
255
160
68
172
124
0
172
124
0
255
224
168
255
224
168
255
224
168
255
224
168
255
224
168
255
224
168
255
224
168
255
224
168
255
224
168
255
224
168
255
224
168
255
224
168
255
224
168
255
224
168
255
224
168
255
224
168
255
224
168
255
224
168
255
224
168
172
124
0
172
124
0
255
160
68
255
160
68
255
160
68
255
160
68
255
160
68
172
124
0
172
124
0
255
160
68
255
160
68
255
160
68
255
160
68
255
224
168
255
224
168
255
224
168
255
224
168
255
224
168
255
224
168
255
224
168
255
224
168
255
224
168
255
224
168
255
224
168
255
224
168
255
224
168
255
224
168
255
224
168
172
124
0
172
124
0
255
160
68
255
160
68
255
160
68
255
160
68
255
160
68
172
124
0
172
124
0
172
124
0
172
124
0
172
124
0
255
224
168
255
224
168
255
224
168
255
224
168
255
224
168
255
224
168
255
224
168
255
224
168
255
224
168
255
224
168
255
224
168
255
224
168
255
224
168
172
124
0
172
124
0
255
160
68
255
160
68
255
160
68
255
160
68
255
160
68
172
124
0
172
124
0
172
124
0
172
124
0
172
124
0
255
224
168
255
224
168
255
224
168
255
224
168
255
224
168
255
224
168
255
224
168
255
224
168
255
224
168
255
224
168
255
224
168
255
224
168
172
124
0
172
124
0
255
160
68
255
160
68
255
160
68
255
160
68
255
160
68
172
124
0
172
124
0
255
160
68
255
160
68
255
160
68
255
160
68
255
224
168
255
224
168
255
224
168
255
224
168
255
224
168
255
224
168
255
224
168
255
224
168
255
224
168
255
224
168
255
224
168
255
224
168
172
124
0
172
124
0
255
160
68
255
160
68
255
160
68
255
160
68
255
160
68
172
124
0
172
124
0
172
124
0
172
124
0
172
124
0
255
224
168
255
224
168
255
224
168
255
224
168
255
224
168
255
224
168
255
224
168
255
224
168
255
224
168
255
224
168
255
224
168
255
224
168
255
224
168
255
224
168
172
124
0
172
124
0
255
160
68
255
160
68
255
160
68
255
160
68
255
160
68
172
124
0
172
124
0
172
124
0
172
124
0
172
124
0
255
224
168
255
224
168
255
224
168
255
224
168
255
224
168
255
224
168
255
224
168
255
224
168
255
224
168
255
224
168
255
224
168
172
124
0
172
124
0
255
160
68
255
160
68
255
160
68
255
160
68
255
160
68
172
124
0
172
124
0
172
124
0
172
124
0
172
124
0
172
124
0
255
224
168
255
224
168
255
224
168
255
224
168
255
224
168
255
224
168
255
224
168
255
224
168
255
224
168
255
224
168
255
224
168
255
224
168
255
224
168
255
224
168
255
224
168
172
124
0
172
124
0
255
160
68
255
160
68
255
160
68
255
160
68
255
160
68
172
124
0
172
124
0
255
160
68
255
160
68
255
160
68
255
160
68
255
224
168
255
224
168
255
224
168
255
160
68
255
160
68
255
160
68
255
160
68
172
124
0
172
124
0
172
124
0
255
160
68
255
160
68
172
124
0
255
224
168
255
224
168
255
224
168
255
224
168
255
224
168
255
224
168
255
224
168
255
224
168
255
224
168
255
224
168
255
224
168
255
224
168
255
224
168
255
224
168
255
224
168
255
224
168
255
224
168
172
124
0
172
124
0
172
124
0
172
124
0
172
124
0
255
160
68
255
160
68
255
160
68
255
160
68
255
160
68
172
124
0
172
124
0
255
224
168
255
224
168
255
224
168
255
224
168
255
224
168
255
224
168
255
224
168
255
224
168
255
224
168
255
224
168
255
224
168
255
224
168
255
224
168
255
160
68
255
160
68
255
160
68
255
160
68
255
160
68
255
160
68
255
160
68
255
160
68
172
124
0
255
224
168
255
224
168
255
224
168
255
224
168
255
224
168
255
224
168
255
224
168
255
224
168
255
224
168
255
224
168
255
224
168
255
224
168
255
224
168
255
224
168
255
224
168
255
224
168
255
224
168
255
160
68
255
160
68
255
160
68
255
160
68
255
160
68
255
160
68
255
160
68
255
160
68
172
124
0
255
224
168
255
224
168
255
224
168
255
224
168
255
224
168
255
224
168
255
224
168
255
224
168
255
224
168
255
224
168
255
224
168
255
224
168
255
224
168
255
224
168
255
224
168
255
160
68
255
160
68
255
160
68
255
160
68
172
124
0
172
124
0
172
124
0
255
160
68
255
160
68
172
124
0
255
224
168
255
224
168
255
224
168
255
224
168
255
224
168
255
224
168
255
224
168
255
224
168
255
224
168
255
224
168
255
224
168
255
224
168
255
224
168
255
224
168
255
224
168
255
160
68
255
160
68
255
160
68
255
160
68
255
160
68
255
160
68
255
160
68
255
160
68
172
124
0
255
224
168
255
224
168
255
224
168
255
224
168
255
224
168
255
224
168
255
224
168
255
224
168
255
224
168
255
224
168
255
224
168
255
224
168
255
224
168
255
224
168
255
224
168
255
224
168
255
160
68
255
160
68
255
160
68
255
160
68
255
160
68
255
160
68
255
160
68
255
160
68
172
124
0
255
224
168
255
224
168
255
224
168
255
224
168
255
224
168
255
224
168
255
224
168
255
224
168
255
224
168
255
224
168
255
224
168
255
224
168
255
224
168
255
224
168
255
224
168
255
224
168
255
224
168
255
224
168
255
160
68
255
160
68
255
160
68
255
160
68
172
124
0
172
124
0
172
124
0
255
160
68
255
160
68
172
124
0
255
224
168
255
224
168
255
224
168
255
224
168
255
224
168
255
224
168
255
224
168
255
224
168
255
224
168
255
224
168
255
224
168
255
224
168
255
224
168
255
224
168
255
224
168
255
224
168
255
224
168
255
224
168
255
224
168
255
224
168
255
224
168
255
224
168
255
224
168
172
124
0
255
160
68
255
160
68
172
124
0
172
124
0
172
124
0
255
160
68
255
160
68
255
160
68
255
160
68
255
224
168
255
224
168
255
224
168
255
224
168
255
224
168
255
224
168
255
224
168
255
224
168
255
224
168
255
224
168
255
224
168
255
224
168
255
224
168
255
224
168
255
224
168
255
224
168
255
224
168
255
224
168
172
124
0
255
160
68
255
160
68
255
160
68
255
160
68
255
160
68
255
160
68
255
160
68
255
160
68
255
224
168
255
224
168
255
224
168
255
224
168
255
224
168
255
224
168
255
224
168
255
224
168
255
224
168
255
224
168
255
224
168
255
224
168
255
224
168
255
224
168
255
224
168
255
224
168
172
124
0
255
160
68
255
160
68
255
160
68
255
160
68
255
160
68
255
160
68
255
160
68
255
160
68
255
224
168
255
224
168
255
224
168
255
224
168
255
224
168
255
224
168
255
224
168
255
224
168
255
224
168
255
224
168
255
224
168
255
224
168
255
224
168
255
224
168
255
224
168
172
124
0
255
160
68
255
160
68
172
124
0
172
124
0
172
124
0
255
160
68
255
160
68
255
160
68
255
160
68
255
224
168
255
224
168
255
224
168
255
224
168
255
224
168
255
224
168
255
224
168
255
224
168
255
224
168
255
224
168
255
224
168
255
224
168
255
224
168
255
224
168
255
224
168
172
124
0
255
160
68
255
160
68
255
160
68
255
160
68
255
160
68
255
160
68
255
160
68
255
160
68
255
224
168
255
224
168
255
224
168
255
224
168
255
224
168
255
224
168
255
224
168
255
224
168
255
224
168
255
224
168
255
224
168
255
224
168
255
224
168
255
224
168
255
224
168
255
224
168
255
224
168
172
124
0
255
160
68
255
160
68
255
160
68
255
160
68
255
160
68
255
160
68
255
160
68
255
160
68
255
224
168
255
224
168
255
224
168
255
224
168
255
224
168
255
224
168
255
224
168
255
224
168
255
224
168
255
224
168
255
224
168
255
224
168
255
224
168
172
124
0
172
124
0
255
160
68
255
160
68
255
160
68
255
160
68
255
160
68
172
124
0
172
124
0
172
124
0
172
124
0
172
124
0
255
224
168
255
224
168
255
224
168
255
224
168
255
224
168
255
224
168
255
224
168
255
224
168
255
224
168
255
224
168
255
224
168
255
224
168
255
224
168
255
224
168
255
224
168
255
224
168
255
224
168
172
124
0
255
160
68
255
160
68
172
124
0
172
124
0
172
124
0
255
160
68
255
160
68
255
160
68
255
160
68
255
224
168
255
224
168
255
224
168
255
224
168
255
224
168
255
160
68
255
160
68
172
124
0
172
124
0
172
124
0
172
124
0
172
124
0
248
56
0
248
56
0
172
124
0
255
224
168
255
224
168
255
224
168
255
224
168
255
224
168
255
224
168
255
224
168
255
224
168
255
224
168
255
224
168
255
224
168
255
224
168
255
224
168
255
224
168
255
224
168
255
224
168
255
224
168
255
160
68
255
160
68
255
160
68
255
160
68
255
160
68
255
160
68
255
160
68
255
160
68
172
124
0
255
224
168
255
224
168
255
224
168
255
224
168
255
224
168
255
224
168
255
224
168
255
224
168
255
224
168
255
224
168
255
224
168
255
224
168
255
224
168
255
224
168
255
224
168
255
224
168
255
224
168
255
224
168
255
160
68
255
160
68
255
160
68
248
56
0
248
56
0
248
56
0
172
124
0
255
224
168
255
224
168
255
224
168
255
224
168
255
224
168
255
224
168
255
224
168
255
224
168
255
224
168
255
224
168
255
224
168
255
224
168
255
224
168
255
224
168
255
224
168
255
224
168
255
224
168
255
224
168
255
224
168
255
160
68
255
160
68
255
160
68
248
56
0
248
56
0
248
56
0
172
124
0
255
224
168
255
224
168
255
224
168
255
224
168
255
224
168
255
224
168
255
224
168
255
224
168
255
224
168
255
224
168
255
224
168
255
224
168
255
224
168
255
224
168
255
224
168
255
160
68
255
160
68
172
124
0
172
124
0
172
124
0
172
124
0
172
124
0
248
56
0
248
56
0
172
124
0
255
224
168
255
224
168
255
224
168
255
224
168
255
224
168
255
224
168
255
224
168
255
224
168
255
224
168
255
224
168
255
224
168
255
224
168
255
224
168
255
224
168
255
224
168
255
224
168
255
224
168
255
160
68
255
160
68
255
160
68
248
56
0
248
56
0
248
56
0
172
124
0
255
224
168
255
224
168
255
224
168
255
224
168
255
224
168
255
224
168
255
224
168
255
224
168
255
224
168
255
224
168
255
224
168
255
224
168
255
224
168
255
224
168
255
224
168
255
224
168
255
224
168
255
224
168
255
160
68
255
160
68
255
160
68
248
56
0
248
56
0
248
56
0
172
124
0
255
224
168
255
224
168
255
224
168
255
224
168
255
224
168
255
224
168
255
224
168
255
224
168
255
224
168
255
224
168
255
224
168
255
224
168
255
224
168
255
224
168
255
224
168
255
224
168
255
224
168
255
224
168
255
160
68
255
160
68
172
124
0
172
124
0
172
124
0
172
124
0
172
124
0
248
56
0
248
56
0
172
124
0
255
224
168
255
224
168
255
224
168
255
224
168
255
224
168
255
224
168
255
224
168
255
224
168
255
224
168
255
224
168
255
224
168
255
224
168
255
224
168
255
224
168
255
224
168
255
224
168
255
224
168
255
224
168
255
224
168
255
224
168
255
224
168
172
124
0
248
56
0
248
56
0
172
124
0
172
124
0
172
124
0
172
124
0
172
124
0
255
160
68
255
160
68
255
224
168
255
224
168
255
224
168
255
224
168
255
224
168
255
224
168
255
224
168
255
224
168
255
224
168
255
224
168
255
224
168
255
224
168
255
224
168
255
224
168
255
224
168
255
224
168
255
224
168
255
224
168
172
124
0
248
56
0
248
56
0
248
56
0
255
160
68
255
160
68
255
160
68
255
224
168
255
224
168
255
224
168
255
224
168
255
224
168
255
224
168
255
224
168
255
224
168
255
224
168
255
224
168
255
224
168
255
224
168
255
224
168
255
224
168
255
224
168
255
224
168
255
224
168
255
224
168
172
124
0
248
56
0
248
56
0
248
56
0
255
160
68
255
160
68
255
160
68
255
224
168
255
224
168
255
224
168
255
224
168
255
224
168
255
224
168
255
224
168
255
224
168
255
224
168
255
224
168
255
224
168
255
224
168
255
224
168
255
224
168
255
224
168
255
224
168
255
224
168
172
124
0
248
56
0
248
56
0
172
124
0
172
124
0
172
124
0
172
124
0
172
124
0
255
160
68
255
160
68
255
224
168
255
224
168
255
224
168
255
224
168
255
224
168
255
224
168
255
224
168
255
224
168
255
224
168
255
224
168
255
224
168
255
224
168
255
224
168
255
224
168
255
224
168
172
124
0
248
56
0
248
56
0
248
56
0
255
160
68
255
160
68
255
160
68
255
224
168
255
224
168
255
224
168
255
224
168
255
224
168
255
224
168
255
224
168
255
224
168
255
224
168
255
224
168
255
224
168
255
224
168
255
224
168
255
224
168
255
224
168
255
224
168
255
224
168
255
224
168
255
224
168
172
124
0
248
56
0
248
56
0
248
56
0
255
160
68
255
160
68
255
160
68
255
224
168
255
224
168
255
224
168
255
224
168
255
224
168
255
224
168
255
224
168
255
224
168
255
224
168
255
224
168
255
224
168
255
224
168
255
224
168
255
224
168
255
224
168
255
224
168
255
224
168
255
224
168
172
124
0
255
160
68
255
160
68
255
160
68
255
160
68
255
160
68
255
160
68
255
160
68
255
160
68
255
224
168
255
224
168
255
224
168
255
224
168
255
224
168
255
224
168
255
224
168
255
224
168
255
224
168
255
224
168
255
224
168
255
224
168
255
224
168
255
224
168
255
224
168
255
224
168
255
224
168
172
124
0
248
56
0
248
56
0
172
124
0
172
124
0
172
124
0
172
124
0
172
124
0
255
160
68
255
160
68
255
224
168
255
224
168
255
224
168
255
224
168
255
224
168
255
224
168
255
224
168
255
160
68
172
124
0
172
124
0
172
124
0
172
124
0
172
124
0
172
124
0
248
56
0
248
56
0
172
124
0
255
224
168
255
224
168
255
224
168
255
224
168
255
224
168
255
224
168
255
224
168
255
224
168
255
224
168
255
224
168
255
224
168
255
224
168
255
224
168
255
224
168
255
224
168
255
224
168
255
224
168
255
224
168
255
224
168
255
160
68
255
160
68
255
160
68
248
56
0
248
56
0
248
56
0
172
124
0
255
224
168
255
224
168
255
224
168
255
224
168
255
224
168
255
224
168
255
224
168
255
224
168
255
224
168
255
224
168
255
224
168
255
224
168
255
224
168
255
224
168
255
224
168
255
224
168
255
224
168
255
224
168
172
124
0
248
56
0
172
124
0
172
124
0
172
124
0
248
56
0
172
124
0
255
224
168
255
224
168
255
224
168
255
224
168
255
224
168
255
224
168
255
224
168
255
224
168
255
224
168
255
224
168
255
224
168
255
224
168
255
224
168
255
224
168
255
224
168
255
224
168
255
224
168
255
224
168
255
224
168
172
124
0
248
56
0
172
124
0
172
124
0
172
124
0
248
56
0
172
124
0
255
224
168
255
224
168
255
224
168
255
224
168
255
224
168
255
224
168
255
224
168
255
224
168
255
224
168
255
224
168
255
224
168
255
224
168
255
224
168
255
224
168
255
224
168
255
160
68
172
124
0
172
124
0
172
124
0
172
124
0
172
124
0
172
124
0
248
56
0
248
56
0
172
124
0
255
224
168
255
224
168
255
224
168
255
224
168
255
224
168
255
224
168
255
224
168
255
224
168
255
224
168
255
224
168
255
224
168
255
224
168
255
224
168
255
224
168
255
224
168
255
224
168
255
224
168
172
124
0
248
56
0
172
124
0
172
124
0
172
124
0
248
56
0
172
124
0
255
224
168
255
224
168
255
224
168
255
224
168
255
224
168
255
224
168
255
224
168
255
224
168
255
224
168
255
224
168
255
224
168
255
224
168
255
224
168
255
224
168
255
224
168
255
224
168
255
224
168
255
224
168
172
124
0
248
56
0
172
124
0
172
124
0
172
124
0
248
56
0
172
124
0
255
224
168
255
224
168
255
224
168
255
224
168
255
224
168
255
224
168
255
224
168
255
224
168
255
224
168
255
224
168
255
224
168
255
224
168
255
224
168
255
224
168
255
224
168
255
224
168
255
224
168
255
224
168
255
160
68
172
124
0
172
124
0
172
124
0
172
124
0
172
124
0
172
124
0
248
56
0
248
56
0
172
124
0
255
224
168
255
224
168
255
224
168
255
224
168
255
224
168
255
224
168
255
224
168
255
224
168
255
224
168
255
224
168
255
224
168
255
224
168
255
224
168
255
224
168
255
224
168
255
224
168
255
224
168
255
224
168
255
224
168
172
124
0
248
56
0
248
56
0
172
124
0
172
124
0
172
124
0
172
124
0
172
124
0
172
124
0
255
160
68
255
224
168
255
224
168
255
224
168
255
224
168
255
224
168
255
224
168
255
224
168
255
224
168
255
224
168
255
224
168
255
224
168
255
224
168
255
224
168
255
224
168
255
224
168
255
224
168
255
224
168
255
224
168
172
124
0
248
56
0
172
124
0
172
124
0
172
124
0
248
56
0
172
124
0
255
224
168
255
224
168
255
224
168
255
224
168
255
224
168
255
224
168
255
224
168
255
224
168
255
224
168
255
224
168
255
224
168
255
224
168
255
224
168
255
224
168
255
224
168
255
224
168
255
224
168
255
224
168
172
124
0
248
56
0
172
124
0
172
124
0
172
124
0
248
56
0
172
124
0
255
224
168
255
224
168
255
224
168
255
224
168
255
224
168
255
224
168
255
224
168
255
224
168
255
224
168
255
224
168
255
224
168
255
224
168
255
224
168
255
224
168
255
224
168
255
224
168
255
224
168
172
124
0
248
56
0
248
56
0
172
124
0
172
124
0
172
124
0
172
124
0
172
124
0
172
124
0
255
160
68
255
224
168
255
224
168
255
224
168
255
224
168
255
224
168
255
224
168
255
224
168
255
224
168
255
224
168
255
224
168
255
224
168
255
224
168
255
224
168
255
224
168
255
224
168
172
124
0
248
56
0
172
124
0
172
124
0
172
124
0
248
56
0
172
124
0
255
224
168
255
224
168
255
224
168
255
224
168
255
224
168
255
224
168
255
224
168
255
224
168
255
224
168
255
224
168
255
224
168
255
224
168
255
224
168
255
224
168
255
224
168
255
224
168
255
224
168
255
224
168
255
224
168
172
124
0
248
56
0
172
124
0
172
124
0
172
124
0
248
56
0
172
124
0
255
224
168
255
224
168
255
224
168
255
224
168
255
224
168
255
224
168
255
224
168
255
224
168
255
224
168
255
224
168
255
224
168
255
224
168
255
224
168
255
224
168
255
224
168
255
224
168
255
224
168
255
224
168
172
124
0
248
56
0
248
56
0
248
56
0
255
160
68
255
160
68
255
160
68
255
224
168
255
224
168
255
224
168
255
224
168
255
224
168
255
224
168
255
224
168
255
224
168
255
224
168
255
224
168
255
224
168
255
224
168
255
224
168
255
224
168
255
224
168
255
224
168
255
224
168
255
224
168
255
224
168
172
124
0
248
56
0
248
56
0
172
124
0
172
124
0
172
124
0
172
124
0
172
124
0
172
124
0
255
160
68
255
224
168
255
224
168
255
224
168
255
224
168
255
224
168
255
224
168
255
224
168
255
224
168
255
224
168
255
224
168
172
124
0
172
124
0
172
124
0
172
124
0
172
124
0
172
124
0
248
56
0
172
124
0
255
224
168
255
224
168
255
224
168
255
224
168
255
224
168
255
224
168
255
224
168
255
224
168
255
224
168
255
224
168
255
224
168
255
224
168
255
224
168
255
224
168
255
224
168
255
224
168
255
224
168
255
224
168
255
224
168
255
224
168
172
124
0
248
56
0
172
124
0
172
124
0
172
124
0
248
56
0
172
124
0
255
224
168
255
224
168
255
224
168
255
224
168
255
224
168
255
224
168
255
224
168
255
224
168
255
224
168
255
224
168
255
224
168
255
224
168
255
224
168
255
224
168
255
224
168
255
224
168
172
124
0
248
56
0
172
124
0
172
124
0
172
124
0
172
124
0
248
56
0
172
124
0
255
224
168
255
224
168
255
224
168
255
224
168
255
224
168
255
224
168
255
224
168
255
224
168
255
224
168
255
224
168
255
224
168
255
224
168
255
224
168
255
224
168
255
224
168
255
224
168
255
224
168
255
224
168
172
124
0
248
56
0
172
124
0
172
124
0
172
124
0
172
124
0
248
56
0
172
124
0
255
224
168
255
224
168
255
224
168
255
224
168
255
224
168
255
224
168
255
224
168
255
224
168
255
224
168
255
224
168
255
224
168
255
224
168
255
224
168
255
224
168
255
224
168
255
224
168
255
224
168
172
124
0
172
124
0
172
124
0
172
124
0
172
124
0
172
124
0
248
56
0
172
124
0
255
224
168
255
224
168
255
224
168
255
224
168
255
224
168
255
224
168
255
224
168
255
224
168
255
224
168
255
224
168
255
224
168
255
224
168
255
224
168
255
224
168
255
224
168
255
224
168
172
124
0
248
56
0
172
124
0
172
124
0
172
124
0
172
124
0
248
56
0
172
124
0
255
224
168
255
224
168
255
224
168
255
224
168
255
224
168
255
224
168
255
224
168
255
224
168
255
224
168
255
224
168
255
224
168
255
224
168
255
224
168
255
224
168
255
224
168
255
224
168
255
224
168
172
124
0
248
56
0
172
124
0
172
124
0
172
124
0
172
124
0
248
56
0
172
124
0
255
224
168
255
224
168
255
224
168
255
224
168
255
224
168
255
224
168
255
224
168
255
224
168
255
224
168
255
224
168
255
224
168
255
224
168
255
224
168
255
224
168
255
224
168
255
224
168
255
224
168
255
224
168
255
224
168
255
224
168
172
124
0
172
124
0
172
124
0
172
124
0
172
124
0
172
124
0
248
56
0
172
124
0
255
224
168
255
224
168
255
224
168
255
224
168
255
224
168
255
224
168
255
224
168
255
224
168
255
224
168
255
224
168
255
224
168
255
224
168
255
224
168
255
224
168
255
224
168
255
224
168
255
224
168
255
224
168
255
224
168
172
124
0
248
56
0
172
124
0
172
124
0
172
124
0
172
124
0
172
124
0
172
124
0
255
224
168
255
224
168
255
224
168
255
224
168
255
224
168
255
224
168
255
224
168
255
224
168
255
224
168
255
224
168
255
224
168
255
224
168
255
224
168
255
224
168
255
224
168
255
224
168
255
224
168
255
224
168
255
224
168
255
224
168
172
124
0
248
56
0
172
124
0
172
124
0
172
124
0
172
124
0
248
56
0
172
124
0
255
224
168
255
224
168
255
224
168
255
224
168
255
224
168
255
224
168
255
224
168
255
224
168
255
224
168
255
224
168
255
224
168
255
224
168
255
224
168
255
224
168
255
224
168
255
224
168
255
224
168
172
124
0
248
56
0
172
124
0
172
124
0
172
124
0
172
124
0
248
56
0
172
124
0
255
224
168
255
224
168
255
224
168
255
224
168
255
224
168
255
224
168
255
224
168
255
224
168
255
224
168
255
224
168
255
224
168
255
224
168
255
224
168
255
224
168
255
224
168
255
224
168
172
124
0
248
56
0
172
124
0
172
124
0
172
124
0
172
124
0
172
124
0
172
124
0
255
224
168
255
224
168
255
224
168
255
224
168
255
224
168
255
224
168
255
224
168
255
224
168
255
224
168
255
224
168
255
224
168
255
224
168
255
224
168
255
224
168
255
224
168
255
224
168
255
224
168
172
124
0
248
56
0
172
124
0
172
124
0
172
124
0
172
124
0
248
56
0
172
124
0
255
224
168
255
224
168
255
224
168
255
224
168
255
224
168
255
224
168
255
224
168
255
224
168
255
224
168
255
224
168
255
224
168
255
224
168
255
224
168
255
224
168
255
224
168
255
224
168
255
224
168
255
224
168
172
124
0
248
56
0
172
124
0
172
124
0
172
124
0
172
124
0
248
56
0
172
124
0
255
224
168
255
224
168
255
224
168
255
224
168
255
224
168
255
224
168
255
224
168
255
224
168
255
224
168
255
224
168
255
224
168
255
224
168
255
224
168
255
224
168
255
224
168
255
224
168
172
124
0
248
56
0
172
124
0
172
124
0
172
124
0
248
56
0
172
124
0
255
224
168
255
224
168
255
224
168
255
224
168
255
224
168
255
224
168
255
224
168
255
224
168
255
224
168
255
224
168
255
224
168
255
224
168
255
224
168
255
224
168
255
224
168
255
224
168
255
224
168
255
224
168
255
224
168
255
224
168
172
124
0
248
56
0
172
124
0
172
124
0
172
124
0
172
124
0
172
124
0
172
124
0
255
224
168
255
224
168
255
224
168
255
224
168
255
224
168
255
224
168
255
224
168
255
224
168
255
224
168
255
224
168
255
224
168
172
124
0
248
56
0
172
124
0
172
124
0
172
124
0
172
124
0
172
124
0
248
56
0
172
124
0
255
224
168
255
224
168
255
224
168
255
224
168
255
224
168
255
224
168
255
224
168
255
224
168
255
224
168
255
224
168
255
224
168
255
224
168
255
224
168
255
224
168
255
224
168
255
224
168
255
224
168
255
224
168
255
224
168
172
124
0
248
56
0
172
124
0
172
124
0
172
124
0
172
124
0
248
56
0
172
124
0
255
224
168
255
224
168
255
224
168
255
224
168
255
224
168
255
224
168
255
224
168
255
224
168
255
224
168
255
224
168
255
224
168
255
224
168
255
224
168
255
224
168
255
224
168
172
124
0
172
124
0
248
56
0
172
124
0
172
124
0
172
124
0
172
124
0
172
124
0
172
124
0
255
224
168
255
224
168
255
224
168
255
224
168
255
224
168
255
224
168
255
224
168
255
224
168
255
224
168
255
224
168
255
224
168
255
224
168
255
224
168
255
224
168
255
224
168
255
224
168
255
224
168
255
224
168
248
56
0
172
124
0
172
124
0
172
124
0
172
124
0
172
124
0
248
56
0
172
124
0
172
124
0
255
224
168
255
224
168
255
224
168
255
224
168
255
224
168
255
224
168
255
224
168
255
224
168
255
224
168
255
224
168
255
224
168
255
224
168
255
224
168
255
224
168
255
224
168
172
124
0
248
56
0
172
124
0
172
124
0
172
124
0
172
124
0
172
124
0
248
56
0
172
124
0
255
224
168
255
224
168
255
224
168
255
224
168
255
224
168
255
224
168
255
224
168
255
224
168
255
224
168
255
224
168
255
224
168
255
224
168
255
224
168
255
224
168
255
224
168
172
124
0
172
124
0
248
56
0
172
124
0
172
124
0
172
124
0
172
124
0
172
124
0
172
124
0
255
224
168
255
224
168
255
224
168
255
224
168
255
224
168
255
224
168
255
224
168
255
224
168
255
224
168
255
224
168
255
224
168
255
224
168
255
224
168
255
224
168
255
224
168
255
224
168
255
224
168
248
56
0
172
124
0
172
124
0
172
124
0
172
124
0
172
124
0
248
56
0
172
124
0
172
124
0
255
224
168
255
224
168
255
224
168
255
224
168
255
224
168
255
224
168
255
224
168
255
224
168
255
224
168
255
224
168
255
224
168
255
224
168
255
224
168
255
224
168
255
224
168
255
224
168
255
224
168
255
224
168
172
124
0
248
56
0
172
124
0
172
124
0
172
124
0
172
124
0
172
124
0
248
56
0
172
124
0
255
224
168
255
224
168
255
224
168
255
224
168
255
224
168
255
224
168
255
224
168
255
224
168
255
224
168
255
224
168
255
224
168
255
224
168
255
224
168
255
224
168
255
224
168
255
224
168
255
224
168
255
224
168
255
224
168
172
124
0
248
56
0
172
124
0
172
124
0
172
124
0
172
124
0
172
124
0
248
56
0
172
124
0
255
224
168
255
224
168
255
224
168
255
224
168
255
224
168
255
224
168
255
224
168
255
224
168
255
224
168
255
224
168
255
224
168
255
224
168
255
224
168
255
224
168
255
224
168
255
224
168
255
224
168
255
224
168
172
124
0
172
124
0
248
56
0
172
124
0
172
124
0
172
124
0
172
124
0
172
124
0
248
56
0
255
224
168
255
224
168
255
224
168
255
224
168
255
224
168
255
224
168
255
224
168
255
224
168
255
224
168
255
224
168
255
224
168
255
224
168
255
224
168
255
224
168
255
224
168
255
224
168
255
224
168
172
124
0
172
124
0
172
124
0
172
124
0
172
124
0
172
124
0
248
56
0
172
124
0
172
124
0
255
224
168
255
224
168
255
224
168
255
224
168
255
224
168
255
224
168
255
224
168
255
224
168
255
224
168
255
224
168
255
224
168
255
224
168
255
224
168
255
224
168
255
224
168
172
124
0
248
56
0
172
124
0
172
124
0
172
124
0
172
124
0
172
124
0
248
56
0
172
124
0
255
224
168
255
224
168
255
224
168
255
224
168
255
224
168
255
224
168
255
224
168
255
224
168
255
224
168
255
224
168
255
224
168
255
224
168
255
224
168
255
224
168
255
224
168
172
124
0
172
124
0
248
56
0
172
124
0
172
124
0
172
124
0
172
124
0
172
124
0
248
56
0
255
224
168
255
224
168
255
224
168
255
224
168
255
224
168
255
224
168
255
224
168
255
224
168
255
224
168
255
224
168
255
224
168
255
224
168
255
224
168
255
224
168
255
224
168
255
224
168
255
224
168
255
224
168
172
124
0
172
124
0
172
124
0
172
124
0
172
124
0
172
124
0
248
56
0
172
124
0
172
124
0
255
224
168
255
224
168
255
224
168
255
224
168
255
224
168
255
224
168
255
224
168
255
224
168
255
224
168
255
224
168
255
224
168
255
224
168
255
224
168
255
224
168
255
224
168
172
124
0
248
56
0
172
124
0
172
124
0
172
124
0
172
124
0
248
56
0
172
124
0
255
224
168
255
224
168
255
224
168
255
224
168
255
224
168
255
224
168
255
224
168
255
224
168
255
224
168
255
224
168
255
224
168
255
224
168
255
224
168
255
224
168
255
224
168
255
224
168
255
224
168
255
224
168
255
224
168
172
124
0
248
56
0
172
124
0
172
124
0
172
124
0
172
124
0
172
124
0
248
56
0
172
124
0
255
224
168
255
224
168
255
224
168
255
224
168
255
224
168
255
224
168
255
224
168
255
224
168
255
224
168
255
224
168
172
124
0
248
56
0
248
56
0
172
124
0
172
124
0
172
124
0
172
124
0
248
56
0
172
124
0
255
224
168
255
224
168
255
224
168
255
224
168
255
224
168
255
224
168
255
224
168
255
224
168
255
224
168
255
224
168
255
224
168
255
224
168
255
224
168
255
224
168
255
224
168
255
224
168
255
160
68
255
160
68
248
56
0
248
56
0
172
124
0
172
124
0
172
124
0
172
124
0
172
124
0
248
56
0
172
124
0
172
124
0
255
224
168
255
224
168
255
224
168
255
224
168
255
224
168
255
224
168
255
224
168
255
224
168
255
224
168
255
224
168
255
224
168
255
224
168
255
224
168
255
224
168
172
124
0
248
56
0
248
56
0
172
124
0
172
124
0
172
124
0
172
124
0
172
124
0
172
124
0
255
224
168
255
224
168
255
224
168
255
224
168
255
224
168
255
224
168
255
224
168
255
224
168
255
224
168
255
224
168
255
224
168
255
224
168
255
224
168
255
224
168
255
224
168
255
224
168
255
224
168
248
56
0
172
124
0
172
124
0
172
124
0
172
124
0
172
124
0
172
124
0
248
56
0
248
56
0
172
124
0
255
224
168
255
224
168
255
224
168
255
224
168
255
224
168
255
224
168
255
224
168
255
224
168
255
224
168
255
224
168
255
224
168
255
224
168
255
224
168
255
224
168
255
224
168
172
124
0
248
56
0
248
56
0
172
124
0
172
124
0
172
124
0
172
124
0
248
56
0
172
124
0
255
224
168
255
224
168
255
224
168
255
224
168
255
224
168
255
224
168
255
224
168
255
224
168
255
224
168
255
224
168
255
224
168
255
224
168
255
224
168
255
224
168
255
224
168
172
124
0
248
56
0
248
56
0
172
124
0
172
124
0
172
124
0
172
124
0
172
124
0
172
124
0
255
224
168
255
224
168
255
224
168
255
224
168
255
224
168
255
224
168
255
224
168
255
224
168
255
224
168
255
224
168
255
224
168
255
224
168
255
224
168
255
224
168
255
224
168
255
224
168
248
56
0
172
124
0
172
124
0
172
124
0
172
124
0
172
124
0
172
124
0
248
56
0
248
56
0
172
124
0
255
224
168
255
224
168
255
224
168
255
224
168
255
224
168
255
224
168
255
224
168
255
224
168
255
224
168
255
224
168
255
224
168
255
224
168
255
224
168
255
224
168
255
224
168
255
224
168
255
224
168
255
224
168
172
124
0
248
56
0
248
56
0
172
124
0
172
124
0
172
124
0
172
124
0
248
56
0
172
124
0
255
224
168
255
224
168
255
224
168
255
224
168
255
224
168
255
224
168
255
224
168
255
224
168
255
224
168
255
224
168
255
224
168
255
224
168
255
224
168
255
224
168
255
224
168
255
224
168
255
224
168
255
224
168
255
224
168
172
124
0
248
56
0
172
124
0
172
124
0
172
124
0
172
124
0
248
56
0
248
56
0
172
124
0
255
224
168
255
224
168
255
224
168
255
224
168
255
224
168
255
224
168
255
224
168
255
224
168
255
224
168
255
224
168
255
224
168
255
224
168
255
224
168
255
224
168
255
224
168
255
224
168
255
224
168
255
224
168
172
124
0
248
56
0
248
56
0
172
124
0
172
124
0
172
124
0
172
124
0
172
124
0
172
124
0
248
56
0
255
224
168
255
224
168
255
224
168
255
224
168
255
224
168
255
224
168
255
224
168
255
224
168
255
224
168
255
224
168
255
224
168
255
224
168
255
224
168
255
224
168
255
224
168
255
224
168
172
124
0
172
124
0
172
124
0
172
124
0
172
124
0
172
124
0
248
56
0
248
56
0
172
124
0
255
224
168
255
224
168
255
224
168
255
224
168
255
224
168
255
224
168
255
224
168
255
224
168
255
224
168
255
224
168
255
224
168
255
224
168
255
224
168
255
224
168
255
224
168
172
124
0
248
56
0
172
124
0
172
124
0
172
124
0
172
124
0
248
56
0
248
56
0
172
124
0
255
224
168
255
224
168
255
224
168
255
224
168
255
224
168
255
224
168
255
224
168
255
224
168
255
224
168
255
224
168
255
224
168
255
224
168
255
224
168
255
224
168
255
224
168
172
124
0
248
56
0
248
56
0
172
124
0
172
124
0
172
124
0
172
124
0
172
124
0
172
124
0
248
56
0
255
224
168
255
224
168
255
224
168
255
224
168
255
224
168
255
224
168
255
224
168
255
224
168
255
224
168
255
224
168
255
224
168
255
224
168
255
224
168
255
224
168
255
224
168
255
224
168
255
224
168
172
124
0
172
124
0
172
124
0
172
124
0
172
124
0
172
124
0
248
56
0
248
56
0
172
124
0
255
224
168
255
224
168
255
224
168
255
224
168
255
224
168
255
224
168
255
224
168
255
224
168
255
224
168
255
224
168
255
224
168
255
224
168
255
224
168
255
224
168
172
124
0
172
124
0
248
56
0
172
124
0
172
124
0
172
124
0
172
124
0
172
124
0
248
56
0
248
56
0
255
160
68
255
160
68
255
224
168
255
224
168
255
224
168
255
224
168
255
224
168
255
224
168
255
224
168
255
224
168
255
224
168
255
224
168
255
224
168
255
224
168
255
224
168
255
224
168
255
224
168
255
224
168
172
124
0
248
56
0
172
124
0
172
124
0
172
124
0
172
124
0
248
56
0
248
56
0
172
124
0
255
224
168
255
224
168
255
224
168
255
224
168
255
224
168
255
224
168
255
224
168
255
224
168
255
224
168
172
124
0
172
124
0
248
56
0
248
56
0
248
56
0
172
124
0
172
124
0
248
56
0
248
56
0
255
224
168
255
224
168
255
224
168
255
224
168
255
224
168
255
224
168
255
224
168
255
224
168
255
224
168
255
224
168
255
224
168
255
224
168
255
224
168
255
224
168
255
224
168
255
160
68
255
160
68
255
160
68
255
160
68
172
124
0
172
124
0
172
124
0
172
124
0
172
124
0
172
124
0
172
124
0
248
56
0
248
56
0
172
124
0
255
224
168
255
224
168
255
224
168
255
224
168
255
224
168
255
224
168
255
224
168
255
224
168
255
224
168
255
224
168
255
224
168
255
224
168
255
224
168
172
124
0
172
124
0
248
56
0
248
56
0
248
56
0
172
124
0
172
124
0
172
124
0
172
124
0
172
124
0
172
124
0
255
224
168
255
224
168
255
224
168
255
224
168
255
224
168
255
224
168
255
224
168
255
224
168
255
224
168
255
224
168
255
224
168
255
224
168
255
224
168
255
224
168
255
160
68
255
160
68
172
124
0
172
124
0
172
124
0
172
124
0
172
124
0
172
124
0
248
56
0
248
56
0
248
56
0
172
124
0
255
224
168
255
224
168
255
224
168
255
224
168
255
224
168
255
224
168
255
224
168
255
224
168
255
224
168
255
224
168
255
224
168
255
224
168
255
224
168
255
224
168
172
124
0
172
124
0
248
56
0
248
56
0
248
56
0
172
124
0
172
124
0
248
56
0
248
56
0
255
224
168
255
224
168
255
224
168
255
224
168
255
224
168
255
224
168
255
224
168
255
224
168
255
224
168
255
224
168
255
224
168
255
224
168
255
224
168
255
224
168
255
224
168
172
124
0
172
124
0
248
56
0
248
56
0
248
56
0
172
124
0
172
124
0
172
124
0
172
124
0
172
124
0
172
124
0
255
224
168
255
224
168
255
224
168
255
224
168
255
224
168
255
224
168
255
224
168
255
224
168
255
224
168
255
224
168
255
224
168
255
224
168
255
224
168
255
160
68
255
160
68
172
124
0
172
124
0
172
124
0
172
124
0
172
124
0
172
124
0
248
56
0
248
56
0
248
56
0
172
124
0
255
224
168
255
224
168
255
224
168
255
224
168
255
224
168
255
224
168
255
224
168
255
224
168
255
224
168
255
224
168
255
224
168
255
224
168
255
224
168
255
224
168
255
224
168
255
224
168
255
224
168
172
124
0
172
124
0
248
56
0
248
56
0
248
56
0
172
124
0
172
124
0
248
56
0
248
56
0
255
224
168
255
224
168
255
224
168
255
224
168
255
224
168
255
224
168
255
224
168
255
224
168
255
224
168
255
224
168
255
224
168
255
224
168
255
224
168
255
224
168
255
224
168
255
224
168
255
224
168
255
224
168
255
224
168
255
224
168
255
224
168
248
56
0
248
56
0
172
124
0
172
124
0
248
56
0
248
56
0
248
56
0
172
124
0
172
124
0
255
224
168
255
224
168
255
224
168
255
224
168
255
224
168
255
224
168
255
224
168
255
224
168
255
224
168
255
224
168
255
224
168
255
224
168
255
224
168
255
224
168
255
224
168
255
224
168
255
224
168
172
124
0
248
56
0
248
56
0
248
56
0
172
124
0
172
124
0
172
124
0
172
124
0
172
124
0
172
124
0
255
160
68
255
160
68
255
224
168
255
224
168
255
224
168
255
224
168
255
224
168
255
224
168
255
224
168
255
224
168
255
224
168
255
224
168
255
224
168
255
224
168
255
224
168
172
124
0
172
124
0
172
124
0
172
124
0
172
124
0
172
124
0
248
56
0
248
56
0
248
56
0
172
124
0
172
124
0
255
224
168
255
224
168
255
224
168
255
224
168
255
224
168
255
224
168
255
224
168
255
224
168
255
224
168
255
224
168
255
224
168
255
224
168
255
224
168
255
224
168
255
224
168
248
56
0
248
56
0
172
124
0
172
124
0
248
56
0
248
56
0
248
56
0
172
124
0
172
124
0
255
224
168
255
224
168
255
224
168
255
224
168
255
224
168
255
224
168
255
224
168
255
224
168
255
224
168
255
224
168
255
224
168
255
224
168
255
224
168
255
224
168
172
124
0
248
56
0
248
56
0
248
56
0
172
124
0
172
124
0
172
124
0
172
124
0
172
124
0
172
124
0
255
160
68
255
160
68
255
224
168
255
224
168
255
224
168
255
224
168
255
224
168
255
224
168
255
224
168
255
224
168
255
224
168
255
224
168
255
224
168
255
224
168
255
224
168
255
224
168
172
124
0
172
124
0
172
124
0
172
124
0
172
124
0
172
124
0
248
56
0
248
56
0
248
56
0
172
124
0
172
124
0
255
224
168
255
224
168
255
224
168
255
224
168
255
224
168
255
224
168
255
224
168
255
224
168
255
224
168
255
224
168
255
224
168
255
224
168
255
224
168
172
124
0
248
56
0
248
56
0
172
124
0
172
124
0
172
124
0
172
124
0
172
124
0
172
124
0
172
124
0
255
160
68
255
160
68
255
160
68
255
160
68
255
224
168
255
224
168
255
224
168
255
224
168
255
224
168
255
224
168
255
224
168
255
224
168
255
224
168
255
224
168
255
224
168
255
224
168
255
224
168
255
224
168
255
224
168
248
56
0
248
56
0
172
124
0
172
124
0
248
56
0
248
56
0
248
56
0
172
124
0
172
124
0
255
224
168
255
224
168
255
224
168
255
224
168
255
224
168
255
224
168
255
224
168
255
224
168
172
124
0
248
56
0
248
56
0
248
56
0
248
56
0
248
56
0
248
56
0
248
56
0
248
56
0
255
224
168
255
224
168
255
224
168
255
224
168
255
224
168
255
224
168
255
224
168
255
224
168
255
224
168
255
224
168
255
224
168
255
224
168
255
224
168
255
224
168
255
224
168
255
160
68
255
160
68
255
160
68
255
160
68
172
124
0
172
124
0
172
124
0
172
124
0
172
124
0
172
124
0
248
56
0
248
56
0
248
56
0
172
124
0
255
224
168
255
224
168
255
224
168
255
224
168
255
224
168
255
224
168
255
224
168
255
224
168
255
224
168
255
224
168
255
224
168
255
224
168
255
224
168
172
124
0
248
56
0
248
56
0
248
56
0
248
56
0
248
56
0
172
124
0
172
124
0
172
124
0
172
124
0
172
124
0
255
224
168
255
224
168
255
224
168
255
224
168
255
224
168
255
224
168
255
224
168
255
224
168
255
224
168
255
224
168
255
224
168
255
224
168
255
224
168
255
160
68
255
160
68
255
160
68
172
124
0
172
124
0
172
124
0
172
124
0
172
124
0
172
124
0
248
56
0
248
56
0
248
56
0
255
224
168
255
224
168
255
224
168
255
224
168
255
224
168
255
224
168
255
224
168
255
224
168
255
224
168
255
224
168
255
224
168
255
224
168
255
224
168
255
224
168
255
224
168
172
124
0
248
56
0
248
56
0
248
56
0
248
56
0
248
56
0
248
56
0
248
56
0
248
56
0
255
224
168
255
224
168
255
224
168
255
224
168
255
224
168
255
224
168
255
224
168
255
224
168
255
224
168
255
224
168
255
224
168
255
224
168
255
224
168
255
224
168
255
224
168
172
124
0
248
56
0
248
56
0
248
56
0
248
56
0
248
56
0
172
124
0
172
124
0
172
124
0
172
124
0
172
124
0
255
224
168
255
224
168
255
224
168
255
224
168
255
224
168
255
224
168
255
224
168
255
224
168
255
224
168
255
224
168
255
224
168
255
224
168
255
160
68
255
160
68
255
160
68
172
124
0
172
124
0
172
124
0
172
124
0
172
124
0
172
124
0
248
56
0
248
56
0
248
56
0
255
224
168
255
224
168
255
224
168
255
224
168
255
224
168
255
224
168
255
224
168
255
224
168
255
224
168
255
224
168
255
224
168
255
224
168
255
224
168
255
224
168
255
224
168
255
224
168
255
224
168
255
224
168
172
124
0
248
56
0
248
56
0
248
56
0
248
56
0
248
56
0
248
56
0
248
56
0
248
56
0
255
224
168
255
224
168
255
224
168
255
224
168
255
224
168
255
224
168
255
224
168
255
224
168
255
224
168
255
224
168
255
224
168
255
224
168
255
224
168
255
224
168
255
224
168
255
224
168
255
224
168
255
224
168
255
224
168
255
224
168
255
224
168
248
56
0
248
56
0
248
56
0
248
56
0
248
56
0
248
56
0
248
56
0
248
56
0
172
124
0
255
224
168
255
224
168
255
224
168
255
224
168
255
224
168
255
224
168
255
224
168
255
224
168
255
224
168
255
224
168
255
224
168
255
224
168
255
224
168
255
224
168
255
224
168
255
224
168
255
224
168
255
224
168
248
56
0
248
56
0
248
56
0
172
124
0
172
124
0
172
124
0
172
124
0
172
124
0
172
124
0
255
160
68
255
160
68
255
160
68
255
224
168
255
224
168
255
224
168
255
224
168
255
224
168
255
224
168
255
224
168
255
224
168
255
224
168
255
224
168
255
224
168
255
224
168
172
124
0
172
124
0
172
124
0
172
124
0
172
124
0
248
56
0
248
56
0
248
56
0
248
56
0
248
56
0
172
124
0
255
224
168
255
224
168
255
224
168
255
224
168
255
224
168
255
224
168
255
224
168
255
224
168
255
224
168
255
224
168
255
224
168
255
224
168
255
224
168
255
224
168
255
224
168
248
56
0
248
56
0
248
56
0
248
56
0
248
56
0
248
56
0
248
56
0
248
56
0
172
124
0
255
224
168
255
224
168
255
224
168
255
224
168
255
224
168
255
224
168
255
224
168
255
224
168
255
224
168
255
224
168
255
224
168
255
224
168
255
224
168
255
224
168
255
224
168
248
56
0
248
56
0
248
56
0
172
124
0
172
124
0
172
124
0
172
124
0
172
124
0
172
124
0
255
160
68
255
160
68
255
160
68
255
224
168
255
224
168
255
224
168
255
224
168
255
224
168
255
224
168
255
224
168
255
224
168
255
224
168
255
224
168
255
224
168
255
224
168
255
224
168
172
124
0
172
124
0
172
124
0
172
124
0
172
124
0
248
56
0
248
56
0
248
56
0
248
56
0
248
56
0
172
124
0
255
224
168
255
224
168
255
224
168
255
224
168
255
224
168
255
224
168
255
224
168
255
224
168
255
224
168
255
224
168
255
224
168
255
224
168
255
224
168
172
124
0
248
56
0
248
56
0
248
56
0
172
124
0
172
124
0
172
124
0
172
124
0
172
124
0
172
124
0
255
160
68
255
160
68
255
160
68
255
160
68
255
224
168
255
224
168
255
224
168
255
224
168
255
224
168
255
224
168
255
224
168
255
224
168
255
224
168
255
224
168
255
224
168
255
224
168
255
224
168
255
224
168
255
224
168
248
56
0
248
56
0
248
56
0
248
56
0
248
56
0
248
56
0
248
56
0
248
56
0
172
124
0
255
224
168
255
224
168
255
224
168
255
224
168
255
224
168
255
224
168
255
224
168
255
224
168
248
56
0
248
56
0
248
56
0
255
160
68
248
56
0
248
56
0
248
56
0
248
56
0
248
56
0
255
224
168
255
224
168
255
224
168
255
224
168
255
224
168
255
224
168
255
224
168
255
224
168
255
224
168
255
224
168
255
224
168
255
224
168
255
224
168
255
224
168
255
224
168
255
160
68
255
160
68
255
160
68
172
124
0
172
124
0
172
124
0
172
124
0
172
124
0
172
124
0
172
124
0
248
56
0
248
56
0
248
56
0
255
224
168
255
224
168
255
224
168
255
224
168
255
224
168
255
224
168
255
224
168
255
224
168
255
224
168
255
224
168
255
224
168
255
224
168
255
224
168
255
224
168
248
56
0
248
56
0
248
56
0
255
160
68
248
56
0
248
56
0
248
56
0
172
124
0
172
124
0
172
124
0
255
160
68
255
160
68
255
224
168
255
224
168
255
224
168
255
224
168
255
224
168
255
224
168
255
224
168
255
224
168
255
224
168
255
224
168
255
224
168
255
160
68
255
160
68
255
160
68
255
160
68
172
124
0
172
124
0
172
124
0
172
124
0
172
124
0
248
56
0
248
56
0
248
56
0
248
56
0
255
224
168
255
224
168
255
224
168
255
224
168
255
224
168
255
224
168
255
224
168
255
224
168
255
224
168
255
224
168
255
224
168
255
224
168
255
224
168
255
224
168
255
224
168
248
56
0
248
56
0
248
56
0
255
160
68
248
56
0
248
56
0
248
56
0
248
56
0
248
56
0
255
224
168
255
224
168
255
224
168
255
224
168
255
224
168
255
224
168
255
224
168
255
224
168
255
224
168
255
224
168
255
224
168
255
224
168
255
224
168
255
224
168
255
224
168
248
56
0
248
56
0
248
56
0
255
160
68
248
56
0
248
56
0
248
56
0
172
124
0
172
124
0
172
124
0
255
160
68
255
160
68
255
224
168
255
224
168
255
224
168
255
224
168
255
224
168
255
224
168
255
224
168
255
224
168
255
224
168
255
224
168
255
160
68
255
160
68
255
160
68
255
160
68
172
124
0
172
124
0
172
124
0
172
124
0
172
124
0
248
56
0
248
56
0
248
56
0
248
56
0
255
224
168
255
224
168
255
224
168
255
224
168
255
224
168
255
224
168
255
224
168
255
224
168
255
224
168
255
224
168
255
224
168
255
224
168
255
224
168
255
224
168
255
224
168
255
224
168
255
224
168
255
224
168
248
56
0
248
56
0
248
56
0
255
160
68
248
56
0
248
56
0
248
56
0
248
56
0
248
56
0
255
224
168
255
224
168
255
224
168
255
224
168
255
224
168
255
224
168
255
224
168
255
224
168
255
224
168
255
224
168
255
224
168
255
224
168
255
224
168
255
224
168
255
224
168
255
224
168
255
224
168
255
224
168
255
224
168
255
224
168
255
224
168
248
56
0
248
56
0
248
56
0
248
56
0
248
56
0
255
160
68
248
56
0
248
56
0
248
56
0
255
224
168
255
224
168
255
224
168
255
224
168
255
224
168
255
224
168
255
224
168
255
224
168
255
224
168
255
224
168
255
224
168
255
224
168
255
224
168
255
224
168
255
224
168
255
224
168
255
224
168
255
224
168
248
56
0
248
56
0
248
56
0
248
56
0
172
124
0
172
124
0
172
124
0
172
124
0
172
124
0
255
160
68
255
160
68
255
160
68
255
160
68
255
224
168
255
224
168
255
224
168
255
224
168
255
224
168
255
224
168
255
224
168
255
224
168
255
224
168
255
224
168
255
160
68
255
160
68
172
124
0
172
124
0
172
124
0
248
56
0
248
56
0
248
56
0
255
160
68
248
56
0
248
56
0
248
56
0
255
224
168
255
224
168
255
224
168
255
224
168
255
224
168
255
224
168
255
224
168
255
224
168
255
224
168
255
224
168
255
224
168
255
224
168
255
224
168
255
224
168
255
224
168
248
56
0
248
56
0
248
56
0
248
56
0
248
56
0
255
160
68
248
56
0
248
56
0
248
56
0
255
224
168
255
224
168
255
224
168
255
224
168
255
224
168
255
224
168
255
224
168
255
224
168
255
224
168
255
224
168
255
224
168
255
224
168
255
224
168
255
224
168
255
224
168
248
56
0
248
56
0
248
56
0
248
56
0
172
124
0
172
124
0
172
124
0
172
124
0
172
124
0
255
160
68
255
160
68
255
160
68
255
160
68
255
224
168
255
224
168
255
224
168
255
224
168
255
224
168
255
224
168
255
224
168
255
224
168
255
224
168
255
224
168
255
224
168
255
160
68
255
160
68
172
124
0
172
124
0
172
124
0
248
56
0
248
56
0
248
56
0
255
160
68
248
56
0
248
56
0
248
56
0
255
224
168
255
224
168
255
224
168
255
224
168
255
224
168
255
224
168
255
224
168
255
224
168
255
224
168
255
224
168
255
224
168
255
224
168
255
224
168
255
224
168
248
56
0
248
56
0
248
56
0
172
124
0
172
124
0
172
124
0
172
124
0
172
124
0
172
124
0
172
124
0
255
160
68
255
160
68
255
160
68
255
224
168
255
224
168
255
224
168
255
224
168
255
224
168
255
224
168
255
224
168
255
224
168
255
224
168
255
224
168
255
224
168
255
224
168
255
224
168
255
224
168
255
224
168
248
56
0
248
56
0
248
56
0
248
56
0
248
56
0
255
160
68
248
56
0
248
56
0
248
56
0
255
224
168
255
224
168
255
224
168
255
224
168
255
224
168
255
224
168
255
224
168
255
224
168
248
56
0
248
56
0
248
56
0
248
56
0
248
56
0
248
56
0
248
56
0
248
56
0
248
56
0
248
56
0
255
224
168
255
224
168
255
224
168
255
224
168
255
224
168
255
224
168
255
224
168
255
224
168
255
224
168
255
224
168
255
224
168
255
224
168
255
224
168
255
224
168
255
160
68
255
160
68
255
160
68
172
124
0
172
124
0
172
124
0
172
124
0
172
124
0
172
124
0
248
56
0
248
56
0
248
56
0
248
56
0
255
224
168
255
224
168
255
224
168
255
224
168
255
224
168
255
224
168
255
224
168
255
224
168
255
224
168
255
224
168
255
224
168
255
224
168
255
224
168
255
224
168
248
56
0
248
56
0
248
56
0
248
56
0
248
56
0
248
56
0
248
56
0
248
56
0
172
124
0
255
160
68
255
160
68
255
160
68
255
224
168
255
224
168
255
224
168
255
224
168
255
224
168
255
224
168
255
224
168
255
224
168
255
224
168
255
224
168
255
224
168
255
160
68
255
160
68
255
160
68
255
160
68
172
124
0
172
124
0
172
124
0
248
56
0
248
56
0
248
56
0
248
56
0
248
56
0
248
56
0
255
224
168
255
224
168
255
224
168
255
224
168
255
224
168
255
224
168
255
224
168
255
224
168
255
224
168
255
224
168
255
224
168
255
224
168
255
224
168
255
224
168
255
224
168
248
56
0
248
56
0
248
56
0
248
56
0
248
56
0
248
56
0
248
56
0
248
56
0
248
56
0
248
56
0
255
224
168
255
224
168
255
224
168
255
224
168
255
224
168
255
224
168
255
224
168
255
224
168
255
224
168
255
224
168
255
224
168
255
224
168
255
224
168
255
224
168
248
56
0
248
56
0
248
56
0
248
56
0
248
56
0
248
56
0
248
56
0
248
56
0
172
124
0
255
160
68
255
160
68
255
160
68
255
224
168
255
224
168
255
224
168
255
224
168
255
224
168
255
224
168
255
224
168
255
224
168
255
224
168
255
224
168
255
160
68
255
160
68
255
160
68
255
160
68
172
124
0
172
124
0
172
124
0
248
56
0
248
56
0
248
56
0
248
56
0
248
56
0
248
56
0
255
224
168
255
224
168
255
224
168
255
224
168
255
224
168
255
224
168
255
224
168
255
224
168
255
224
168
255
224
168
255
224
168
255
224
168
255
224
168
255
224
168
255
224
168
255
224
168
255
224
168
255
224
168
248
56
0
248
56
0
248
56
0
248
56
0
248
56
0
248
56
0
248
56
0
248
56
0
248
56
0
248
56
0
255
224
168
255
224
168
255
224
168
255
224
168
255
224
168
255
224
168
255
224
168
255
224
168
255
224
168
255
224
168
255
224
168
255
224
168
255
224
168
255
224
168
255
224
168
255
224
168
255
224
168
255
224
168
255
224
168
248
56
0
248
56
0
248
56
0
248
56
0
248
56
0
248
56
0
248
56
0
248
56
0
248
56
0
248
56
0
255
224
168
255
224
168
255
224
168
255
224
168
255
224
168
255
224
168
255
224
168
255
224
168
255
224
168
255
224
168
255
224
168
255
224
168
255
224
168
255
224
168
255
224
168
255
224
168
255
224
168
255
224
168
248
56
0
248
56
0
248
56
0
248
56
0
248
56
0
248
56
0
172
124
0
172
124
0
172
124
0
255
160
68
255
160
68
255
160
68
255
160
68
255
224
168
255
224
168
255
224
168
255
224
168
255
224
168
255
224
168
255
224
168
255
224
168
255
224
168
255
224
168
255
160
68
255
160
68
255
160
68
172
124
0
248
56
0
248
56
0
248
56
0
248
56
0
248
56
0
248
56
0
248
56
0
248
56
0
255
224
168
255
224
168
255
224
168
255
224
168
255
224
168
255
224
168
255
224
168
255
224
168
255
224
168
255
224
168
255
224
168
255
224
168
255
224
168
255
224
168
248
56
0
248
56
0
248
56
0
248
56
0
248
56
0
248
56
0
248
56
0
248
56
0
248
56
0
248
56
0
255
224
168
255
224
168
255
224
168
255
224
168
255
224
168
255
224
168
255
224
168
255
224
168
255
224
168
255
224
168
255
224
168
255
224
168
255
224
168
255
224
168
255
224
168
248
56
0
248
56
0
248
56
0
248
56
0
248
56
0
248
56
0
172
124
0
172
124
0
172
124
0
255
160
68
255
160
68
255
160
68
255
160
68
255
224
168
255
224
168
255
224
168
255
224
168
255
224
168
255
224
168
255
224
168
255
224
168
255
224
168
255
224
168
255
224
168
255
160
68
255
160
68
255
160
68
172
124
0
248
56
0
248
56
0
248
56
0
248
56
0
248
56
0
248
56
0
248
56
0
248
56
0
255
224
168
255
224
168
255
224
168
255
224
168
255
224
168
255
224
168
255
224
168
255
224
168
255
224
168
255
224
168
255
224
168
255
224
168
255
224
168
255
224
168
248
56
0
248
56
0
248
56
0
248
56
0
172
124
0
172
124
0
172
124
0
172
124
0
172
124
0
172
124
0
255
160
68
255
160
68
255
160
68
255
224
168
255
224
168
255
224
168
255
224
168
255
224
168
255
224
168
255
224
168
255
224
168
255
224
168
255
224
168
255
224
168
255
224
168
255
224
168
255
224
168
248
56
0
248
56
0
248
56
0
248
56
0
248
56
0
248
56
0
248
56
0
248
56
0
248
56
0
248
56
0
255
224
168
255
224
168
255
224
168
255
224
168
255
224
168
255
224
168
255
224
168
255
224
168
248
56
0
248
56
0
248
56
0
248
56
0
248
56
0
248
56
0
248
56
0
248
56
0
248
56
0
248
56
0
255
224
168
255
224
168
255
224
168
255
224
168
255
224
168
255
224
168
255
224
168
255
224
168
255
224
168
255
224
168
255
224
168
255
224
168
255
224
168
255
224
168
255
224
168
255
224
168
255
224
168
248
56
0
172
124
0
172
124
0
172
124
0
248
56
0
248
56
0
248
56
0
248
56
0
248
56
0
248
56
0
255
224
168
255
224
168
255
224
168
255
224
168
255
224
168
255
224
168
255
224
168
255
224
168
255
224
168
255
224
168
255
224
168
255
224
168
255
224
168
255
224
168
248
56
0
248
56
0
248
56
0
248
56
0
248
56
0
248
56
0
248
56
0
248
56
0
248
56
0
255
160
68
255
160
68
255
160
68
255
160
68
255
224
168
255
224
168
255
224
168
255
224
168
255
224
168
255
224
168
255
224
168
255
224
168
255
224
168
255
224
168
255
160
68
255
160
68
255
224
168
248
56
0
248
56
0
248
56
0
248
56
0
248
56
0
248
56
0
248
56
0
248
56
0
248
56
0
248
56
0
255
224
168
255
224
168
255
224
168
255
224
168
255
224
168
255
224
168
255
224
168
255
224
168
255
224
168
255
224
168
255
224
168
255
224
168
255
224
168
255
224
168
255
224
168
248
56
0
248
56
0
248
56
0
248
56
0
248
56
0
248
56
0
248
56
0
248
56
0
248
56
0
248
56
0
255
224
168
255
224
168
255
224
168
255
224
168
255
224
168
255
224
168
255
224
168
255
224
168
255
224
168
255
224
168
255
224
168
255
224
168
255
224
168
255
224
168
248
56
0
248
56
0
248
56
0
248
56
0
248
56
0
248
56
0
248
56
0
248
56
0
248
56
0
255
160
68
255
160
68
255
160
68
255
160
68
255
224
168
255
224
168
255
224
168
255
224
168
255
224
168
255
224
168
255
224
168
255
224
168
255
224
168
255
160
68
255
160
68
255
224
168
248
56
0
248
56
0
248
56
0
248
56
0
248
56
0
248
56
0
248
56
0
248
56
0
248
56
0
248
56
0
255
224
168
255
224
168
255
224
168
255
224
168
255
224
168
255
224
168
255
224
168
255
224
168
255
224
168
255
224
168
255
224
168
255
224
168
255
224
168
255
224
168
255
224
168
255
224
168
255
224
168
255
224
168
248
56
0
248
56
0
248
56
0
248
56
0
248
56
0
248
56
0
248
56
0
248
56
0
248
56
0
248
56
0
255
224
168
255
224
168
255
224
168
255
224
168
255
224
168
255
224
168
255
224
168
255
224
168
255
224
168
255
224
168
255
224
168
255
224
168
255
224
168
255
224
168
255
224
168
255
224
168
255
224
168
255
224
168
255
224
168
248
56
0
248
56
0
248
56
0
248
56
0
248
56
0
248
56
0
248
56
0
248
56
0
248
56
0
248
56
0
255
224
168
255
224
168
255
224
168
255
224
168
255
224
168
255
224
168
255
224
168
255
224
168
255
224
168
255
224
168
255
224
168
255
224
168
255
224
168
255
224
168
255
224
168
255
224
168
255
224
168
255
224
168
248
56
0
248
56
0
248
56
0
248
56
0
248
56
0
248
56
0
248
56
0
248
56
0
248
56
0
248
56
0
255
224
168
255
160
68
255
160
68
255
224
168
255
224
168
255
224
168
255
224
168
255
224
168
255
224
168
255
224
168
255
224
168
255
224
168
255
160
68
255
160
68
255
160
68
255
160
68
248
56
0
248
56
0
248
56
0
248
56
0
248
56
0
248
56
0
248
56
0
248
56
0
248
56
0
255
224
168
255
224
168
255
224
168
255
224
168
255
224
168
255
224
168
255
224
168
255
224
168
255
224
168
255
224
168
255
224
168
255
224
168
255
224
168
255
224
168
248
56
0
248
56
0
248
56
0
248
56
0
248
56
0
248
56
0
248
56
0
248
56
0
248
56
0
248
56
0
255
224
168
255
224
168
255
224
168
255
224
168
255
224
168
255
224
168
255
224
168
255
224
168
255
224
168
255
224
168
255
224
168
255
224
168
255
224
168
255
224
168
255
224
168
248
56
0
248
56
0
248
56
0
248
56
0
248
56
0
248
56
0
248
56
0
248
56
0
248
56
0
248
56
0
255
224
168
255
160
68
255
160
68
255
224
168
255
224
168
255
224
168
255
224
168
255
224
168
255
224
168
255
224
168
255
224
168
255
224
168
255
224
168
255
160
68
255
160
68
255
160
68
255
160
68
248
56
0
248
56
0
248
56
0
248
56
0
248
56
0
248
56
0
248
56
0
248
56
0
248
56
0
255
224
168
255
224
168
255
224
168
255
224
168
255
224
168
255
224
168
255
224
168
255
224
168
255
224
168
255
224
168
255
224
168
255
224
168
255
224
168
255
224
168
248
56
0
248
56
0
248
56
0
248
56
0
248
56
0
248
56
0
172
124
0
172
124
0
172
124
0
248
56
0
255
224
168
255
224
168
255
224
168
255
224
168
255
224
168
255
224
168
255
224
168
255
224
168
255
224
168
255
224
168
255
224
168
255
224
168
255
224
168
255
224
168
255
224
168
255
224
168
255
224
168
248
56
0
248
56
0
248
56
0
248
56
0
248
56
0
248
56
0
248
56
0
248
56
0
248
56
0
248
56
0
255
224
168
255
224
168
255
224
168
255
224
168
255
224
168
255
224
168
255
224
168
255
224
168
248
56
0
248
56
0
248
56
0
248
56
0
248
56
0
248
56
0
248
56
0
248
56
0
248
56
0
248
56
0
255
224
168
255
224
168
255
224
168
255
224
168
255
224
168
255
224
168
255
224
168
255
224
168
255
224
168
255
224
168
255
224
168
255
224
168
255
224
168
255
224
168
255
224
168
255
224
168
255
224
168
248
56
0
248
56
0
248
56
0
248
56
0
248
56
0
248
56
0
248
56
0
248
56
0
248
56
0
248
56
0
255
224
168
255
224
168
255
224
168
255
224
168
255
224
168
255
224
168
255
224
168
255
224
168
255
224
168
255
224
168
255
224
168
255
224
168
255
224
168
255
224
168
255
224
168
248
56
0
248
56
0
248
56
0
248
56
0
248
56
0
248
56
0
248
56
0
248
56
0
248
56
0
255
160
68
255
160
68
255
160
68
255
224
168
255
224
168
255
224
168
255
224
168
255
224
168
255
224
168
255
224
168
255
224
168
255
224
168
255
224
168
255
224
168
255
224
168
255
224
168
255
224
168
248
56
0
248
56
0
248
56
0
248
56
0
248
56
0
248
56
0
248
56
0
248
56
0
248
56
0
255
224
168
255
224
168
255
224
168
255
224
168
255
224
168
255
224
168
255
224
168
255
224
168
255
224
168
255
224
168
255
224
168
255
224
168
255
224
168
255
224
168
255
224
168
248
56
0
248
56
0
248
56
0
248
56
0
248
56
0
248
56
0
248
56
0
248
56
0
248
56
0
248
56
0
255
224
168
255
224
168
255
224
168
255
224
168
255
224
168
255
224
168
255
224
168
255
224
168
255
224
168
255
224
168
255
224
168
255
224
168
255
224
168
255
224
168
255
224
168
248
56
0
248
56
0
248
56
0
248
56
0
248
56
0
248
56
0
248
56
0
248
56
0
248
56
0
255
160
68
255
160
68
255
160
68
255
224
168
255
224
168
255
224
168
255
224
168
255
224
168
255
224
168
255
224
168
255
224
168
255
224
168
255
224
168
255
224
168
255
224
168
255
224
168
248
56
0
248
56
0
248
56
0
248
56
0
248
56
0
248
56
0
248
56
0
248
56
0
248
56
0
255
224
168
255
224
168
255
224
168
255
224
168
255
224
168
255
224
168
255
224
168
255
224
168
255
224
168
255
224
168
255
224
168
255
224
168
255
224
168
255
224
168
255
224
168
255
224
168
255
224
168
255
224
168
248
56
0
248
56
0
248
56
0
248
56
0
248
56
0
248
56
0
248
56
0
248
56
0
248
56
0
248
56
0
255
224
168
255
224
168
255
224
168
255
224
168
255
224
168
255
224
168
255
224
168
255
224
168
255
224
168
255
224
168
255
224
168
255
224
168
255
224
168
255
224
168
255
224
168
255
224
168
255
224
168
255
224
168
255
224
168
248
56
0
248
56
0
248
56
0
248
56
0
248
56
0
248
56
0
248
56
0
248
56
0
248
56
0
248
56
0
255
224
168
255
224
168
255
224
168
255
224
168
255
224
168
255
224
168
255
224
168
255
224
168
255
224
168
255
224
168
255
224
168
255
224
168
255
224
168
255
224
168
255
224
168
255
224
168
255
224
168
255
224
168
248
56
0
248
56
0
248
56
0
248
56
0
248
56
0
248
56
0
248
56
0
248
56
0
248
56
0
255
224
168
255
224
168
255
224
168
255
224
168
255
224
168
255
224
168
255
224
168
255
224
168
255
224
168
255
224
168
255
224
168
255
224
168
255
224
168
255
160
68
255
160
68
255
160
68
248
56
0
248
56
0
248
56
0
248
56
0
248
56
0
248
56
0
248
56
0
248
56
0
248
56
0
255
224
168
255
224
168
255
224
168
255
224
168
255
224
168
255
224
168
255
224
168
255
224
168
255
224
168
255
224
168
255
224
168
255
224
168
255
224
168
255
224
168
255
224
168
248
56
0
248
56
0
248
56
0
248
56
0
248
56
0
248
56
0
248
56
0
248
56
0
248
56
0
248
56
0
255
224
168
255
224
168
255
224
168
255
224
168
255
224
168
255
224
168
255
224
168
255
224
168
255
224
168
255
224
168
255
224
168
255
224
168
255
224
168
255
224
168
255
224
168
248
56
0
248
56
0
248
56
0
248
56
0
248
56
0
248
56
0
248
56
0
248
56
0
248
56
0
255
224
168
255
224
168
255
224
168
255
224
168
255
224
168
255
224
168
255
224
168
255
224
168
255
224
168
255
224
168
255
224
168
255
224
168
255
224
168
255
224
168
255
160
68
255
160
68
255
160
68
248
56
0
248
56
0
248
56
0
248
56
0
248
56
0
248
56
0
248
56
0
248
56
0
248
56
0
255
224
168
255
224
168
255
224
168
255
224
168
255
224
168
255
224
168
255
224
168
255
224
168
255
224
168
255
224
168
255
224
168
255
224
168
255
224
168
255
224
168
255
224
168
248
56
0
248
56
0
248
56
0
248
56
0
248
56
0
248
56
0
248
56
0
248
56
0
248
56
0
248
56
0
255
224
168
255
224
168
255
224
168
255
224
168
255
224
168
255
224
168
255
224
168
255
224
168
255
224
168
255
224
168
255
224
168
255
224
168
255
224
168
255
224
168
255
224
168
255
224
168
255
224
168
248
56
0
248
56
0
248
56
0
248
56
0
248
56
0
248
56
0
248
56
0
248
56
0
248
56
0
248
56
0
255
224
168
255
224
168
255
224
168
255
224
168
255
224
168
255
224
168
255
224
168
255
224
168
255
224
168
248
56
0
248
56
0
248
56
0
248
56
0
248
56
0
248
56
0
248
56
0
248
56
0
248
56
0
255
224
168
255
224
168
255
224
168
255
224
168
255
224
168
255
224
168
255
224
168
255
224
168
255
224
168
255
224
168
255
224
168
255
224
168
255
224
168
255
224
168
255
224
168
255
224
168
255
224
168
172
124
0
248
56
0
248
56
0
248
56
0
248
56
0
248
56
0
248
56
0
248
56
0
248
56
0
248
56
0
255
224
168
255
224
168
255
224
168
255
224
168
255
224
168
255
224
168
255
224
168
255
224
168
255
224
168
255
224
168
255
224
168
255
224
168
255
224
168
255
224
168
255
224
168
248
56
0
248
56
0
248
56
0
248
56
0
248
56
0
248
56
0
248
56
0
248
56
0
248
56
0
255
224
168
255
224
168
255
224
168
255
224
168
255
224
168
255
224
168
255
224
168
255
224
168
255
224
168
255
224
168
255
224
168
255
224
168
255
224
168
255
224
168
255
224
168
255
224
168
255
224
168
248
56
0
248
56
0
248
56
0
248
56
0
248
56
0
248
56
0
248
56
0
248
56
0
248
56
0
255
224
168
255
224
168
255
224
168
255
224
168
255
224
168
255
224
168
255
224
168
255
224
168
255
224
168
255
224
168
255
224
168
255
224
168
255
224
168
255
224
168
255
224
168
255
224
168
248
56
0
248
56
0
248
56
0
248
56
0
248
56
0
248
56
0
248
56
0
248
56
0
248
56
0
255
224
168
255
224
168
255
224
168
255
224
168
255
224
168
255
224
168
255
224
168
255
224
168
255
224
168
255
224
168
255
224
168
255
224
168
255
224
168
255
224
168
255
224
168
248
56
0
248
56
0
248
56
0
248
56
0
248
56
0
248
56
0
248
56
0
248
56
0
172
124
0
172
124
0
255
224
168
255
224
168
255
224
168
255
224
168
255
224
168
255
224
168
255
224
168
255
224
168
255
224
168
255
224
168
255
224
168
255
224
168
255
224
168
255
224
168
255
224
168
248
56
0
248
56
0
248
56
0
248
56
0
248
56
0
248
56
0
248
56
0
248
56
0
172
124
0
172
124
0
255
224
168
255
224
168
255
224
168
255
224
168
255
224
168
255
224
168
255
224
168
255
224
168
255
224
168
255
224
168
255
224
168
255
224
168
255
224
168
255
224
168
255
224
168
255
224
168
255
224
168
255
224
168
248
56
0
248
56
0
248
56
0
248
56
0
248
56
0
248
56
0
248
56
0
248
56
0
172
124
0
172
124
0
255
224
168
255
224
168
255
224
168
255
224
168
255
224
168
255
224
168
255
224
168
255
224
168
255
224
168
255
224
168
255
224
168
255
224
168
255
224
168
255
224
168
255
224
168
255
224
168
255
224
168
172
124
0
172
124
0
248
56
0
248
56
0
248
56
0
248
56
0
248
56
0
248
56
0
248
56
0
248
56
0
255
224
168
255
224
168
255
224
168
255
224
168
255
224
168
255
224
168
255
224
168
255
224
168
255
224
168
255
224
168
255
224
168
255
224
168
255
224
168
255
224
168
255
224
168
255
224
168
255
224
168
255
224
168
172
124
0
172
124
0
248
56
0
248
56
0
248
56
0
248
56
0
248
56
0
248
56
0
248
56
0
248
56
0
255
224
168
255
224
168
255
224
168
255
224
168
255
224
168
255
224
168
255
224
168
255
224
168
255
224
168
255
224
168
255
224
168
255
224
168
255
224
168
255
224
168
255
224
168
172
124
0
172
124
0
248
56
0
248
56
0
248
56
0
248
56
0
248
56
0
248
56
0
248
56
0
248
56
0
255
224
168
255
224
168
255
224
168
255
224
168
255
224
168
255
224
168
255
224
168
255
224
168
255
224
168
255
224
168
255
224
168
255
224
168
255
224
168
255
224
168
255
224
168
248
56
0
248
56
0
248
56
0
248
56
0
248
56
0
248
56
0
248
56
0
248
56
0
248
56
0
255
224
168
255
224
168
255
224
168
255
224
168
255
224
168
255
224
168
255
224
168
255
224
168
255
224
168
255
224
168
255
224
168
255
224
168
255
224
168
255
224
168
255
224
168
255
224
168
248
56
0
248
56
0
248
56
0
248
56
0
248
56
0
248
56
0
248
56
0
248
56
0
248
56
0
255
224
168
255
224
168
255
224
168
255
224
168
255
224
168
255
224
168
255
224
168
255
224
168
255
224
168
255
224
168
255
224
168
255
224
168
255
224
168
255
224
168
255
224
168
255
224
168
255
224
168
248
56
0
248
56
0
248
56
0
248
56
0
248
56
0
248
56
0
248
56
0
248
56
0
248
56
0
255
224
168
255
224
168
255
224
168
255
224
168
255
224
168
255
224
168
255
224
168
255
224
168
255
224
168
255
224
168
255
224
168
255
224
168
255
224
168
255
224
168
255
224
168
248
56
0
248
56
0
248
56
0
248
56
0
248
56
0
248
56
0
248
56
0
248
56
0
248
56
0
172
124
0
255
224
168
255
224
168
255
224
168
255
224
168
255
224
168
255
224
168
255
224
168
255
224
168
255
224
168
255
224
168
255
224
168
255
224
168
255
224
168
255
224
168
255
224
168
255
224
168
255
224
168
248
56
0
248
56
0
248
56
0
248
56
0
248
56
0
248
56
0
248
56
0
248
56
0
248
56
0
255
224
168
255
224
168
255
224
168
255
224
168
255
224
168
255
224
168
172
124
0
172
124
0
255
224
168
172
124
0
248
56
0
248
56
0
248
56
0
248
56
0
248
56
0
248
56
0
248
56
0
248
56
0
248
56
0
255
224
168
255
224
168
255
224
168
255
224
168
255
224
168
255
224
168
255
224
168
255
224
168
255
224
168
255
224
168
255
224
168
255
224
168
255
224
168
255
224
168
172
124
0
172
124
0
255
224
168
248
56
0
248
56
0
248
56
0
248
56
0
248
56
0
248
56
0
248
56
0
248
56
0
248
56
0
248
56
0
255
224
168
255
224
168
255
224
168
255
224
168
255
224
168
255
224
168
255
224
168
255
224
168
255
224
168
255
224
168
255
224
168
255
224
168
255
224
168
255
224
168
255
224
168
255
224
168
248
56
0
248
56
0
248
56
0
248
56
0
248
56
0
248
56
0
248
56
0
248
56
0
255
224
168
255
224
168
255
224
168
255
224
168
255
224
168
255
224
168
255
224
168
255
224
168
255
224
168
255
224
168
255
224
168
255
224
168
255
224
168
255
224
168
255
224
168
255
224
168
255
224
168
255
224
168
248
56
0
248
56
0
248
56
0
248
56
0
248
56
0
248
56
0
248
56
0
248
56
0
255
224
168
255
224
168
255
224
168
255
224
168
255
224
168
255
224
168
255
224
168
255
224
168
255
224
168
255
224
168
255
224
168
255
224
168
255
224
168
255
224
168
255
224
168
255
224
168
255
224
168
248
56
0
248
56
0
248
56
0
248
56
0
248
56
0
248
56
0
248
56
0
248
56
0
255
224
168
255
224
168
255
224
168
255
224
168
255
224
168
255
224
168
255
224
168
255
224
168
255
224
168
255
224
168
255
224
168
255
224
168
255
224
168
255
224
168
255
224
168
255
224
168
248
56
0
248
56
0
248
56
0
248
56
0
248
56
0
248
56
0
248
56
0
172
124
0
172
124
0
172
124
0
172
124
0
255
224
168
255
224
168
255
224
168
255
224
168
255
224
168
255
224
168
255
224
168
255
224
168
255
224
168
255
224
168
255
224
168
255
224
168
255
224
168
255
224
168
248
56
0
248
56
0
248
56
0
248
56
0
248
56
0
248
56
0
248
56
0
172
124
0
172
124
0
172
124
0
172
124
0
255
224
168
255
224
168
255
224
168
255
224
168
255
224
168
255
224
168
255
224
168
255
224
168
255
224
168
255
224
168
255
224
168
255
224
168
255
224
168
255
224
168
255
224
168
255
224
168
255
224
168
248
56
0
248
56
0
248
56
0
248
56
0
248
56
0
248
56
0
248
56
0
172
124
0
172
124
0
172
124
0
172
124
0
255
224
168
255
224
168
255
224
168
255
224
168
255
224
168
255
224
168
255
224
168
255
224
168
255
224
168
255
224
168
255
224
168
255
224
168
255
224
168
172
124
0
172
124
0
172
124
0
172
124
0
248
56
0
248
56
0
248
56
0
248
56
0
248
56
0
248
56
0
248
56
0
255
224
168
255
224
168
255
224
168
255
224
168
255
224
168
255
224
168
255
224
168
255
224
168
255
224
168
255
224
168
255
224
168
255
224
168
255
224
168
255
224
168
255
224
168
255
224
168
255
224
168
172
124
0
172
124
0
172
124
0
172
124
0
248
56
0
248
56
0
248
56
0
248
56
0
248
56
0
248
56
0
248
56
0
255
224
168
255
224
168
255
224
168
255
224
168
255
224
168
255
224
168
255
224
168
255
224
168
255
224
168
255
224
168
255
224
168
255
224
168
255
224
168
255
224
168
172
124
0
172
124
0
172
124
0
172
124
0
248
56
0
248
56
0
248
56
0
248
56
0
248
56
0
248
56
0
248
56
0
255
224
168
255
224
168
255
224
168
255
224
168
255
224
168
255
224
168
255
224
168
255
224
168
255
224
168
255
224
168
255
224
168
255
224
168
255
224
168
255
224
168
255
224
168
255
224
168
248
56
0
248
56
0
248
56
0
248
56
0
248
56
0
248
56
0
248
56
0
248
56
0
255
224
168
255
224
168
255
224
168
255
224
168
255
224
168
255
224
168
255
224
168
255
224
168
255
224
168
255
224
168
255
224
168
255
224
168
255
224
168
255
224
168
255
224
168
255
224
168
255
224
168
248
56
0
248
56
0
248
56
0
248
56
0
248
56
0
248
56
0
248
56
0
248
56
0
255
224
168
255
224
168
255
224
168
255
224
168
255
224
168
255
224
168
255
224
168
255
224
168
255
224
168
255
224
168
255
224
168
255
224
168
255
224
168
255
224
168
255
224
168
255
224
168
255
224
168
255
224
168
248
56
0
248
56
0
248
56
0
248
56
0
248
56
0
248
56
0
248
56
0
248
56
0
255
224
168
255
224
168
255
224
168
255
224
168
255
224
168
255
224
168
255
224
168
255
224
168
255
224
168
255
224
168
255
224
168
255
224
168
255
224
168
255
224
168
255
224
168
255
224
168
248
56
0
248
56
0
248
56
0
248
56
0
248
56
0
248
56
0
248
56
0
248
56
0
248
56
0
248
56
0
255
224
168
172
124
0
172
124
0
255
224
168
255
224
168
255
224
168
255
224
168
255
224
168
255
224
168
255
224
168
255
224
168
255
224
168
255
224
168
255
224
168
255
224
168
255
224
168
255
224
168
248
56
0
248
56
0
248
56
0
248
56
0
248
56
0
248
56
0
248
56
0
248
56
0
248
56
0
172
124
0
255
224
168
172
124
0
172
124
0
255
224
168
255
224
168
172
124
0
172
124
0
172
124
0
172
124
0
172
124
0
248
56
0
248
56
0
248
56
0
248
56
0
248
56
0
248
56
0
248
56
0
255
224
168
255
224
168
255
224
168
255
224
168
255
224
168
255
224
168
255
224
168
255
224
168
255
224
168
255
224
168
255
224
168
255
224
168
255
224
168
255
224
168
255
224
168
172
124
0
172
124
0
172
124
0
172
124
0
248
56
0
248
56
0
248
56
0
248
56
0
248
56
0
248
56
0
248
56
0
248
56
0
248
56
0
255
224
168
255
224
168
255
224
168
255
224
168
255
224
168
255
224
168
255
224
168
255
224
168
255
224
168
255
224
168
255
224
168
255
224
168
255
224
168
255
224
168
255
224
168
255
224
168
255
224
168
255
224
168
248
56
0
248
56
0
248
56
0
248
56
0
248
56
0
172
124
0
255
224
168
255
224
168
255
224
168
255
224
168
255
224
168
255
224
168
255
224
168
255
224
168
255
224
168
255
224
168
255
224
168
255
224
168
255
224
168
255
224
168
255
224
168
255
224
168
255
224
168
255
224
168
255
224
168
255
224
168
248
56
0
248
56
0
248
56
0
248
56
0
248
56
0
172
124
0
255
224
168
255
224
168
255
224
168
255
224
168
255
224
168
255
224
168
255
224
168
255
224
168
255
224
168
255
224
168
255
224
168
255
224
168
255
224
168
255
224
168
255
224
168
255
224
168
255
224
168
255
224
168
255
224
168
248
56
0
248
56
0
248
56
0
248
56
0
248
56
0
172
124
0
255
224
168
255
224
168
255
224
168
255
224
168
255
224
168
255
224
168
255
224
168
255
224
168
255
224
168
255
224
168
255
224
168
255
224
168
255
224
168
255
224
168
255
224
168
255
224
168
255
224
168
255
224
168
248
56
0
248
56
0
248
56
0
248
56
0
248
56
0
172
124
0
172
124
0
172
124
0
172
124
0
255
224
168
255
224
168
255
224
168
255
224
168
255
224
168
255
224
168
255
224
168
255
224
168
255
224
168
255
224
168
255
224
168
255
224
168
255
224
168
255
224
168
255
224
168
255
224
168
248
56
0
248
56
0
248
56
0
248
56
0
248
56
0
172
124
0
172
124
0
172
124
0
172
124
0
255
224
168
255
224
168
255
224
168
255
224
168
255
224
168
255
224
168
255
224
168
255
224
168
255
224
168
255
224
168
255
224
168
255
224
168
255
224
168
255
224
168
255
224
168
255
224
168
255
224
168
255
224
168
255
224
168
248
56
0
248
56
0
248
56
0
248
56
0
248
56
0
172
124
0
172
124
0
172
124
0
172
124
0
255
224
168
255
224
168
255
224
168
255
224
168
255
224
168
255
224
168
255
224
168
255
224
168
255
224
168
255
224
168
255
224
168
255
224
168
255
224
168
172
124
0
172
124
0
172
124
0
172
124
0
248
56
0
248
56
0
248
56
0
248
56
0
248
56
0
255
224
168
255
224
168
255
224
168
255
224
168
255
224
168
255
224
168
255
224
168
255
224
168
255
224
168
255
224
168
255
224
168
255
224
168
255
224
168
255
224
168
255
224
168
255
224
168
255
224
168
255
224
168
255
224
168
172
124
0
172
124
0
172
124
0
172
124
0
248
56
0
248
56
0
248
56
0
248
56
0
248
56
0
255
224
168
255
224
168
255
224
168
255
224
168
255
224
168
255
224
168
255
224
168
255
224
168
255
224
168
255
224
168
255
224
168
255
224
168
255
224
168
255
224
168
255
224
168
255
224
168
172
124
0
172
124
0
172
124
0
172
124
0
248
56
0
248
56
0
248
56
0
248
56
0
248
56
0
255
224
168
255
224
168
255
224
168
255
224
168
255
224
168
255
224
168
255
224
168
255
224
168
255
224
168
255
224
168
255
224
168
255
224
168
255
224
168
255
224
168
255
224
168
255
224
168
255
224
168
255
224
168
172
124
0
248
56
0
248
56
0
248
56
0
248
56
0
248
56
0
255
224
168
255
224
168
255
224
168
255
224
168
255
224
168
255
224
168
255
224
168
255
224
168
255
224
168
255
224
168
255
224
168
255
224
168
255
224
168
255
224
168
255
224
168
255
224
168
255
224
168
255
224
168
255
224
168
172
124
0
248
56
0
248
56
0
248
56
0
248
56
0
248
56
0
255
224
168
255
224
168
255
224
168
255
224
168
255
224
168
255
224
168
255
224
168
255
224
168
255
224
168
255
224
168
255
224
168
255
224
168
255
224
168
255
224
168
255
224
168
255
224
168
255
224
168
255
224
168
255
224
168
255
224
168
172
124
0
248
56
0
248
56
0
248
56
0
248
56
0
248
56
0
255
224
168
255
224
168
255
224
168
255
224
168
255
224
168
255
224
168
255
224
168
255
224
168
255
224
168
255
224
168
255
224
168
255
224
168
255
224
168
255
224
168
255
224
168
255
224
168
255
224
168
255
224
168
248
56
0
248
56
0
248
56
0
248
56
0
248
56
0
248
56
0
248
56
0
248
56
0
248
56
0
172
124
0
172
124
0
172
124
0
172
124
0
255
224
168
255
224
168
255
224
168
255
224
168
255
224
168
255
224
168
255
224
168
255
224
168
255
224
168
255
224
168
255
224
168
255
224
168
255
224
168
255
224
168
255
224
168
248
56
0
248
56
0
248
56
0
248
56
0
248
56
0
248
56
0
248
56
0
172
124
0
172
124
0
172
124
0
172
124
0
172
124
0
255
224
168
255
224
168
172
124
0
172
124
0
172
124
0
172
124
0
172
124
0
248
56
0
248
56
0
248
56
0
248
56
0
248
56
0
248
56
0
255
224
168
255
224
168
255
224
168
255
224
168
255
224
168
255
224
168
255
224
168
255
224
168
255
224
168
255
224
168
255
224
168
255
224
168
255
224
168
255
224
168
255
224
168
255
224
168
172
124
0
172
124
0
172
124
0
172
124
0
248
56
0
248
56
0
248
56
0
248
56
0
248
56
0
248
56
0
248
56
0
248
56
0
255
224
168
255
224
168
255
224
168
255
224
168
255
224
168
255
224
168
255
224
168
255
224
168
255
224
168
255
224
168
255
224
168
255
224
168
255
224
168
255
224
168
255
224
168
255
224
168
255
224
168
255
224
168
255
224
168
255
224
168
248
56
0
248
56
0
248
56
0
172
124
0
172
124
0
172
124
0
255
224
168
255
224
168
255
224
168
255
224
168
255
224
168
255
224
168
255
224
168
255
224
168
255
224
168
255
224
168
255
224
168
255
224
168
255
224
168
255
224
168
255
224
168
255
224
168
255
224
168
255
224
168
255
224
168
255
224
168
248
56
0
248
56
0
248
56
0
172
124
0
172
124
0
172
124
0
255
224
168
255
224
168
255
224
168
255
224
168
255
224
168
255
224
168
255
224
168
255
224
168
255
224
168
255
224
168
255
224
168
255
224
168
255
224
168
255
224
168
255
224
168
255
224
168
255
224
168
255
224
168
255
224
168
248
56
0
248
56
0
248
56
0
172
124
0
172
124
0
172
124
0
255
224
168
255
224
168
255
224
168
255
224
168
255
224
168
255
224
168
255
224
168
255
224
168
255
224
168
255
224
168
255
224
168
255
224
168
255
224
168
255
224
168
255
224
168
255
224
168
255
224
168
255
224
168
172
124
0
248
56
0
248
56
0
248
56
0
172
124
0
172
124
0
172
124
0
172
124
0
255
224
168
255
224
168
255
224
168
255
224
168
255
224
168
255
224
168
255
224
168
255
224
168
255
224
168
255
224
168
255
224
168
255
224
168
255
224
168
255
224
168
255
224
168
255
224
168
255
224
168
172
124
0
248
56
0
248
56
0
248
56
0
172
124
0
172
124
0
172
124
0
172
124
0
255
224
168
255
224
168
255
224
168
255
224
168
255
224
168
255
224
168
255
224
168
255
224
168
255
224
168
255
224
168
255
224
168
255
224
168
255
224
168
255
224
168
255
224
168
255
224
168
255
224
168
255
224
168
255
224
168
255
224
168
172
124
0
248
56
0
248
56
0
248
56
0
172
124
0
172
124
0
172
124
0
172
124
0
255
224
168
255
224
168
255
224
168
255
224
168
255
224
168
255
224
168
255
224
168
255
224
168
255
224
168
255
224
168
255
224
168
255
224
168
255
224
168
172
124
0
172
124
0
172
124
0
172
124
0
248
56
0
248
56
0
248
56
0
172
124
0
255
224
168
255
224
168
255
224
168
255
224
168
255
224
168
255
224
168
255
224
168
255
224
168
255
224
168
255
224
168
255
224
168
255
224
168
255
224
168
255
224
168
255
224
168
255
224
168
255
224
168
255
224
168
255
224
168
255
224
168
172
124
0
172
124
0
172
124
0
172
124
0
248
56
0
248
56
0
248
56
0
172
124
0
255
224
168
255
224
168
255
224
168
255
224
168
255
224
168
255
224
168
255
224
168
255
224
168
255
224
168
255
224
168
255
224
168
255
224
168
255
224
168
255
224
168
255
224
168
255
224
168
255
224
168
172
124
0
172
124
0
172
124
0
172
124
0
248
56
0
248
56
0
248
56
0
172
124
0
255
224
168
255
224
168
255
224
168
255
224
168
255
224
168
255
224
168
255
224
168
255
224
168
255
224
168
255
224
168
255
224
168
255
224
168
255
224
168
255
224
168
255
224
168
255
224
168
255
224
168
255
224
168
172
124
0
172
124
0
172
124
0
248
56
0
248
56
0
248
56
0
255
224
168
255
224
168
255
224
168
255
224
168
255
224
168
255
224
168
255
224
168
255
224
168
255
224
168
255
224
168
255
224
168
255
224
168
255
224
168
255
224
168
255
224
168
255
224
168
255
224
168
255
224
168
255
224
168
172
124
0
172
124
0
172
124
0
248
56
0
248
56
0
248
56
0
255
224
168
255
224
168
255
224
168
255
224
168
255
224
168
255
224
168
255
224
168
255
224
168
255
224
168
255
224
168
255
224
168
255
224
168
255
224
168
255
224
168
255
224
168
255
224
168
255
224
168
255
224
168
255
224
168
255
224
168
172
124
0
172
124
0
172
124
0
248
56
0
248
56
0
248
56
0
255
224
168
255
224
168
255
224
168
255
224
168
255
224
168
255
224
168
255
224
168
255
224
168
255
224
168
255
224
168
255
224
168
255
224
168
255
224
168
255
224
168
255
224
168
255
224
168
255
224
168
255
224
168
255
224
168
255
224
168
248
56
0
248
56
0
248
56
0
248
56
0
248
56
0
248
56
0
248
56
0
248
56
0
172
124
0
172
124
0
172
124
0
172
124
0
255
224
168
255
224
168
255
224
168
255
224
168
255
224
168
255
224
168
255
224
168
255
224
168
255
224
168
255
224
168
255
224
168
255
224
168
255
224
168
255
224
168
255
224
168
255
224
168
248
56
0
248
56
0
248
56
0
248
56
0
248
56
0
248
56
0
172
124
0
172
124
0
172
124
0
172
124
0
172
124
0
255
224
168
255
224
168
255
224
168
172
124
0
172
124
0
172
124
0
172
124
0
248
56
0
248
56
0
248
56
0
248
56
0
255
224
168
255
224
168
255
224
168
255
224
168
255
224
168
255
224
168
255
224
168
255
224
168
255
224
168
255
224
168
255
224
168
255
224
168
255
224
168
255
224
168
255
224
168
255
224
168
255
224
168
255
224
168
172
124
0
172
124
0
172
124
0
172
124
0
248
56
0
248
56
0
248
56
0
248
56
0
248
56
0
248
56
0
248
56
0
248
56
0
255
224
168
255
224
168
255
224
168
255
224
168
255
224
168
255
224
168
255
224
168
255
224
168
255
224
168
255
224
168
255
224
168
255
224
168
255
224
168
255
224
168
255
224
168
255
224
168
255
224
168
255
224
168
255
224
168
255
224
168
255
224
168
172
124
0
172
124
0
172
124
0
172
124
0
172
124
0
255
224
168
255
224
168
255
224
168
255
224
168
255
224
168
255
224
168
255
224
168
255
224
168
255
224
168
255
224
168
255
224
168
255
224
168
255
224
168
255
224
168
255
224
168
255
224
168
255
224
168
255
224
168
255
224
168
255
224
168
255
224
168
172
124
0
172
124
0
172
124
0
172
124
0
172
124
0
255
224
168
255
224
168
255
224
168
255
224
168
255
224
168
255
224
168
255
224
168
255
224
168
255
224
168
255
224
168
255
224
168
255
224
168
255
224
168
255
224
168
255
224
168
255
224
168
255
224
168
255
224
168
255
224
168
255
224
168
172
124
0
172
124
0
172
124
0
172
124
0
172
124
0
255
224
168
255
224
168
255
224
168
255
224
168
255
224
168
255
224
168
255
224
168
255
224
168
255
224
168
255
224
168
255
224
168
255
224
168
255
224
168
255
224
168
255
224
168
255
224
168
255
224
168
255
224
168
255
224
168
172
124
0
172
124
0
255
224
168
172
124
0
172
124
0
172
124
0
172
124
0
255
224
168
255
224
168
255
224
168
255
224
168
255
224
168
255
224
168
255
224
168
255
224
168
255
224
168
255
224
168
255
224
168
255
224
168
255
224
168
255
224
168
255
224
168
255
224
168
255
224
168
255
224
168
172
124
0
172
124
0
255
224
168
172
124
0
172
124
0
172
124
0
172
124
0
255
224
168
255
224
168
255
224
168
255
224
168
255
224
168
255
224
168
255
224
168
255
224
168
255
224
168
255
224
168
255
224
168
255
224
168
255
224
168
255
224
168
255
224
168
255
224
168
255
224
168
255
224
168
255
224
168
255
224
168
255
224
168
172
124
0
172
124
0
255
224
168
172
124
0
172
124
0
172
124
0
172
124
0
255
224
168
255
224
168
255
224
168
255
224
168
255
224
168
255
224
168
255
224
168
255
224
168
255
224
168
255
224
168
255
224
168
255
224
168
255
224
168
172
124
0
172
124
0
172
124
0
172
124
0
255
224
168
172
124
0
172
124
0
255
224
168
255
224
168
255
224
168
255
224
168
255
224
168
255
224
168
255
224
168
255
224
168
255
224
168
255
224
168
255
224
168
255
224
168
255
224
168
255
224
168
255
224
168
255
224
168
255
224
168
255
224
168
255
224
168
255
224
168
255
224
168
172
124
0
172
124
0
172
124
0
172
124
0
255
224
168
172
124
0
172
124
0
255
224
168
255
224
168
255
224
168
255
224
168
255
224
168
255
224
168
255
224
168
255
224
168
255
224
168
255
224
168
255
224
168
255
224
168
255
224
168
255
224
168
255
224
168
255
224
168
255
224
168
255
224
168
172
124
0
172
124
0
172
124
0
172
124
0
255
224
168
172
124
0
172
124
0
255
224
168
255
224
168
255
224
168
255
224
168
255
224
168
255
224
168
255
224
168
255
224
168
255
224
168
255
224
168
255
224
168
255
224
168
255
224
168
255
224
168
255
224
168
255
224
168
255
224
168
255
224
168
255
224
168
172
124
0
172
124
0
172
124
0
172
124
0
172
124
0
255
224
168
255
224
168
255
224
168
255
224
168
255
224
168
255
224
168
255
224
168
255
224
168
255
224
168
255
224
168
255
224
168
255
224
168
255
224
168
255
224
168
255
224
168
255
224
168
255
224
168
255
224
168
255
224
168
255
224
168
172
124
0
172
124
0
172
124
0
172
124
0
172
124
0
255
224
168
255
224
168
255
224
168
255
224
168
255
224
168
255
224
168
255
224
168
255
224
168
255
224
168
255
224
168
255
224
168
255
224
168
255
224
168
255
224
168
255
224
168
255
224
168
255
224
168
255
224
168
255
224
168
255
224
168
255
224
168
172
124
0
172
124
0
172
124
0
172
124
0
172
124
0
255
224
168
255
224
168
255
224
168
255
224
168
255
224
168
255
224
168
255
224
168
255
224
168
255
224
168
255
224
168
255
224
168
255
224
168
255
224
168
255
224
168
255
224
168
255
224
168
255
224
168
255
224
168
255
224
168
255
224
168
255
224
168
248
56
0
248
56
0
248
56
0
248
56
0
248
56
0
248
56
0
248
56
0
248
56
0
172
124
0
172
124
0
172
124
0
172
124
0
255
224
168
255
224
168
255
224
168
255
224
168
255
224
168
255
224
168
255
224
168
255
224
168
255
224
168
255
224
168
255
224
168
255
224
168
255
224
168
255
224
168
255
224
168
255
224
168
255
224
168
255
224
168
248
56
0
248
56
0
248
56
0
248
56
0
172
124
0
172
124
0
172
124
0
172
124
0
255
224
168
255
224
168
255
224
168
255
224
168
172
124
0
172
124
0
172
124
0
172
124
0
172
124
0
255
224
168
255
224
168
255
224
168
255
224
168
255
224
168
255
224
168
255
224
168
255
224
168
255
224
168
255
224
168
255
224
168
255
224
168
255
224
168
255
224
168
255
224
168
255
224
168
255
224
168
255
224
168
255
224
168
255
224
168
255
224
168
172
124
0
172
124
0
172
124
0
172
124
0
248
56
0
248
56
0
248
56
0
248
56
0
248
56
0
248
56
0
248
56
0
255
224
168
255
224
168
255
224
168
255
224
168
255
224
168
255
224
168
255
224
168
255
224
168
255
224
168
255
224
168
255
224
168
255
224
168
255
224
168
255
224
168
255
224
168
255
224
168
255
224
168
255
224
168
255
224
168
255
224
168
255
224
168
255
224
168
255
224
168
172
124
0
172
124
0
172
124
0
172
124
0
255
224
168
255
224
168
255
224
168
255
224
168
255
224
168
255
224
168
255
224
168
255
224
168
255
224
168
255
224
168
255
224
168
255
224
168
255
224
168
255
224
168
255
224
168
255
224
168
255
224
168
255
224
168
255
224
168
255
224
168
255
224
168
255
224
168
172
124
0
172
124
0
172
124
0
172
124
0
255
224
168
255
224
168
255
224
168
255
224
168
255
224
168
255
224
168
255
224
168
255
224
168
255
224
168
255
224
168
255
224
168
255
224
168
255
224
168
255
224
168
255
224
168
255
224
168
255
224
168
255
224
168
255
224
168
255
224
168
255
224
168
172
124
0
172
124
0
172
124
0
172
124
0
255
224
168
255
224
168
255
224
168
255
224
168
255
224
168
255
224
168
255
224
168
255
224
168
255
224
168
255
224
168
255
224
168
255
224
168
255
224
168
255
224
168
255
224
168
255
224
168
255
224
168
255
224
168
255
224
168
172
124
0
172
124
0
255
224
168
255
224
168
255
224
168
172
124
0
172
124
0
255
224
168
255
224
168
255
224
168
255
224
168
255
224
168
255
224
168
255
224
168
255
224
168
255
224
168
255
224
168
255
224
168
255
224
168
255
224
168
255
224
168
255
224
168
255
224
168
255
224
168
255
224
168
172
124
0
172
124
0
255
224
168
255
224
168
255
224
168
172
124
0
172
124
0
255
224
168
255
224
168
255
224
168
255
224
168
255
224
168
255
224
168
255
224
168
255
224
168
255
224
168
255
224
168
255
224
168
255
224
168
255
224
168
255
224
168
255
224
168
255
224
168
255
224
168
255
224
168
255
224
168
255
224
168
255
224
168
172
124
0
172
124
0
255
224
168
255
224
168
255
224
168
172
124
0
172
124
0
255
224
168
255
224
168
255
224
168
255
224
168
255
224
168
255
224
168
255
224
168
255
224
168
255
224
168
255
224
168
255
224
168
255
224
168
255
224
168
172
124
0
172
124
0
255
224
168
255
224
168
255
224
168
172
124
0
172
124
0
255
224
168
255
224
168
255
224
168
255
224
168
255
224
168
255
224
168
255
224
168
255
224
168
255
224
168
255
224
168
255
224
168
255
224
168
255
224
168
255
224
168
255
224
168
255
224
168
255
224
168
255
224
168
255
224
168
255
224
168
255
224
168
172
124
0
172
124
0
255
224
168
255
224
168
255
224
168
172
124
0
172
124
0
255
224
168
255
224
168
255
224
168
255
224
168
255
224
168
255
224
168
255
224
168
255
224
168
255
224
168
255
224
168
255
224
168
255
224
168
255
224
168
255
224
168
255
224
168
255
224
168
255
224
168
255
224
168
172
124
0
172
124
0
255
224
168
255
224
168
255
224
168
172
124
0
172
124
0
255
224
168
255
224
168
255
224
168
255
224
168
255
224
168
255
224
168
255
224
168
255
224
168
255
224
168
255
224
168
255
224
168
255
224
168
255
224
168
255
224
168
255
224
168
255
224
168
255
224
168
255
224
168
255
224
168
172
124
0
172
124
0
172
124
0
172
124
0
255
224
168
255
224
168
255
224
168
255
224
168
255
224
168
255
224
168
255
224
168
255
224
168
255
224
168
255
224
168
255
224
168
255
224
168
255
224
168
255
224
168
255
224
168
255
224
168
255
224
168
255
224
168
255
224
168
255
224
168
255
224
168
172
124
0
172
124
0
172
124
0
172
124
0
255
224
168
255
224
168
255
224
168
255
224
168
255
224
168
255
224
168
255
224
168
255
224
168
255
224
168
255
224
168
255
224
168
255
224
168
255
224
168
255
224
168
255
224
168
255
224
168
255
224
168
255
224
168
255
224
168
255
224
168
255
224
168
255
224
168
172
124
0
172
124
0
172
124
0
172
124
0
255
224
168
255
224
168
255
224
168
255
224
168
255
224
168
255
224
168
255
224
168
255
224
168
255
224
168
255
224
168
255
224
168
255
224
168
255
224
168
255
224
168
255
224
168
255
224
168
255
224
168
255
224
168
255
224
168
255
224
168
255
224
168
255
224
168
255
224
168
248
56
0
248
56
0
248
56
0
248
56
0
248
56
0
248
56
0
248
56
0
172
124
0
172
124
0
172
124
0
172
124
0
255
224
168
255
224
168
255
224
168
255
224
168
255
224
168
255
224
168
255
224
168
255
224
168
255
224
168
255
224
168
255
224
168
255
224
168
255
224
168
255
224
168
255
224
168
255
224
168
255
224
168
255
224
168
255
224
168
255
224
168
255
224
168
172
124
0
172
124
0
172
124
0
172
124
0
172
124
0
255
224
168
255
224
168
255
224
168
255
224
168
255
224
168
172
124
0
172
124
0
255
224
168
255
224
168
255
224
168
255
224
168
255
224
168
255
224
168
255
224
168
255
224
168
255
224
168
255
224
168
255
224
168
255
224
168
255
224
168
255
224
168
255
224
168
255
224
168
255
224
168
255
224
168
255
224
168
255
224
168
255
224
168
255
224
168
255
224
168
255
224
168
255
224
168
255
224
168
255
224
168
255
224
168
255
224
168
255
224
168
255
224
168
255
224
168
255
224
168
255
224
168
255
224
168
255
224
168
255
224
168
255
224
168
255
224
168
255
224
168
255
224
168
255
224
168
255
224
168
255
224
168
255
224
168
255
224
168
255
224
168
255
224
168
255
224
168
255
224
168
255
224
168
255
224
168
255
224
168
255
224
168
255
224
168
255
224
168
255
224
168
255
224
168
172
124
0
172
124
0
172
124
0
255
224
168
255
224
168
255
224
168
255
224
168
255
224
168
255
224
168
255
224
168
255
224
168
255
224
168
255
224
168
255
224
168
255
224
168
255
224
168
255
224
168
255
224
168
255
224
168
255
224
168
255
224
168
255
224
168
255
224
168
255
224
168
255
224
168
255
224
168
172
124
0
172
124
0
172
124
0
255
224
168
255
224
168
255
224
168
255
224
168
255
224
168
255
224
168
255
224
168
255
224
168
255
224
168
255
224
168
255
224
168
255
224
168
255
224
168
255
224
168
255
224
168
255
224
168
255
224
168
255
224
168
255
224
168
255
224
168
255
224
168
255
224
168
172
124
0
172
124
0
172
124
0
255
224
168
255
224
168
255
224
168
255
224
168
255
224
168
255
224
168
255
224
168
255
224
168
255
224
168
255
224
168
255
224
168
255
224
168
255
224
168
255
224
168
255
224
168
255
224
168
255
224
168
255
224
168
255
224
168
255
224
168
172
124
0
255
224
168
255
224
168
255
224
168
255
224
168
172
124
0
255
224
168
255
224
168
255
224
168
255
224
168
255
224
168
255
224
168
255
224
168
255
224
168
255
224
168
255
224
168
255
224
168
255
224
168
255
224
168
255
224
168
255
224
168
255
224
168
255
224
168
255
224
168
255
224
168
172
124
0
255
224
168
255
224
168
255
224
168
255
224
168
172
124
0
255
224
168
255
224
168
255
224
168
255
224
168
255
224
168
255
224
168
255
224
168
255
224
168
255
224
168
255
224
168
255
224
168
255
224
168
255
224
168
255
224
168
255
224
168
255
224
168
255
224
168
255
224
168
255
224
168
255
224
168
255
224
168
255
224
168
172
124
0
255
224
168
255
224
168
255
224
168
255
224
168
172
124
0
255
224
168
255
224
168
255
224
168
255
224
168
255
224
168
255
224
168
255
224
168
255
224
168
255
224
168
255
224
168
255
224
168
255
224
168
255
224
168
172
124
0
255
224
168
255
224
168
255
224
168
255
224
168
172
124
0
255
224
168
255
224
168
255
224
168
255
224
168
255
224
168
255
224
168
255
224
168
255
224
168
255
224
168
255
224
168
255
224
168
255
224
168
255
224
168
255
224
168
255
224
168
255
224
168
255
224
168
255
224
168
255
224
168
255
224
168
255
224
168
255
224
168
172
124
0
255
224
168
255
224
168
255
224
168
255
224
168
172
124
0
255
224
168
255
224
168
255
224
168
255
224
168
255
224
168
255
224
168
255
224
168
255
224
168
255
224
168
255
224
168
255
224
168
255
224
168
255
224
168
255
224
168
255
224
168
255
224
168
255
224
168
255
224
168
255
224
168
172
124
0
255
224
168
255
224
168
255
224
168
255
224
168
172
124
0
255
224
168
255
224
168
255
224
168
255
224
168
255
224
168
255
224
168
255
224
168
255
224
168
255
224
168
255
224
168
255
224
168
255
224
168
255
224
168
255
224
168
255
224
168
255
224
168
255
224
168
255
224
168
255
224
168
255
224
168
172
124
0
172
124
0
172
124
0
255
224
168
255
224
168
255
224
168
255
224
168
255
224
168
255
224
168
255
224
168
255
224
168
255
224
168
255
224
168
255
224
168
255
224
168
255
224
168
255
224
168
255
224
168
255
224
168
255
224
168
255
224
168
255
224
168
255
224
168
255
224
168
255
224
168
172
124
0
172
124
0
172
124
0
255
224
168
255
224
168
255
224
168
255
224
168
255
224
168
255
224
168
255
224
168
255
224
168
255
224
168
255
224
168
255
224
168
255
224
168
255
224
168
255
224
168
255
224
168
255
224
168
255
224
168
255
224
168
255
224
168
255
224
168
255
224
168
255
224
168
255
224
168
172
124
0
172
124
0
172
124
0
255
224
168
255
224
168
255
224
168
255
224
168
255
224
168
255
224
168
255
224
168
255
224
168
255
224
168
255
224
168
255
224
168
255
224
168
255
224
168
255
224
168
255
224
168
255
224
168
255
224
168
255
224
168
255
224
168
255
224
168
255
224
168
255
224
168
255
224
168
255
224
168
255
224
168
255
224
168
255
224
168
255
224
168
255
224
168
255
224
168
255
224
168
255
224
168
255
224
168
255
224
168
255
224
168
255
224
168
255
224
168
255
224
168
255
224
168
255
224
168
255
224
168
255
224
168
255
224
168
255
224
168
255
224
168
255
224
168
255
224
168
255
224
168
255
224
168
255
224
168
255
224
168
255
224
168
255
224
168
255
224
168
255
224
168
255
224
168
255
224
168
255
224
168
172
124
0
172
124
0
255
224
168
255
224
168
255
224
168
255
224
168
255
224
168
255
224
168
172
124
0
255
224
168
255
224
168
255
224
168
255
224
168
255
224
168
255
224
168
255
224
168
255
224
168
255
224
168
255
224
168
255
224
168
255
224
168
255
224
168
255
224
168
255
224
168
255
224
168
255
224
168
255
224
168
255
224
168
255
224
168
255
224
168
255
224
168
255
224
168
255
224
168
255
224
168
255
224
168
255
224
168
255
224
168
255
224
168
255
224
168
255
224
168
255
224
168
255
224
168
255
224
168
255
224
168
255
224
168
255
224
168
255
224
168
255
224
168
255
224
168
255
224
168
255
224
168
255
224
168
255
224
168
255
224
168
255
224
168
255
224
168
255
224
168
255
224
168
255
224
168
255
224
168
255
224
168
255
224
168
255
224
168
255
224
168
255
224
168
255
224
168
255
224
168
255
224
168
172
124
0
172
124
0
255
224
168
255
224
168
255
224
168
255
224
168
255
224
168
255
224
168
255
224
168
255
224
168
255
224
168
255
224
168
255
224
168
255
224
168
255
224
168
255
224
168
255
224
168
255
224
168
255
224
168
255
224
168
255
224
168
255
224
168
255
224
168
255
224
168
255
224
168
255
224
168
172
124
0
172
124
0
255
224
168
255
224
168
255
224
168
255
224
168
255
224
168
255
224
168
255
224
168
255
224
168
255
224
168
255
224
168
255
224
168
255
224
168
255
224
168
255
224
168
255
224
168
255
224
168
255
224
168
255
224
168
255
224
168
255
224
168
255
224
168
255
224
168
255
224
168
172
124
0
172
124
0
255
224
168
255
224
168
255
224
168
255
224
168
255
224
168
255
224
168
255
224
168
255
224
168
255
224
168
255
224
168
255
224
168
255
224
168
255
224
168
255
224
168
255
224
168
255
224
168
255
224
168
255
224
168
255
224
168
255
224
168
255
224
168
255
224
168
255
224
168
255
224
168
255
224
168
255
224
168
255
224
168
255
224
168
255
224
168
255
224
168
255
224
168
255
224
168
255
224
168
255
224
168
255
224
168
255
224
168
255
224
168
255
224
168
255
224
168
255
224
168
255
224
168
255
224
168
255
224
168
255
224
168
255
224
168
255
224
168
255
224
168
255
224
168
255
224
168
255
224
168
255
224
168
255
224
168
255
224
168
255
224
168
255
224
168
255
224
168
255
224
168
255
224
168
255
224
168
255
224
168
255
224
168
255
224
168
255
224
168
255
224
168
255
224
168
255
224
168
255
224
168
255
224
168
255
224
168
255
224
168
255
224
168
255
224
168
255
224
168
255
224
168
255
224
168
255
224
168
255
224
168
255
224
168
255
224
168
255
224
168
255
224
168
255
224
168
255
224
168
255
224
168
255
224
168
255
224
168
255
224
168
255
224
168
255
224
168
255
224
168
255
224
168
255
224
168
255
224
168
255
224
168
255
224
168
255
224
168
255
224
168
255
224
168
255
224
168
255
224
168
255
224
168
255
224
168
255
224
168
255
224
168
255
224
168
255
224
168
255
224
168
255
224
168
255
224
168
255
224
168
255
224
168
255
224
168
255
224
168
255
224
168
255
224
168
255
224
168
255
224
168
255
224
168
255
224
168
255
224
168
255
224
168
255
224
168
255
224
168
255
224
168
255
224
168
255
224
168
255
224
168
255
224
168
255
224
168
255
224
168
255
224
168
255
224
168
255
224
168
255
224
168
255
224
168
255
224
168
255
224
168
255
224
168
255
224
168
255
224
168
255
224
168
255
224
168
255
224
168
255
224
168
255
224
168
255
224
168
255
224
168
255
224
168
255
224
168
255
224
168
255
224
168
255
224
168
255
224
168
255
224
168
255
224
168
255
224
168
255
224
168
255
224
168
255
224
168
255
224
168
255
224
168
255
224
168
255
224
168
255
224
168
255
224
168
255
224
168
255
224
168
255
224
168
255
224
168
255
224
168
255
224
168
255
224
168
255
224
168
172
124
0
172
124
0
255
224
168
255
224
168
255
224
168
255
224
168
255
224
168
255
224
168
255
224
168
255
224
168
255
224
168
255
224
168
255
224
168
255
224
168
255
224
168
255
224
168
255
224
168
255
224
168
255
224
168
255
224
168
255
224
168
255
224
168
255
224
168
255
224
168
255
224
168
172
124
0
172
124
0
255
224
168
255
224
168
255
224
168
255
224
168
255
224
168
255
224
168
255
224
168
255
224
168
255
224
168
255
224
168
255
224
168
255
224
168
255
224
168
255
224
168
255
224
168
255
224
168
255
224
168
255
224
168
255
224
168
255
224
168
255
224
168
255
224
168
255
224
168
255
224
168
172
124
0
172
124
0
255
224
168
255
224
168
255
224
168
255
224
168
255
224
168
255
224
168
255
224
168
255
224
168
255
224
168
255
224
168
255
224
168
255
224
168
255
224
168
255
224
168
255
224
168
255
224
168
255
224
168
255
224
168
255
224
168
255
224
168
255
224
168
255
224
168
255
224
168
255
224
168
255
224
168
255
224
168
255
224
168
255
224
168
255
224
168
255
224
168
255
224
168
255
224
168
255
224
168
255
224
168
255
224
168
255
224
168
255
224
168
255
224
168
255
224
168
255
224
168
255
224
168
255
224
168
255
224
168
255
224
168
255
224
168
255
224
168
255
224
168
255
224
168
255
224
168
255
224
168
255
224
168
255
224
168
255
224
168
255
224
168
255
224
168
255
224
168
255
224
168
255
224
168
255
224
168
172
124
0
255
224
168
255
224
168
255
224
168
255
224
168
255
224
168
255
224
168
255
224
168
255
224
168
255
224
168
255
224
168
255
224
168
255
224
168
255
224
168
255
224
168
255
224
168
255
224
168
255
224
168
255
224
168
255
224
168
255
224
168
255
224
168
255
224
168
255
224
168
255
224
168
255
224
168
255
224
168
255
224
168
255
224
168
255
224
168
255
224
168
255
224
168
255
224
168
255
224
168
255
224
168
255
224
168
255
224
168
255
224
168
255
224
168
255
224
168
255
224
168
255
224
168
255
224
168
255
224
168
255
224
168
255
224
168
255
224
168
255
224
168
255
224
168
255
224
168
255
224
168
255
224
168
255
224
168
255
224
168
255
224
168
255
224
168
255
224
168
255
224
168
255
224
168
255
224
168
255
224
168
255
224
168
255
224
168
255
224
168
255
224
168
255
224
168
255
224
168
255
224
168
255
224
168
255
224
168
255
224
168
255
224
168
255
224
168
255
224
168
255
224
168
255
224
168
255
224
168
255
224
168
255
224
168
255
224
168
255
224
168
255
224
168
255
224
168
255
224
168
255
224
168
255
224
168
255
224
168
255
224
168
255
224
168
255
224
168
255
224
168
255
224
168
255
224
168
255
224
168
255
224
168
255
224
168
255
224
168
255
224
168
255
224
168
255
224
168
255
224
168
255
224
168
255
224
168
255
224
168
255
224
168
255
224
168
255
224
168
255
224
168
255
224
168
255
224
168
255
224
168
255
224
168
255
224
168
255
224
168
255
224
168
255
224
168
255
224
168
255
224
168
255
224
168
255
224
168
255
224
168
255
224
168
255
224
168
255
224
168
255
224
168
255
224
168
255
224
168
255
224
168
255
224
168
255
224
168
255
224
168
255
224
168
255
224
168
255
224
168
255
224
168
255
224
168
255
224
168
255
224
168
255
224
168
255
224
168
255
224
168
255
224
168
255
224
168
255
224
168
255
224
168
255
224
168
255
224
168
255
224
168
255
224
168
255
224
168
255
224
168
255
224
168
255
224
168
255
224
168
255
224
168
255
224
168
255
224
168
255
224
168
255
224
168
255
224
168
255
224
168
255
224
168
255
224
168
255
224
168
255
224
168
255
224
168
255
224
168
255
224
168
255
224
168
255
224
168
255
224
168
255
224
168
255
224
168
255
224
168
255
224
168
255
224
168
255
224
168
255
224
168
255
224
168
255
224
168
255
224
168
255
224
168
255
224
168
255
224
168
255
224
168
255
224
168
255
224
168
255
224
168
255
224
168
255
224
168
255
224
168
255
224
168
255
224
168
255
224
168
255
224
168
255
224
168
255
224
168
255
224
168
255
224
168
255
224
168
255
224
168
255
224
168
255
224
168
255
224
168
255
224
168
255
224
168
255
224
168
255
224
168
255
224
168
255
224
168
255
224
168
255
224
168
255
224
168
255
224
168
255
224
168
255
224
168
255
224
168
255
224
168
255
224
168
255
224
168
255
224
168
255
224
168
255
224
168
255
224
168
255
224
168
255
224
168
255
224
168
255
224
168
255
224
168
255
224
168
255
224
168
255
224
168
255
224
168
255
224
168
255
224
168
255
224
168
255
224
168
255
224
168
255
224
168
255
224
168
255
224
168
255
224
168
255
224
168
255
224
168
255
224
168
255
224
168
255
224
168
255
224
168
255
224
168
255
224
168
255
224
168
255
224
168
255
224
168
255
224
168
255
224
168
255
224
168
255
224
168
255
224
168
255
224
168
255
224
168
255
224
168
255
224
168
255
224
168
255
224
168
255
224
168
255
224
168
255
224
168
255
224
168
255
224
168
255
224
168
255
224
168
255
224
168
255
224
168
255
224
168
255
224
168
255
224
168
255
224
168
255
224
168
255
224
168
255
224
168
255
224
168
255
224
168
255
224
168
255
224
168
255
224
168
255
224
168
255
224
168
255
224
168
255
224
168
255
224
168
255
224
168
255
224
168
255
224
168
255
224
168
255
224
168
255
224
168
255
224
168
255
224
168
255
224
168
255
224
168
255
224
168
255
224
168
255
224
168
255
224
168
255
224
168
255
224
168
255
224
168
255
224
168
255
224
168
255
224
168
255
224
168
255
224
168
255
224
168
255
224
168
255
224
168
255
224
168
255
224
168
255
224
168
255
224
168
255
224
168
255
224
168
255
224
168
255
224
168
255
224
168
255
224
168
255
224
168
255
224
168
255
224
168
255
224
168
255
224
168
255
224
168
255
224
168
255
224
168
255
224
168
255
224
168
255
224
168
255
224
168
255
224
168
255
224
168
255
224
168
255
224
168
255
224
168
255
224
168
255
224
168
255
224
168
255
224
168
255
224
168
255
224
168
255
224
168
255
224
168
255
224
168
255
224
168
255
224
168
255
224
168
255
224
168
255
224
168
255
224
168
255
224
168
255
224
168
255
224
168
255
224
168
255
224
168
255
224
168
255
224
168
255
224
168
255
224
168
255
224
168
255
224
168
255
224
168
255
224
168
255
224
168
255
224
168
255
224
168
255
224
168
255
224
168
255
224
168
255
224
168
255
224
168
255
224
168
255
224
168
255
224
168
255
224
168
255
224
168
255
224
168
255
224
168
255
224
168
255
224
168
255
224
168
255
224
168
255
224
168
255
224
168
255
224
168
255
224
168
255
224
168
255
224
168
255
224
168
255
224
168
255
224
168
255
224
168
255
224
168
255
224
168
255
224
168
255
224
168
255
224
168
255
224
168
255
224
168
255
224
168
255
224
168
255
224
168
255
224
168
255
224
168
255
224
168
255
224
168
255
224
168
255
224
168
255
224
168
255
224
168
255
224
168
255
224
168
255
224
168
255
224
168
255
224
168
255
224
168
255
224
168
255
224
168
255
224
168
255
224
168
255
224
168
255
224
168
255
224
168
255
224
168
255
224
168
255
224
168
255
224
168
255
224
168
255
224
168
255
224
168
255
224
168
255
224
168
255
224
168
255
224
168
255
224
168
255
224
168
255
224
168
255
224
168
255
224
168
255
224
168
255
224
168
255
224
168
255
224
168
255
224
168
255
224
168
255
224
168
255
224
168
255
224
168
255
224
168
255
224
168
255
224
168
255
224
168
255
224
168
255
224
168
255
224
168
255
224
168
255
224
168
255
224
168
255
224
168
255
224
168
255
224
168
255
224
168
255
224
168
255
224
168
255
224
168
255
224
168
255
224
168
255
224
168
255
224
168
255
224
168
255
224
168
255
224
168
255
224
168
255
224
168
255
224
168
255
224
168
255
224
168
255
224
168
255
224
168
255
224
168
255
224
168
255
224
168
255
224
168
255
224
168
255
224
168
255
224
168
255
224
168
255
224
168
255
224
168
255
224
168
255
224
168
255
224
168
255
224
168
255
224
168
255
224
168
255
224
168
255
224
168
255
224
168
255
224
168
255
224
168
255
224
168
255
224
168
255
224
168
255
224
168
255
224
168
255
224
168
255
224
168
255
224
168
255
224
168
255
224
168
255
224
168
255
224
168
255
224
168
255
224
168
255
224
168
255
224
168
255
224
168
255
224
168
255
224
168
255
224
168
255
224
168
255
224
168
255
224
168
255
224
168
255
224
168
255
224
168
255
224
168
255
224
168
255
224
168
255
224
168
255
224
168
255
224
168
255
224
168
255
224
168
255
224
168
255
224
168
255
224
168
255
224
168
255
224
168
255
224
168
255
224
168
255
224
168
255
224
168
255
224
168
255
224
168
255
224
168
255
224
168
255
224
168
255
224
168
255
224
168
255
224
168
255
224
168
255
224
168
255
224
168
255
224
168
255
224
168
255
224
168
255
224
168
255
224
168
255
224
168
255
224
168
255
224
168
255
224
168
255
224
168
255
224
168
255
224
168
255
224
168
255
224
168
255
224
168
255
224
168
255
224
168
255
224
168
255
224
168
255
224
168
255
224
168
255
224
168
255
224
168
255
224
168
255
224
168
255
224
168
255
224
168
255
224
168
255
224
168
255
224
168
255
224
168
255
224
168
255
224
168
255
224
168
255
224
168
255
224
168
255
224
168
255
224
168
255
224
168
255
224
168
255
224
168
255
224
168
255
224
168
255
224
168
255
224
168
255
224
168
255
224
168
255
224
168
255
224
168
255
224
168
255
224
168
255
224
168
255
224
168
255
224
168
255
224
168
255
224
168
255
224
168
255
224
168
255
224
168
255
224
168
255
224
168
255
224
168
255
224
168
255
224
168
255
224
168
255
224
168
255
224
168
255
224
168
255
224
168
255
224
168
255
224
168
255
224
168
255
224
168
255
224
168
255
224
168
255
224
168
255
224
168
255
224
168
255
224
168
255
224
168
255
224
168
255
224
168
255
224
168
255
224
168
255
224
168
255
224
168
255
224
168
255
224
168
255
224
168
255
224
168
255
224
168
255
224
168
255
224
168
255
224
168
255
224
168
255
224
168
255
224
168
255
224
168
255
224
168
255
224
168
255
224
168
255
224
168
255
224
168
255
224
168
255
224
168
255
224
168
255
224
168
255
224
168
255
224
168
255
224
168
255
224
168
255
224
168
255
224
168
255
224
168
255
224
168
255
224
168
255
224
168
255
224
168
255
224
168
255
224
168
255
224
168
255
224
168
255
224
168
255
224
168
255
224
168
255
224
168
255
224
168
255
224
168
255
224
168
255
224
168
255
224
168
255
224
168
255
224
168
255
224
168
255
224
168
255
224
168
255
224
168
255
224
168
255
224
168
255
224
168
255
224
168
255
224
168
255
224
168
255
224
168
255
224
168
255
224
168
255
224
168
255
224
168
255
224
168
255
224
168
255
224
168
255
224
168
255
224
168
255
224
168
255
224
168
255
224
168
255
224
168
255
224
168
255
224
168
255
224
168
255
224
168
255
224
168
255
224
168
255
224
168
255
224
168
255
224
168
255
224
168
255
224
168
255
224
168
255
224
168
255
224
168
255
224
168
255
224
168
255
224
168
255
224
168
255
224
168
255
224
168
255
224
168
255
224
168
255
224
168
255
224
168
255
224
168
255
224
168
255
224
168
255
224
168
255
224
168
255
224
168
255
224
168
255
224
168
255
224
168
255
224
168
255
224
168
255
224
168
255
224
168
255
224
168
255
224
168
255
224
168
255
224
168
255
224
168
255
224
168
255
224
168
255
224
168
255
224
168
255
224
168
255
224
168
255
224
168
255
224
168
255
224
168
255
224
168
255
224
168
255
224
168
255
224
168
255
224
168
255
224
168
255
224
168
255
224
168
255
224
168
255
224
168
255
224
168
255
224
168
255
224
168
255
224
168
255
224
168
255
224
168
255
224
168
255
224
168
255
224
168
255
224
168
255
224
168
255
224
168
255
224
168
255
224
168
255
224
168
255
224
168
255
224
168
255
224
168
255
224
168
255
224
168
255
224
168
255
224
168
255
224
168
255
224
168
255
224
168
255
224
168
255
224
168
255
224
168
255
224
168
255
224
168
255
224
168
255
224
168
255
224
168
255
224
168
255
224
168
255
224
168
255
224
168
255
224
168
255
224
168
255
224
168
255
224
168
255
224
168
255
224
168
255
224
168
255
224
168
255
224
168
255
224
168
255
224
168
255
224
168
255
224
168
255
224
168
255
224
168
255
224
168
255
224
168
255
224
168
255
224
168
255
224
168
255
224
168
255
224
168
255
224
168
255
224
168
255
224
168
255
224
168
255
224
168
255
224
168
255
224
168
255
224
168
255
224
168
255
224
168
255
224
168
255
224
168
255
224
168
255
224
168
255
224
168
255
224
168
255
224
168
255
224
168
255
224
168
255
224
168
255
224
168
255
224
168
255
224
168
255
224
168
255
224
168
255
224
168
255
224
168
255
224
168
255
224
168
255
224
168
255
224
168
255
224
168
255
224
168
255
224
168
255
224
168
255
224
168
255
224
168
255
224
168
255
224
168
255
224
168
255
224
168
255
224
168
255
224
168
255
224
168
255
224
168
255
224
168
255
224
168
255
224
168
255
224
168
255
224
168
255
224
168
255
224
168
255
224
168
255
224
168
255
224
168
255
224
168
255
224
168
255
224
168
255
224
168
255
224
168
255
224
168
255
224
168
255
224
168
255
224
168
255
224
168
255
224
168
255
224
168
255
224
168
255
224
168
255
224
168
255
224
168
255
224
168
255
224
168
255
224
168
255
224
168
255
224
168
255
224
168
255
224
168
255
224
168
255
224
168
255
224
168
255
224
168
255
224
168
255
224
168
255
224
168
255
224
168
255
224
168
255
224
168
255
224
168
255
224
168
255
224
168
255
224
168
255
224
168
255
224
168
255
224
168
255
224
168
255
224
168
255
224
168
255
224
168
255
224
168
255
224
168
255
224
168
255
224
168
255
224
168
255
224
168
255
224
168
255
224
168
255
224
168
255
224
168
255
224
168
255
224
168
255
224
168
255
224
168
255
224
168
255
224
168
255
224
168
255
224
168
255
224
168
255
224
168
255
224
168
255
224
168
255
224
168
255
224
168
255
224
168
255
224
168
255
224
168
255
224
168
255
224
168
255
224
168
255
224
168
255
224
168
255
224
168
255
224
168
255
224
168
255
224
168
255
224
168
255
224
168
255
224
168
255
224
168
255
224
168
255
224
168
255
224
168
255
224
168
255
224
168
255
224
168
255
224
168
255
224
168
255
224
168
255
224
168
255
224
168
255
224
168
255
224
168
255
224
168
255
224
168
255
224
168
255
224
168
255
224
168
255
224
168
255
224
168
255
224
168
255
224
168
255
224
168
255
224
168
255
224
168
255
224
168
255
224
168
255
224
168
255
224
168
255
224
168
255
224
168
255
224
168
255
224
168
255
224
168
255
224
168
255
224
168
255
224
168
255
224
168
255
224
168
255
224
168
255
224
168
255
224
168
255
224
168
255
224
168
255
224
168
255
224
168
255
224
168
255
224
168
255
224
168
255
224
168
255
224
168
255
224
168
255
224
168
255
224
168
255
224
168
255
224
168
255
224
168
255
224
168
255
224
168
255
224
168
255
224
168
255
224
168
255
224
168
255
224
168
255
224
168
255
224
168
255
224
168
255
224
168
255
224
168
255
224
168
255
224
168
255
224
168
255
224
168
255
224
168
255
224
168
255
224
168
255
224
168
255
224
168
255
224
168
255
224
168
255
224
168
255
224
168
255
224
168
255
224
168
255
224
168
255
224
168
255
224
168
255
224
168
255
224
168
255
224
168
255
224
168
255
224
168
255
224
168
255
224
168
255
224
168
255
224
168
255
224
168
255
224
168
255
224
168
255
224
168
255
224
168
255
224
168
255
224
168
255
224
168
255
224
168
255
224
168
255
224
168
255
224
168
255
224
168
255
224
168
255
224
168
255
224
168
255
224
168
255
224
168
255
224
168
255
224
168
255
224
168
255
224
168
255
224
168
255
224
168
255
224
168
255
224
168
255
224
168
255
224
168
255
224
168
255
224
168
255
224
168
255
224
168
255
224
168
255
224
168
255
224
168
255
224
168
255
224
168
255
224
168
255
224
168
255
224
168
255
224
168
255
224
168
255
224
168
255
224
168
255
224
168
255
224
168
255
224
168
255
224
168
255
224
168
255
224
168
255
224
168
255
224
168
255
224
168
255
224
168
255
224
168
255
224
168
255
224
168
255
224
168
255
224
168
255
224
168
255
224
168
255
224
168
255
224
168
255
224
168
255
224
168
255
224
168
255
224
168
255
224
168
255
224
168
255
224
168
255
224
168
255
224
168
255
224
168
255
224
168
255
224
168
255
224
168
255
224
168
255
224
168
255
224
168
255
224
168
255
224
168
255
224
168
255
224
168
255
224
168
255
224
168
255
224
168
255
224
168
255
224
168
255
224
168
255
224
168
255
224
168
255
224
168
255
224
168
255
224
168
255
224
168
255
224
168
255
224
168
255
224
168
255
224
168
255
224
168
255
224
168
255
224
168
255
224
168
255
224
168
255
224
168
255
224
168
255
224
168
255
224
168
255
224
168
255
224
168
255
224
168
255
224
168
255
224
168
255
224
168
255
224
168
255
224
168
255
224
168
255
224
168
255
224
168
255
224
168
255
224
168
255
224
168
255
224
168
255
224
168
255
224
168
255
224
168
255
224
168
255
224
168
255
224
168
255
224
168
255
224
168
255
224
168
255
224
168
255
224
168
255
224
168
255
224
168
255
224
168
255
224
168
255
224
168
255
224
168
255
224
168
255
224
168
255
224
168
255
224
168
255
224
168
255
224
168
255
224
168
255
224
168
255
224
168
255
224
168
255
224
168
255
224
168
255
224
168
255
224
168
255
224
168
255
224
168
255
224
168
255
224
168
255
224
168
255
224
168
255
224
168
255
224
168
255
224
168
255
224
168
255
224
168
255
224
168
255
224
168
255
224
168
255
224
168
255
224
168
255
224
168
255
224
168
255
224
168
255
224
168
255
224
168
255
224
168
255
224
168
255
224
168
255
224
168
255
224
168
255
224
168
255
224
168
255
224
168
255
224
168
255
224
168
255
224
168
255
224
168
255
224
168
255
224
168
255
224
168
255
224
168
255
224
168
255
224
168
255
224
168
255
224
168
255
224
168
255
224
168
255
224
168
255
224
168
255
224
168
255
224
168
255
224
168
255
224
168
255
224
168
255
224
168
255
224
168
255
224
168
255
224
168
255
224
168
255
224
168
255
224
168
255
224
168
255
224
168
255
224
168
255
224
168
255
224
168
255
224
168
255
224
168
255
224
168
255
224
168
255
224
168
255
224
168
255
224
168
255
224
168
255
224
168
255
224
168
255
224
168
255
224
168
255
224
168
255
224
168
255
224
168
255
224
168
255
224
168
255
224
168
255
224
168
255
224
168
255
224
168
255
224
168
255
224
168
255
224
168
255
224
168
255
224
168
255
224
168
255
224
168
255
224
168
255
224
168
255
224
168
255
224
168
255
224
168
255
224
168
255
224
168
255
224
168
255
224
168
255
224
168
255
224
168
255
224
168
255
224
168
255
224
168
255
224
168
255
224
168
255
224
168
255
224
168
255
224
168
255
224
168
255
224
168
255
224
168
255
224
168
255
224
168
255
224
168
255
224
168
255
224
168
255
224
168
255
224
168
255
224
168
255
224
168
255
224
168
255
224
168
255
224
168
255
224
168
255
224
168
255
224
168
255
224
168
255
224
168
255
224
168
255
224
168
255
224
168
255
224
168
255
224
168
255
224
168
255
224
168
255
224
168
255
224
168
255
224
168
255
224
168
255
224
168
255
224
168
255
224
168
255
224
168
255
224
168
255
224
168
255
224
168
255
224
168
255
224
168
255
224
168
255
224
168
255
224
168
255
224
168
255
224
168
255
224
168
255
224
168
255
224
168
255
224
168
255
224
168
255
224
168
255
224
168
255
224
168
255
224
168
255
224
168
255
224
168
255
224
168
255
224
168
255
224
168
255
224
168
255
224
168
255
224
168
255
224
168
255
224
168
255
224
168
255
224
168
255
224
168
255
224
168
255
224
168
255
224
168
255
224
168
255
224
168
255
224
168
255
224
168
255
224
168
255
224
168
255
224
168
255
224
168
255
224
168
255
224
168
255
224
168
255
224
168
255
224
168
255
224
168
255
224
168
255
224
168
255
224
168
255
224
168
255
224
168
255
224
168
255
224
168
255
224
168
255
224
168
255
224
168
255
224
168
255
224
168
255
224
168
255
224
168
255
224
168
255
224
168
255
224
168
255
224
168
255
224
168
255
224
168
255
224
168
255
224
168
255
224
168
255
224
168
255
224
168
255
224
168
255
224
168
255
224
168
255
224
168
255
224
168
255
224
168
255
224
168
255
224
168
255
224
168
255
224
168
255
224
168
255
224
168
255
224
168
255
224
168
255
224
168
255
224
168
255
224
168
255
224
168
255
224
168
255
224
168
255
224
168
255
224
168
255
224
168
255
224
168
255
224
168
255
224
168
255
224
168
255
224
168
255
224
168
255
224
168
255
224
168
255
224
168
255
224
168
255
224
168
255
224
168
255
224
168
255
224
168
255
224
168
255
224
168
255
224
168
255
224
168
255
224
168
255
224
168
255
224
168
255
224
168
255
224
168
255
224
168
255
224
168
255
224
168
255
224
168
255
224
168
255
224
168
255
224
168
255
224
168
255
224
168
255
224
168
255
224
168
255
224
168
255
224
168
255
224
168
255
224
168
255
224
168
255
224
168
255
224
168
255
224
168
255
224
168
255
224
168
255
224
168
255
224
168
255
224
168
255
224
168
255
224
168
255
224
168
255
224
168
255
224
168
255
224
168
255
224
168
255
224
168
255
224
168
255
224
168
255
224
168
255
224
168
255
224
168
255
224
168
255
224
168
255
224
168
255
224
168
255
224
168
255
224
168
255
224
168
255
224
168
255
224
168
255
224
168
255
224
168
255
224
168
255
224
168
255
224
168
255
224
168
255
224
168
255
224
168
255
224
168
255
224
168
255
224
168
255
224
168
255
224
168
255
224
168
255
224
168
255
224
168
255
224
168
255
224
168
255
224
168
255
224
168
255
224
168
255
224
168
255
224
168
255
224
168
255
224
168
255
224
168
255
224
168
255
224
168
255
224
168
255
224
168
255
224
168
255
224
168
255
224
168
255
224
168
255
224
168
255
224
168
255
224
168
255
224
168
255
224
168
255
224
168
255
224
168
255
224
168
255
224
168
255
224
168
255
224
168
255
224
168
255
224
168
255
224
168
255
224
168
255
224
168
255
224
168
255
224
168
255
224
168
255
224
168
255
224
168
255
224
168
255
224
168
255
224
168
255
224
168
255
224
168
255
224
168
255
224
168
255
224
168
255
224
168
255
224
168
255
224
168
255
224
168
255
224
168
255
224
168
255
224
168
255
224
168
255
224
168
255
224
168
255
224
168
255
224
168
255
224
168
255
224
168
255
224
168
255
224
168
255
224
168
255
224
168
255
224
168
255
224
168
255
224
168
255
224
168
255
224
168
255
224
168
255
224
168
255
224
168
255
224
168
255
224
168
255
224
168
255
224
168
255
224
168
255
224
168
255
224
168
255
224
168
255
224
168
255
224
168
255
224
168
255
224
168
255
224
168
255
224
168
255
224
168
255
224
168
255
224
168
255
224
168
255
224
168
255
224
168
255
224
168
255
224
168
255
224
168
255
224
168
255
224
168
255
224
168
255
160
68
255
160
68
255
160
68
255
224
168
255
224
168
255
224
168
255
224
168
255
224
168
255
224
168
255
224
168
255
224
168
255
224
168
255
224
168
255
224
168
255
224
168
255
224
168
255
224
168
255
224
168
255
224
168
255
224
168
255
224
168
255
224
168
255
224
168
255
224
168
255
224
168
255
224
168
255
224
168
255
224
168
255
224
168
255
224
168
255
224
168
255
224
168
255
224
168
255
224
168
255
224
168
255
224
168
255
224
168
255
224
168
255
224
168
255
224
168
255
224
168
255
224
168
255
224
168
255
224
168
255
224
168
255
224
168
255
224
168
255
224
168
255
224
168
255
224
168
255
224
168
255
224
168
255
224
168
255
224
168
255
224
168
255
224
168
255
224
168
255
224
168
255
224
168
255
224
168
255
224
168
255
224
168
255
224
168
255
224
168
255
224
168
255
224
168
255
224
168
255
224
168
255
224
168
255
224
168
255
224
168
255
224
168
255
224
168
255
224
168
255
224
168
255
224
168
255
224
168
255
224
168
255
224
168
255
224
168
255
224
168
255
224
168
255
224
168
255
224
168
255
224
168
255
224
168
255
224
168
255
224
168
255
224
168
255
224
168
255
224
168
255
224
168
255
224
168
255
224
168
255
224
168
255
224
168
255
224
168
255
224
168
255
224
168
255
224
168
255
224
168
255
224
168
255
224
168
255
224
168
255
224
168
255
224
168
255
224
168
255
224
168
255
224
168
255
224
168
255
224
168
255
224
168
255
224
168
255
224
168
255
224
168
255
224
168
255
224
168
255
224
168
255
224
168
255
224
168
255
224
168
255
224
168
255
224
168
255
224
168
255
224
168
255
224
168
255
224
168
255
224
168
255
224
168
255
224
168
255
224
168
255
224
168
255
224
168
255
224
168
255
224
168
255
224
168
255
224
168
255
224
168
255
224
168
255
224
168
255
224
168
255
224
168
255
224
168
255
224
168
255
224
168
255
224
168
255
224
168
255
224
168
255
224
168
255
224
168
255
224
168
255
224
168
255
224
168
255
224
168
255
224
168
255
224
168
255
224
168
255
224
168
255
224
168
255
224
168
255
224
168
255
224
168
255
224
168
255
224
168
255
224
168
255
224
168
255
224
168
255
224
168
255
224
168
255
224
168
255
224
168
255
224
168
255
224
168
255
224
168
255
224
168
255
224
168
255
224
168
255
224
168
255
224
168
255
224
168
255
224
168
255
224
168
255
224
168
255
224
168
255
224
168
255
224
168
255
224
168
255
224
168
255
224
168
255
224
168
255
224
168
255
224
168
255
224
168
255
224
168
255
224
168
255
224
168
255
224
168
255
224
168
255
224
168
255
224
168
255
224
168
255
224
168
255
224
168
255
224
168
255
224
168
255
224
168
255
224
168
255
224
168
255
224
168
255
224
168
255
224
168
255
224
168
255
224
168
255
224
168
255
224
168
255
224
168
255
224
168
255
224
168
255
224
168
255
224
168
255
224
168
255
224
168
255
224
168
255
224
168
255
224
168
255
224
168
255
224
168
255
224
168
255
224
168
255
224
168
255
224
168
255
224
168
255
224
168
255
224
168
255
224
168
255
224
168
255
224
168
255
224
168
255
224
168
255
224
168
255
224
168
255
224
168
255
224
168
255
224
168
255
224
168
255
224
168
255
224
168
255
224
168
255
224
168
255
224
168
255
224
168
255
224
168
255
224
168
255
224
168
255
224
168
255
224
168
255
224
168
255
224
168
255
224
168
255
224
168
255
224
168
255
224
168
255
224
168
255
224
168
255
224
168
255
224
168
255
224
168
255
224
168
255
224
168
255
224
168
255
224
168
255
224
168
255
224
168
255
224
168
255
224
168
255
224
168
255
224
168
255
224
168
255
224
168
255
224
168
255
224
168
255
224
168
255
224
168
255
224
168
255
224
168
255
224
168
255
224
168
255
224
168
255
224
168
255
224
168
255
224
168
255
224
168
255
224
168
255
224
168
255
224
168
255
224
168
255
224
168
255
224
168
255
224
168
255
224
168
255
224
168
255
224
168
255
224
168
255
224
168
255
224
168
255
224
168
255
224
168
255
224
168
255
224
168
255
224
168
255
224
168
255
224
168
255
224
168
255
224
168
255
224
168
255
224
168
255
224
168
255
224
168
255
224
168
255
224
168
255
224
168
255
224
168
255
224
168
255
224
168
255
224
168
255
224
168
255
224
168
255
224
168
255
224
168
255
224
168
255
224
168
255
224
168
255
224
168
255
224
168
255
224
168
255
224
168
255
224
168
255
224
168
255
224
168
255
224
168
255
224
168
255
224
168
255
224
168
255
224
168
255
224
168
255
224
168
255
160
68
255
160
68
255
160
68
255
224
168
255
224
168
255
224
168
255
224
168
255
224
168
255
224
168
255
224
168
255
224
168
255
224
168
255
224
168
255
224
168
255
224
168
255
224
168
255
224
168
255
224
168
255
224
168
255
224
168
255
224
168
255
224
168
255
224
168
255
224
168
255
224
168
255
224
168
255
224
168
255
224
168
255
224
168
255
224
168
255
224
168
255
224
168
255
224
168
255
224
168
255
224
168
255
224
168
255
224
168
255
224
168
255
224
168
255
224
168
255
224
168
255
224
168
255
224
168
255
224
168
255
224
168
255
224
168
255
224
168
255
224
168
255
224
168
255
224
168
255
224
168
255
224
168
255
224
168
255
224
168
255
224
168
255
224
168
255
224
168
255
224
168
255
160
68
255
160
68
248
56
0
255
160
68
255
160
68
255
224
168
255
224
168
255
224
168
255
224
168
255
224
168
255
224
168
255
224
168
255
224
168
255
224
168
255
224
168
255
224
168
255
224
168
255
224
168
255
224
168
255
224
168
255
224
168
255
224
168
255
224
168
255
224
168
255
224
168
255
224
168
255
224
168
248
56
0
248
56
0
255
224
168
255
224
168
255
224
168
255
224
168
255
224
168
255
224
168
255
224
168
255
160
68
255
160
68
255
224
168
255
224
168
255
224
168
255
224
168
255
224
168
255
224
168
255
224
168
255
224
168
255
224
168
255
224
168
255
224
168
255
224
168
255
224
168
255
224
168
255
224
168
255
224
168
255
224
168
255
224
168
255
224
168
255
224
168
255
224
168
255
224
168
255
224
168
255
224
168
255
224
168
255
224
168
255
224
168
255
224
168
255
224
168
255
224
168
255
224
168
255
224
168
255
224
168
255
224
168
255
224
168
255
224
168
255
224
168
255
224
168
255
224
168
255
224
168
255
224
168
255
224
168
255
224
168
255
224
168
255
224
168
255
224
168
255
224
168
255
224
168
255
224
168
255
224
168
255
224
168
255
224
168
255
224
168
255
224
168
255
224
168
255
224
168
255
224
168
255
224
168
255
224
168
255
224
168
255
224
168
255
224
168
255
224
168
255
224
168
255
224
168
255
224
168
255
224
168
255
160
68
255
224
168
255
224
168
255
224
168
255
224
168
255
224
168
255
224
168
255
224
168
255
224
168
255
224
168
255
224
168
255
224
168
255
224
168
255
224
168
255
224
168
255
224
168
255
224
168
255
224
168
255
224
168
255
224
168
255
224
168
255
224
168
255
224
168
255
224
168
255
224
168
255
160
68
255
224
168
255
224
168
255
224
168
255
224
168
255
224
168
255
224
168
255
224
168
255
224
168
255
224
168
255
224
168
255
224
168
255
224
168
255
224
168
255
224
168
255
224
168
255
224
168
255
224
168
255
224
168
255
224
168
255
224
168
255
224
168
255
224
168
255
224
168
255
224
168
255
224
168
255
224
168
255
224
168
255
160
68
255
224
168
255
224
168
255
224
168
255
224
168
255
224
168
255
224
168
255
224
168
255
224
168
255
224
168
255
224
168
255
224
168
255
224
168
255
224
168
255
224
168
255
224
168
255
224
168
255
224
168
255
224
168
255
224
168
255
224
168
255
224
168
255
224
168
255
224
168
255
224
168
255
224
168
255
224
168
255
224
168
255
224
168
255
224
168
255
224
168
255
224
168
255
224
168
255
224
168
255
160
68
255
224
168
255
224
168
255
224
168
255
224
168
255
224
168
255
224
168
255
224
168
255
224
168
255
224
168
255
224
168
255
224
168
255
224
168
255
224
168
255
224
168
255
224
168
255
224
168
255
224
168
255
224
168
255
224
168
255
224
168
255
224
168
255
224
168
255
224
168
255
224
168
255
224
168
255
224
168
255
224
168
255
160
68
255
224
168
255
224
168
255
224
168
255
224
168
255
224
168
255
224
168
255
224
168
255
224
168
255
224
168
255
224
168
255
224
168
255
224
168
255
224
168
255
224
168
255
224
168
255
224
168
255
224
168
255
224
168
255
224
168
255
224
168
255
224
168
255
224
168
255
224
168
255
224
168
255
160
68
255
224
168
255
224
168
255
224
168
255
224
168
255
224
168
255
224
168
255
224
168
255
224
168
255
224
168
255
224
168
255
224
168
255
224
168
255
224
168
255
224
168
255
224
168
255
224
168
255
224
168
255
224
168
255
224
168
255
224
168
255
224
168
255
224
168
255
224
168
255
224
168
255
224
168
255
224
168
255
224
168
255
224
168
255
224
168
255
224
168
255
224
168
255
224
168
255
224
168
255
224
168
255
224
168
255
224
168
255
224
168
255
224
168
255
224
168
255
224
168
255
224
168
255
224
168
255
224
168
255
224
168
255
224
168
255
224
168
255
224
168
255
224
168
255
224
168
255
224
168
255
224
168
255
224
168
255
224
168
255
224
168
255
224
168
255
224
168
255
224
168
255
224
168
255
224
168
255
224
168
255
224
168
255
224
168
255
224
168
255
224
168
255
224
168
255
224
168
255
224
168
255
160
68
255
160
68
255
224
168
255
224
168
255
224
168
255
224
168
255
224
168
255
224
168
255
224
168
248
56
0
248
56
0
255
224
168
255
224
168
255
224
168
255
224
168
255
224
168
255
224
168
255
224
168
255
224
168
255
224
168
255
224
168
255
224
168
255
224
168
255
224
168
255
224
168
255
224
168
255
224
168
255
224
168
255
224
168
255
224
168
255
224
168
255
224
168
255
224
168
255
160
68
255
160
68
248
56
0
255
160
68
255
160
68
255
224
168
255
224
168
255
224
168
255
224
168
255
224
168
255
224
168
255
224
168
255
224
168
255
224
168
255
224
168
255
224
168
255
224
168
255
224
168
255
224
168
255
224
168
255
224
168
255
224
168
255
224
168
255
224
168
255
224
168
255
224
168
255
224
168
255
224
168
255
224
168
255
224
168
255
224
168
255
224
168
255
224
168
255
224
168
255
224
168
255
224
168
255
224
168
255
224
168
255
224
168
255
224
168
255
224
168
255
224
168
255
224
168
255
224
168
255
224
168
255
224
168
255
224
168
255
224
168
255
224
168
255
224
168
255
224
168
255
224
168
255
224
168
255
224
168
255
224
168
255
224
168
255
224
168
255
224
168
255
224
168
255
160
68
248
56
0
248
56
0
255
160
68
255
160
68
255
224
168
255
224
168
255
224
168
255
224
168
255
224
168
255
224
168
255
224
168
255
224
168
255
224
168
255
224
168
255
224
168
255
224
168
255
224
168
255
224
168
255
224
168
255
224
168
255
224
168
255
224
168
255
224
168
255
224
168
255
224
168
248
56
0
248
56
0
248
56
0
255
224
168
255
224
168
255
224
168
255
224
168
255
224
168
255
224
168
255
224
168
255
160
68
255
224
168
255
224
168
255
224
168
255
224
168
255
224
168
255
224
168
255
224
168
255
224
168
255
224
168
255
224
168
255
224
168
255
224
168
255
224
168
255
224
168
255
224
168
255
224
168
255
224
168
255
160
68
255
224
168
255
224
168
255
224
168
255
224
168
255
224
168
255
224
168
255
224
168
255
224
168
255
224
168
255
224
168
255
224
168
255
224
168
255
224
168
255
224
168
255
224
168
255
224
168
255
224
168
255
224
168
255
224
168
255
224
168
255
224
168
255
224
168
255
224
168
255
224
168
255
160
68
255
224
168
255
224
168
255
224
168
255
224
168
255
224
168
255
224
168
255
224
168
255
224
168
255
224
168
255
224
168
255
224
168
255
224
168
255
224
168
255
224
168
255
224
168
255
224
168
255
224
168
255
224
168
255
224
168
255
224
168
255
224
168
255
224
168
255
224
168
255
224
168
255
224
168
255
160
68
255
160
68
255
224
168
255
224
168
255
224
168
255
224
168
255
224
168
255
224
168
255
224
168
255
224
168
255
224
168
255
224
168
255
224
168
255
224
168
255
224
168
255
224
168
255
224
168
255
224
168
255
224
168
255
224
168
255
224
168
255
224
168
255
224
168
255
224
168
255
224
168
255
160
68
255
160
68
255
224
168
255
224
168
255
224
168
255
224
168
255
224
168
255
224
168
255
224
168
255
224
168
255
224
168
255
224
168
255
224
168
255
224
168
255
224
168
255
224
168
255
224
168
255
224
168
255
224
168
255
224
168
255
224
168
255
224
168
255
224
168
255
224
168
255
224
168
255
224
168
255
224
168
255
224
168
255
160
68
255
160
68
255
224
168
255
224
168
255
224
168
255
224
168
255
224
168
255
224
168
255
224
168
255
224
168
255
224
168
255
224
168
255
224
168
255
224
168
255
224
168
255
224
168
255
224
168
255
224
168
255
224
168
255
224
168
255
224
168
255
224
168
255
224
168
255
224
168
255
224
168
255
224
168
255
224
168
255
224
168
255
224
168
255
224
168
255
224
168
255
224
168
255
224
168
255
160
68
255
160
68
255
224
168
255
224
168
255
224
168
255
224
168
255
224
168
255
224
168
255
224
168
255
224
168
255
224
168
255
224
168
255
224
168
255
224
168
255
224
168
255
224
168
255
224
168
255
224
168
255
224
168
255
224
168
255
224
168
255
224
168
255
224
168
255
224
168
255
224
168
255
224
168
255
224
168
255
224
168
255
160
68
255
160
68
255
224
168
255
224
168
255
224
168
255
224
168
255
224
168
255
224
168
255
224
168
255
224
168
255
224
168
255
224
168
255
224
168
255
224
168
255
224
168
255
224
168
255
224
168
255
224
168
255
224
168
255
224
168
255
224
168
255
224
168
255
224
168
255
224
168
255
224
168
255
160
68
255
160
68
255
224
168
255
224
168
255
224
168
255
224
168
255
224
168
255
224
168
255
224
168
255
224
168
255
224
168
255
224
168
255
224
168
255
224
168
255
224
168
255
224
168
255
224
168
255
224
168
255
224
168
255
224
168
255
224
168
255
224
168
255
224
168
255
224
168
255
224
168
255
224
168
255
224
168
255
160
68
255
224
168
255
224
168
255
224
168
255
224
168
255
224
168
255
224
168
255
224
168
255
224
168
255
224
168
255
224
168
255
224
168
255
224
168
255
224
168
255
224
168
255
224
168
255
224
168
255
224
168
255
224
168
255
224
168
255
224
168
255
224
168
255
224
168
255
224
168
255
224
168
255
160
68
255
224
168
255
224
168
255
224
168
255
224
168
255
224
168
255
224
168
255
224
168
255
224
168
255
224
168
255
224
168
255
224
168
255
224
168
255
224
168
255
224
168
255
224
168
255
224
168
255
224
168
255
160
68
255
224
168
255
224
168
255
224
168
255
224
168
255
224
168
255
224
168
255
224
168
248
56
0
248
56
0
248
56
0
255
224
168
255
224
168
255
224
168
255
224
168
255
224
168
255
224
168
255
224
168
255
224
168
255
224
168
255
224
168
255
224
168
255
224
168
255
224
168
255
224
168
255
224
168
255
224
168
255
224
168
255
224
168
255
224
168
255
224
168
255
224
168
255
160
68
255
160
68
248
56
0
248
56
0
255
160
68
255
224
168
255
224
168
255
224
168
255
224
168
255
224
168
255
224
168
255
224
168
255
224
168
255
224
168
255
224
168
255
224
168
255
224
168
255
224
168
255
224
168
255
224
168
255
224
168
255
224
168
255
224
168
255
224
168
255
224
168
255
224
168
255
224
168
255
224
168
255
224
168
255
224
168
255
224
168
255
224
168
255
224
168
255
224
168
255
224
168
255
224
168
255
224
168
255
224
168
255
224
168
255
224
168
255
224
168
255
224
168
255
224
168
255
224
168
255
224
168
255
224
168
255
224
168
255
224
168
255
224
168
255
224
168
255
224
168
255
224
168
255
224
168
255
224
168
255
224
168
255
224
168
255
224
168
255
224
168
255
224
168
255
160
68
255
160
68
255
160
68
255
160
68
255
160
68
255
224
168
255
224
168
255
224
168
255
224
168
255
224
168
255
224
168
255
224
168
255
224
168
255
224
168
255
224
168
255
224
168
255
224
168
255
224
168
255
224
168
255
224
168
255
224
168
255
224
168
255
224
168
255
224
168
255
224
168
255
224
168
255
160
68
255
160
68
248
56
0
248
56
0
255
160
68
255
160
68
248
56
0
255
224
168
255
224
168
255
224
168
255
224
168
255
224
168
255
224
168
255
224
168
255
224
168
255
224
168
255
224
168
255
224
168
255
224
168
255
224
168
255
224
168
255
224
168
255
224
168
255
224
168
255
224
168
255
224
168
255
224
168
255
224
168
255
160
68
255
160
68
255
224
168
255
224
168
255
224
168
255
224
168
255
224
168
255
224
168
255
224
168
255
224
168
255
224
168
255
224
168
255
224
168
255
224
168
255
224
168
255
224
168
255
224
168
255
224
168
255
224
168
255
224
168
255
224
168
255
224
168
255
224
168
255
224
168
255
224
168
255
160
68
255
160
68
255
224
168
255
224
168
255
224
168
255
224
168
255
224
168
255
224
168
255
224
168
255
224
168
255
224
168
255
224
168
255
224
168
255
224
168
255
224
168
255
224
168
255
224
168
255
224
168
255
224
168
255
224
168
255
224
168
255
224
168
255
224
168
255
224
168
255
224
168
255
224
168
255
224
168
255
224
168
255
224
168
255
224
168
255
224
168
255
224
168
255
224
168
255
224
168
255
224
168
255
224
168
255
224
168
255
224
168
255
224
168
255
224
168
255
224
168
255
224
168
255
224
168
255
224
168
255
224
168
255
224
168
255
224
168
255
224
168
255
224
168
255
224
168
255
224
168
255
224
168
255
224
168
255
224
168
255
224
168
255
224
168
255
224
168
255
224
168
255
224
168
255
224
168
255
224
168
255
224
168
255
224
168
255
224
168
255
224
168
255
224
168
255
224
168
255
224
168
255
224
168
255
224
168
255
224
168
255
224
168
255
224
168
255
224
168
255
224
168
255
224
168
255
224
168
255
224
168
255
224
168
255
224
168
255
224
168
255
224
168
255
224
168
255
224
168
255
224
168
255
224
168
255
224
168
255
224
168
255
224
168
255
224
168
255
224
168
255
224
168
255
224
168
255
224
168
255
224
168
255
224
168
255
224
168
255
224
168
255
224
168
255
224
168
255
224
168
255
224
168
255
224
168
255
224
168
255
224
168
255
224
168
255
224
168
255
224
168
255
224
168
255
224
168
255
224
168
255
224
168
255
224
168
255
224
168
255
224
168
255
224
168
255
224
168
255
224
168
255
224
168
255
224
168
255
224
168
255
224
168
255
224
168
255
224
168
255
224
168
255
224
168
255
224
168
255
224
168
255
224
168
255
224
168
255
224
168
255
224
168
255
224
168
255
224
168
255
224
168
255
224
168
255
224
168
255
224
168
255
224
168
255
224
168
255
224
168
255
224
168
255
224
168
255
224
168
255
224
168
255
224
168
255
224
168
255
224
168
255
224
168
255
224
168
255
224
168
255
224
168
255
224
168
255
224
168
255
224
168
255
224
168
255
224
168
255
224
168
255
224
168
255
224
168
255
224
168
255
224
168
255
224
168
255
224
168
255
224
168
255
224
168
255
224
168
255
224
168
255
224
168
255
224
168
255
224
168
255
224
168
255
224
168
255
224
168
255
224
168
255
224
168
255
224
168
255
224
168
255
224
168
255
224
168
255
224
168
255
224
168
255
224
168
255
224
168
255
224
168
255
224
168
255
224
168
255
224
168
255
224
168
255
224
168
255
224
168
255
160
68
255
160
68
255
224
168
255
224
168
255
224
168
255
224
168
255
224
168
255
224
168
255
224
168
255
224
168
255
224
168
255
224
168
255
224
168
255
224
168
255
224
168
255
224
168
255
224
168
255
224
168
255
224
168
255
224
168
255
224
168
255
224
168
255
224
168
255
224
168
255
224
168
255
160
68
255
160
68
255
224
168
255
224
168
255
224
168
255
224
168
255
224
168
255
224
168
255
224
168
255
224
168
255
224
168
255
224
168
255
224
168
255
224
168
255
224
168
255
224
168
255
224
168
255
224
168
255
224
168
255
224
168
255
224
168
255
224
168
255
224
168
248
56
0
255
160
68
255
160
68
248
56
0
248
56
0
255
160
68
255
160
68
255
224
168
255
224
168
255
224
168
255
224
168
255
224
168
255
224
168
255
224
168
255
224
168
255
224
168
255
224
168
255
224
168
255
224
168
255
224
168
255
224
168
255
224
168
255
224
168
255
224
168
255
224
168
255
224
168
255
224
168
255
224
168
255
160
68
255
160
68
255
160
68
255
160
68
255
160
68
255
224
168
255
224
168
255
224
168
255
224
168
255
224
168
255
224
168
255
224
168
255
224
168
255
224
168
255
224
168
255
224
168
255
224
168
255
224
168
255
224
168
255
224
168
255
224
168
255
224
168
255
224
168
255
224
168
255
224
168
255
224
168
255
224
168
255
224
168
255
224
168
255
224
168
255
224
168
255
224
168
255
224
168
255
224
168
255
224
168
255
224
168
255
224
168
255
224
168
255
224
168
255
224
168
255
224
168
255
224
168
255
224
168
255
224
168
255
224
168
255
224
168
255
224
168
255
224
168
255
224
168
255
224
168
255
224
168
255
224
168
255
224
168
255
224
168
255
224
168
255
224
168
255
224
168
255
224
168
255
224
168
248
56
0
248
56
0
248
56
0
248
56
0
248
56
0
255
224
168
255
224
168
255
224
168
255
224
168
255
224
168
255
224
168
255
224
168
255
224
168
255
224
168
255
224
168
255
224
168
255
224
168
255
224
168
255
224
168
255
224
168
255
224
168
255
224
168
255
224
168
255
224
168
255
224
168
255
160
68
255
160
68
255
160
68
255
160
68
248
56
0
255
160
68
255
160
68
248
56
0
255
160
68
255
160
68
248
56
0
255
160
68
255
160
68
255
224
168
255
224
168
255
224
168
255
224
168
255
224
168
255
224
168
255
224
168
255
224
168
255
224
168
255
224
168
255
224
168
255
224
168
255
224
168
255
224
168
255
224
168
255
224
168
255
224
168
255
224
168
255
224
168
255
224
168
255
224
168
255
224
168
255
224
168
255
224
168
255
224
168
255
224
168
255
224
168
255
224
168
255
224
168
255
224
168
255
224
168
255
224
168
255
224
168
255
224
168
255
224
168
255
224
168
255
224
168
255
224
168
255
224
168
255
224
168
255
224
168
255
224
168
255
224
168
255
224
168
255
224
168
255
224
168
255
224
168
255
224
168
255
224
168
255
224
168
255
224
168
255
224
168
255
224
168
255
224
168
255
224
168
255
224
168
255
224
168
255
224
168
255
224
168
255
224
168
255
224
168
255
224
168
255
224
168
255
224
168
255
224
168
255
224
168
255
160
68
255
160
68
255
160
68
248
56
0
255
160
68
255
160
68
248
56
0
248
56
0
248
56
0
255
224
168
255
224
168
255
224
168
255
224
168
255
224
168
255
224
168
255
224
168
255
224
168
255
224
168
255
224
168
255
224
168
255
224
168
255
224
168
255
224
168
255
224
168
255
224
168
255
160
68
255
160
68
255
160
68
248
56
0
255
160
68
255
160
68
248
56
0
248
56
0
248
56
0
255
224
168
255
224
168
255
224
168
255
224
168
255
224
168
255
224
168
255
224
168
255
224
168
255
224
168
255
224
168
255
224
168
255
224
168
255
224
168
255
224
168
255
224
168
255
224
168
255
224
168
255
224
168
255
224
168
255
160
68
255
160
68
255
160
68
248
56
0
255
160
68
255
160
68
248
56
0
248
56
0
248
56
0
255
224
168
255
224
168
255
224
168
255
224
168
255
224
168
255
224
168
255
224
168
255
224
168
255
224
168
255
224
168
255
224
168
255
224
168
255
224
168
255
224
168
255
224
168
255
224
168
255
224
168
255
224
168
255
224
168
248
56
0
248
56
0
248
56
0
255
160
68
255
160
68
248
56
0
255
160
68
255
160
68
255
160
68
255
224
168
255
224
168
255
224
168
255
224
168
255
224
168
255
224
168
255
224
168
255
224
168
255
224
168
255
224
168
255
224
168
255
224
168
255
224
168
255
224
168
255
224
168
255
224
168
255
224
168
255
224
168
255
224
168
248
56
0
248
56
0
248
56
0
255
160
68
255
160
68
248
56
0
255
160
68
255
160
68
255
160
68
255
224
168
255
224
168
255
224
168
255
224
168
255
224
168
255
224
168
255
224
168
255
224
168
255
224
168
255
224
168
255
224
168
255
224
168
255
224
168
255
224
168
255
224
168
255
224
168
248
56
0
248
56
0
248
56
0
255
160
68
255
160
68
248
56
0
255
160
68
255
160
68
255
160
68
255
224
168
255
224
168
255
224
168
255
224
168
255
224
168
255
224
168
255
224
168
255
224
168
255
224
168
255
224
168
255
224
168
255
224
168
255
224
168
255
224
168
255
224
168
255
224
168
255
224
168
255
224
168
255
224
168
255
224
168
255
224
168
255
224
168
255
224
168
255
224
168
255
224
168
255
224
168
255
224
168
255
224
168
255
224
168
255
224
168
255
224
168
255
224
168
255
224
168
255
224
168
255
224
168
255
224
168
255
224
168
255
224
168
255
224
168
255
224
168
255
224
168
255
224
168
255
224
168
255
224
168
255
224
168
255
224
168
255
224
168
255
224
168
255
224
168
255
224
168
255
224
168
255
224
168
255
224
168
255
224
168
255
224
168
255
224
168
255
224
168
255
224
168
255
224
168
255
224
168
255
224
168
255
224
168
255
224
168
255
224
168
255
224
168
255
224
168
255
160
68
255
160
68
248
56
0
255
160
68
255
160
68
248
56
0
255
160
68
255
160
68
248
56
0
255
160
68
255
160
68
255
160
68
255
160
68
255
224
168
255
224
168
255
224
168
255
224
168
255
224
168
255
224
168
255
224
168
255
224
168
255
224
168
255
224
168
255
224
168
255
224
168
255
224
168
255
224
168
255
224
168
255
224
168
255
224
168
255
224
168
255
224
168
255
224
168
248
56
0
248
56
0
248
56
0
248
56
0
248
56
0
255
224
168
255
224
168
255
224
168
255
224
168
255
224
168
255
224
168
255
224
168
255
224
168
255
224
168
255
224
168
255
224
168
255
224
168
255
224
168
255
224
168
255
224
168
255
224
168
255
224
168
255
224
168
255
224
168
255
224
168
255
224
168
255
224
168
255
224
168
255
224
168
255
224
168
255
224
168
255
224
168
255
224
168
255
224
168
255
224
168
255
224
168
255
224
168
255
224
168
255
224
168
255
224
168
255
224
168
255
224
168
255
224
168
255
224
168
255
224
168
255
224
168
255
224
168
255
224
168
255
224
168
255
224
168
255
224
168
255
224
168
255
224
168
255
224
168
255
224
168
255
224
168
255
224
168
255
224
168
255
224
168
248
56
0
248
56
0
255
224
168
255
224
168
255
224
168
255
224
168
255
224
168
255
224
168
255
224
168
255
224
168
255
224
168
255
224
168
255
224
168
255
224
168
255
224
168
255
224
168
255
224
168
255
224
168
255
224
168
255
224
168
255
224
168
255
224
168
255
224
168
255
224
168
255
224
168
255
160
68
255
160
68
255
160
68
255
160
68
248
56
0
255
160
68
255
160
68
248
56
0
255
160
68
255
160
68
248
56
0
248
56
0
255
160
68
255
224
168
255
224
168
255
224
168
255
224
168
255
224
168
255
224
168
255
224
168
255
224
168
255
224
168
255
224
168
255
224
168
255
224
168
255
224
168
255
224
168
255
224
168
255
160
68
255
160
68
255
160
68
248
56
0
255
160
68
255
160
68
248
56
0
248
56
0
248
56
0
255
224
168
255
224
168
255
224
168
255
224
168
255
224
168
255
224
168
255
224
168
255
224
168
255
224
168
255
224
168
255
224
168
255
224
168
255
224
168
255
224
168
255
224
168
255
224
168
255
160
68
255
160
68
255
160
68
248
56
0
255
160
68
255
160
68
248
56
0
248
56
0
248
56
0
255
224
168
255
224
168
255
224
168
255
224
168
255
224
168
255
224
168
255
224
168
255
224
168
255
224
168
255
224
168
255
224
168
255
224
168
255
224
168
255
224
168
255
224
168
255
160
68
255
160
68
255
160
68
255
160
68
248
56
0
248
56
0
255
160
68
255
160
68
248
56
0
255
160
68
255
160
68
248
56
0
255
224
168
255
224
168
255
224
168
255
224
168
255
224
168
255
224
168
255
224
168
255
224
168
255
224
168
255
224
168
255
224
168
255
224
168
255
224
168
255
160
68
255
160
68
255
160
68
255
160
68
248
56
0
248
56
0
255
160
68
255
160
68
248
56
0
255
160
68
255
160
68
248
56
0
255
224
168
255
224
168
255
224
168
255
224
168
255
224
168
255
224
168
255
224
168
255
224
168
255
224
168
255
224
168
255
224
168
255
224
168
255
224
168
255
224
168
255
224
168
255
224
168
255
160
68
255
160
68
255
160
68
255
160
68
248
56
0
248
56
0
255
160
68
255
160
68
248
56
0
255
160
68
255
160
68
248
56
0
255
224
168
255
224
168
255
224
168
255
224
168
255
224
168
255
224
168
255
224
168
255
224
168
255
224
168
255
224
168
255
224
168
255
224
168
255
224
168
255
224
168
255
224
168
255
224
168
255
224
168
248
56
0
255
160
68
255
160
68
248
56
0
255
160
68
255
160
68
248
56
0
248
56
0
255
160
68
255
160
68
255
160
68
255
160
68
255
224
168
255
224
168
255
224
168
255
224
168
255
224
168
255
224
168
255
224
168
255
224
168
255
224
168
255
224
168
255
224
168
255
224
168
255
224
168
255
224
168
255
224
168
255
224
168
248
56
0
255
160
68
255
160
68
248
56
0
255
160
68
255
160
68
248
56
0
248
56
0
255
160
68
255
160
68
255
160
68
255
160
68
255
224
168
255
224
168
255
224
168
255
224
168
255
224
168
255
224
168
255
224
168
255
224
168
255
224
168
255
224
168
255
224
168
255
224
168
255
224
168
248
56
0
255
160
68
255
160
68
248
56
0
255
160
68
255
160
68
248
56
0
248
56
0
255
160
68
255
160
68
255
160
68
255
160
68
255
224
168
255
224
168
255
224
168
255
224
168
255
224
168
255
224
168
255
224
168
255
224
168
255
224
168
255
224
168
255
224
168
255
224
168
255
224
168
255
224
168
255
224
168
248
56
0
248
56
0
248
56
0
255
160
68
255
160
68
248
56
0
255
160
68
255
160
68
255
160
68
255
224
168
255
224
168
255
224
168
255
224
168
255
224
168
255
224
168
255
224
168
255
224
168
255
224
168
255
224
168
255
224
168
255
224
168
255
224
168
255
224
168
255
224
168
255
224
168
248
56
0
248
56
0
248
56
0
255
160
68
255
160
68
248
56
0
255
160
68
255
160
68
255
160
68
255
224
168
255
224
168
255
224
168
255
224
168
255
224
168
255
224
168
255
224
168
255
224
168
255
224
168
255
224
168
255
224
168
255
224
168
255
224
168
255
224
168
255
224
168
255
160
68
248
56
0
248
56
0
255
160
68
255
160
68
248
56
0
255
160
68
255
160
68
248
56
0
255
160
68
255
160
68
255
160
68
255
160
68
255
224
168
255
224
168
255
224
168
255
224
168
255
224
168
255
224
168
255
224
168
255
224
168
255
224
168
255
224
168
255
224
168
255
224
168
255
224
168
255
224
168
255
224
168
255
224
168
255
224
168
255
224
168
255
224
168
255
224
168
255
224
168
255
224
168
255
224
168
248
56
0
248
56
0
255
224
168
255
224
168
255
224
168
255
224
168
255
224
168
255
224
168
255
224
168
255
224
168
255
224
168
255
224
168
255
224
168
255
224
168
255
224
168
255
224
168
255
224
168
255
224
168
255
224
168
255
224
168
255
224
168
255
224
168
255
224
168
255
224
168
255
224
168
255
224
168
255
224
168
255
224
168
255
224
168
255
224
168
255
224
168
255
224
168
255
224
168
255
160
68
255
224
168
255
224
168
255
224
168
255
224
168
255
224
168
255
224
168
255
224
168
255
224
168
255
224
168
255
224
168
255
224
168
255
224
168
255
224
168
255
224
168
255
224
168
255
224
168
255
224
168
255
224
168
255
224
168
255
224
168
255
224
168
255
224
168
248
56
0
248
56
0
248
56
0
248
56
0
255
160
68
255
160
68
255
160
68
248
56
0
255
160
68
255
160
68
248
56
0
248
56
0
248
56
0
255
224
168
255
224
168
255
224
168
255
224
168
255
224
168
255
224
168
255
224
168
255
224
168
255
224
168
255
224
168
255
224
168
255
224
168
255
160
68
255
160
68
248
56
0
255
160
68
255
224
168
255
160
68
255
160
68
255
160
68
248
56
0
255
160
68
255
160
68
255
160
68
255
160
68
255
160
68
255
160
68
255
224
168
255
224
168
255
224
168
255
224
168
255
224
168
255
224
168
255
224
168
255
224
168
255
224
168
255
224
168
255
224
168
255
160
68
255
160
68
255
160
68
255
160
68
248
56
0
248
56
0
255
160
68
255
160
68
248
56
0
255
160
68
255
160
68
248
56
0
255
224
168
255
224
168
255
224
168
255
224
168
255
224
168
255
224
168
255
224
168
255
224
168
255
224
168
255
224
168
255
224
168
255
224
168
255
224
168
255
160
68
255
160
68
255
160
68
255
160
68
248
56
0
248
56
0
255
160
68
255
160
68
248
56
0
255
160
68
255
160
68
248
56
0
255
224
168
255
224
168
255
224
168
255
224
168
255
224
168
255
224
168
255
224
168
255
224
168
255
224
168
255
224
168
255
224
168
255
224
168
255
224
168
255
160
68
255
160
68
255
160
68
255
160
68
255
160
68
255
160
68
255
160
68
255
160
68
248
56
0
248
56
0
255
160
68
255
160
68
248
56
0
255
224
168
255
224
168
255
224
168
255
224
168
255
224
168
255
224
168
255
224
168
255
224
168
255
224
168
255
224
168
255
224
168
255
224
168
255
160
68
255
160
68
255
160
68
255
160
68
255
160
68
255
160
68
255
160
68
255
160
68
248
56
0
248
56
0
255
160
68
255
160
68
248
56
0
255
224
168
255
224
168
255
224
168
255
224
168
255
224
168
255
224
168
255
224
168
255
224
168
255
224
168
255
224
168
255
224
168
255
224
168
255
224
168
255
224
168
255
224
168
255
160
68
255
160
68
255
160
68
255
160
68
255
160
68
255
160
68
255
160
68
255
160
68
248
56
0
248
56
0
255
160
68
255
160
68
248
56
0
255
224
168
255
224
168
255
224
168
255
224
168
255
224
168
255
224
168
255
224
168
255
224
168
255
224
168
255
224
168
255
224
168
255
224
168
255
224
168
255
224
168
255
224
168
255
224
168
255
224
168
248
56
0
255
160
68
255
160
68
248
56
0
248
56
0
255
160
68
255
160
68
255
160
68
255
160
68
255
160
68
255
160
68
255
160
68
255
160
68
255
224
168
255
224
168
255
224
168
255
224
168
255
224
168
255
224
168
255
224
168
255
224
168
255
224
168
255
224
168
255
224
168
255
224
168
255
224
168
255
224
168
255
224
168
248
56
0
255
160
68
255
160
68
248
56
0
248
56
0
255
160
68
255
160
68
255
160
68
255
160
68
255
160
68
255
160
68
255
160
68
255
160
68
255
224
168
255
224
168
255
224
168
255
224
168
255
224
168
255
224
168
255
224
168
255
224
168
255
224
168
255
224
168
255
224
168
255
224
168
248
56
0
255
160
68
255
160
68
248
56
0
248
56
0
255
160
68
255
160
68
255
160
68
255
160
68
255
160
68
255
160
68
255
160
68
255
160
68
255
224
168
255
224
168
255
224
168
255
224
168
255
224
168
255
224
168
255
224
168
255
224
168
255
224
168
255
224
168
255
224
168
255
224
168
255
224
168
248
56
0
255
160
68
255
160
68
248
56
0
255
160
68
255
160
68
248
56
0
248
56
0
255
160
68
255
160
68
255
160
68
255
160
68
255
224
168
255
224
168
255
224
168
255
224
168
255
224
168
255
224
168
255
224
168
255
224
168
255
224
168
255
224
168
255
224
168
255
224
168
255
224
168
248
56
0
255
160
68
255
160
68
248
56
0
255
160
68
255
160
68
248
56
0
248
56
0
255
160
68
255
160
68
255
160
68
255
160
68
255
224
168
255
224
168
255
224
168
255
224
168
255
224
168
255
224
168
255
224
168
255
224
168
255
224
168
255
224
168
255
224
168
255
160
68
255
160
68
255
160
68
255
160
68
255
160
68
255
160
68
248
56
0
255
160
68
255
160
68
255
160
68
255
224
168
255
160
68
248
56
0
255
160
68
255
160
68
255
224
168
255
224
168
255
224
168
255
224
168
255
224
168
255
224
168
255
224
168
255
224
168
255
224
168
255
224
168
255
224
168
255
224
168
248
56
0
248
56
0
248
56
0
255
160
68
255
160
68
248
56
0
255
160
68
255
160
68
255
160
68
248
56
0
248
56
0
248
56
0
248
56
0
255
224
168
255
224
168
255
224
168
255
224
168
255
224
168
255
224
168
255
224
168
255
224
168
255
224
168
255
224
168
255
224
168
255
224
168
255
224
168
255
224
168
255
224
168
255
224
168
255
224
168
255
224
168
255
224
168
255
224
168
255
224
168
255
224
168
255
160
68
255
224
168
255
224
168
255
224
168
255
224
168
255
224
168
255
224
168
255
224
168
255
224
168
255
160
68
255
160
68
255
224
168
255
224
168
255
224
168
255
224
168
255
224
168
255
224
168
255
224
168
255
224
168
255
224
168
255
224
168
255
224
168
255
224
168
255
224
168
255
224
168
255
224
168
255
224
168
255
224
168
255
224
168
255
224
168
255
224
168
255
224
168
248
56
0
248
56
0
255
160
68
255
160
68
255
160
68
255
160
68
255
160
68
248
56
0
255
160
68
255
160
68
248
56
0
255
160
68
255
160
68
248
56
0
255
224
168
255
224
168
255
224
168
255
224
168
255
224
168
255
224
168
255
224
168
255
224
168
255
224
168
255
224
168
255
224
168
255
160
68
248
56
0
255
160
68
248
56
0
255
224
168
255
224
168
255
160
68
255
160
68
255
160
68
255
160
68
255
160
68
248
56
0
255
160
68
255
160
68
255
160
68
255
160
68
255
224
168
255
224
168
255
224
168
255
224
168
255
224
168
255
224
168
255
224
168
255
224
168
255
224
168
255
160
68
255
160
68
255
160
68
255
160
68
255
160
68
255
160
68
255
160
68
255
160
68
248
56
0
248
56
0
255
160
68
255
160
68
248
56
0
255
224
168
255
224
168
255
224
168
255
224
168
255
224
168
255
224
168
255
224
168
255
224
168
255
224
168
255
224
168
255
224
168
255
224
168
255
160
68
255
160
68
255
160
68
255
160
68
255
160
68
255
160
68
255
160
68
255
160
68
248
56
0
248
56
0
255
160
68
255
160
68
248
56
0
255
224
168
255
224
168
255
224
168
255
224
168
255
224
168
255
224
168
255
224
168
255
224
168
255
224
168
255
224
168
255
224
168
255
224
168
255
224
168
255
160
68
255
160
68
255
160
68
255
160
68
248
56
0
255
160
68
255
160
68
255
160
68
248
56
0
248
56
0
255
160
68
255
160
68
248
56
0
248
56
0
255
224
168
255
224
168
255
224
168
255
224
168
255
224
168
255
224
168
255
224
168
255
224
168
255
224
168
255
224
168
255
224
168
255
160
68
255
160
68
255
160
68
255
160
68
248
56
0
255
160
68
255
160
68
255
160
68
248
56
0
248
56
0
255
160
68
255
160
68
248
56
0
248
56
0
255
224
168
255
224
168
255
224
168
255
224
168
255
224
168
255
224
168
255
224
168
255
224
168
255
224
168
255
224
168
255
224
168
255
224
168
255
224
168
255
224
168
255
160
68
255
160
68
255
160
68
255
160
68
248
56
0
255
160
68
255
160
68
255
160
68
248
56
0
248
56
0
255
160
68
255
160
68
248
56
0
248
56
0
255
224
168
255
224
168
255
224
168
255
224
168
255
224
168
255
224
168
255
224
168
255
224
168
255
224
168
255
224
168
255
224
168
255
224
168
255
224
168
255
224
168
255
224
168
248
56
0
248
56
0
255
160
68
255
160
68
248
56
0
248
56
0
255
160
68
255
160
68
255
160
68
248
56
0
255
160
68
255
160
68
255
160
68
255
160
68
255
224
168
255
224
168
255
224
168
255
224
168
255
224
168
255
224
168
255
224
168
255
224
168
255
224
168
255
224
168
255
224
168
255
224
168
255
224
168
255
224
168
248
56
0
248
56
0
255
160
68
255
160
68
248
56
0
248
56
0
255
160
68
255
160
68
255
160
68
248
56
0
255
160
68
255
160
68
255
160
68
255
160
68
255
224
168
255
224
168
255
224
168
255
224
168
255
224
168
255
224
168
255
224
168
255
224
168
255
224
168
255
224
168
255
224
168
248
56
0
248
56
0
255
160
68
255
160
68
248
56
0
248
56
0
255
160
68
255
160
68
255
160
68
248
56
0
255
160
68
255
160
68
255
160
68
255
160
68
255
224
168
255
224
168
255
224
168
255
224
168
255
224
168
255
224
168
255
224
168
255
224
168
255
224
168
255
224
168
255
224
168
255
224
168
255
224
168
248
56
0
255
160
68
255
160
68
248
56
0
248
56
0
255
160
68
255
160
68
255
160
68
255
160
68
255
160
68
255
160
68
255
160
68
255
160
68
255
224
168
255
224
168
255
224
168
255
224
168
255
224
168
255
224
168
255
224
168
255
224
168
255
224
168
255
224
168
255
224
168
255
224
168
248
56
0
255
160
68
255
160
68
248
56
0
248
56
0
255
160
68
255
160
68
255
160
68
255
160
68
255
160
68
255
160
68
255
160
68
255
160
68
255
224
168
255
224
168
255
224
168
255
224
168
255
224
168
255
224
168
255
224
168
255
224
168
255
224
168
255
160
68
255
160
68
255
160
68
255
160
68
248
56
0
255
160
68
255
160
68
255
160
68
255
160
68
255
160
68
255
224
168
255
224
168
248
56
0
255
160
68
248
56
0
255
160
68
255
224
168
255
224
168
255
224
168
255
224
168
255
224
168
255
224
168
255
224
168
255
224
168
255
224
168
255
224
168
255
224
168
248
56
0
255
160
68
255
160
68
248
56
0
255
160
68
255
160
68
248
56
0
255
160
68
255
160
68
255
160
68
255
160
68
255
160
68
248
56
0
248
56
0
255
224
168
255
224
168
255
224
168
255
224
168
255
224
168
255
224
168
255
224
168
255
224
168
255
224
168
255
224
168
255
224
168
255
224
168
255
224
168
255
224
168
255
224
168
255
224
168
255
224
168
255
224
168
255
224
168
255
224
168
255
224
168
255
160
68
255
160
68
255
224
168
255
224
168
255
224
168
255
224
168
255
224
168
255
224
168
255
224
168
255
224
168
255
224
168
255
224
168
255
224
168
255
224
168
255
224
168
255
224
168
255
224
168
255
224
168
255
224
168
255
224
168
255
224
168
255
224
168
255
224
168
255
224
168
255
224
168
255
224
168
255
224
168
255
224
168
255
224
168
255
224
168
255
224
168
255
224
168
255
224
168
248
56
0
255
160
68
255
160
68
255
160
68
255
160
68
255
160
68
255
160
68
255
160
68
255
160
68
248
56
0
248
56
0
255
160
68
255
160
68
248
56
0
255
224
168
255
224
168
255
224
168
255
224
168
255
224
168
255
224
168
255
224
168
255
224
168
255
224
168
255
224
168
255
224
168
255
160
68
255
160
68
248
56
0
255
224
168
255
224
168
248
56
0
248
56
0
255
160
68
255
160
68
248
56
0
248
56
0
248
56
0
248
56
0
255
160
68
255
160
68
255
160
68
255
224
168
255
224
168
255
224
168
255
224
168
255
224
168
255
224
168
255
224
168
255
224
168
255
224
168
255
160
68
255
160
68
255
160
68
255
160
68
248
56
0
255
160
68
255
160
68
255
160
68
248
56
0
248
56
0
255
160
68
255
160
68
248
56
0
248
56
0
255
224
168
255
224
168
255
224
168
255
224
168
255
224
168
255
224
168
255
224
168
255
224
168
255
224
168
255
224
168
255
224
168
255
160
68
255
160
68
255
160
68
255
160
68
248
56
0
255
160
68
255
160
68
255
160
68
248
56
0
248
56
0
255
160
68
255
160
68
248
56
0
248
56
0
255
224
168
255
224
168
255
224
168
255
224
168
255
224
168
255
224
168
255
224
168
255
224
168
255
224
168
255
224
168
255
224
168
255
224
168
255
224
168
248
56
0
248
56
0
248
56
0
248
56
0
248
56
0
248
56
0
255
160
68
255
160
68
255
160
68
255
160
68
255
160
68
248
56
0
248
56
0
255
224
168
255
224
168
255
224
168
255
224
168
255
224
168
255
224
168
255
224
168
255
224
168
255
224
168
255
224
168
255
224
168
255
224
168
248
56
0
248
56
0
248
56
0
248
56
0
248
56
0
248
56
0
255
160
68
255
160
68
255
160
68
255
160
68
255
160
68
248
56
0
248
56
0
255
224
168
255
224
168
255
224
168
255
224
168
255
224
168
255
224
168
255
224
168
255
224
168
255
224
168
255
224
168
255
224
168
255
224
168
255
224
168
255
224
168
255
224
168
248
56
0
248
56
0
248
56
0
248
56
0
248
56
0
248
56
0
255
160
68
255
160
68
255
160
68
255
160
68
255
160
68
248
56
0
248
56
0
255
224
168
255
224
168
255
224
168
255
224
168
255
224
168
255
224
168
255
224
168
255
224
168
255
224
168
255
224
168
255
224
168
255
224
168
255
224
168
255
224
168
255
224
168
248
56
0
248
56
0
255
160
68
255
160
68
255
160
68
255
160
68
255
160
68
248
56
0
248
56
0
248
56
0
248
56
0
248
56
0
248
56
0
255
224
168
255
224
168
255
224
168
255
224
168
255
224
168
255
224
168
255
224
168
255
224
168
255
224
168
255
224
168
255
224
168
255
224
168
255
224
168
255
224
168
255
224
168
248
56
0
248
56
0
255
160
68
255
160
68
255
160
68
255
160
68
255
160
68
248
56
0
248
56
0
248
56
0
248
56
0
248
56
0
248
56
0
255
224
168
255
224
168
255
224
168
255
224
168
255
224
168
255
224
168
255
224
168
255
224
168
255
224
168
255
224
168
255
224
168
255
224
168
248
56
0
248
56
0
255
160
68
255
160
68
255
160
68
255
160
68
255
160
68
248
56
0
248
56
0
248
56
0
248
56
0
248
56
0
248
56
0
255
224
168
255
224
168
255
224
168
255
224
168
255
224
168
255
224
168
255
224
168
255
224
168
255
224
168
255
224
168
255
224
168
255
224
168
255
224
168
248
56
0
248
56
0
255
160
68
255
160
68
248
56
0
248
56
0
255
160
68
255
160
68
255
160
68
248
56
0
255
160
68
255
160
68
255
160
68
255
160
68
255
224
168
255
224
168
255
224
168
255
224
168
255
224
168
255
224
168
255
224
168
255
224
168
255
224
168
255
224
168
255
224
168
248
56
0
248
56
0
255
160
68
255
160
68
248
56
0
248
56
0
255
160
68
255
160
68
255
160
68
248
56
0
255
160
68
255
160
68
255
160
68
255
160
68
255
224
168
255
224
168
255
224
168
255
224
168
255
224
168
255
224
168
255
224
168
255
224
168
255
224
168
255
160
68
255
160
68
255
160
68
248
56
0
248
56
0
248
56
0
248
56
0
255
160
68
255
160
68
248
56
0
248
56
0
255
224
168
255
224
168
248
56
0
255
160
68
255
160
68
255
224
168
255
224
168
255
224
168
255
224
168
255
224
168
255
224
168
255
224
168
255
224
168
255
224
168
255
224
168
255
224
168
248
56
0
255
160
68
255
160
68
248
56
0
248
56
0
255
160
68
255
160
68
255
160
68
255
160
68
255
160
68
255
160
68
255
160
68
255
160
68
248
56
0
255
224
168
255
224
168
255
224
168
255
224
168
255
224
168
255
224
168
255
224
168
255
224
168
255
224
168
255
224
168
255
224
168
255
224
168
255
224
168
255
224
168
255
224
168
255
224
168
255
224
168
255
224
168
255
224
168
255
224
168
255
224
168
255
224
168
255
224
168
255
224
168
255
224
168
255
224
168
255
224
168
255
224
168
255
224
168
255
224
168
255
160
68
255
160
68
255
160
68
248
56
0
255
160
68
255
160
68
248
56
0
248
56
0
248
56
0
255
224
168
255
224
168
255
224
168
255
224
168
255
224
168
255
224
168
255
224
168
255
224
168
255
224
168
255
224
168
255
224
168
255
224
168
255
224
168
255
224
168
255
224
168
248
56
0
255
160
68
255
160
68
255
160
68
255
160
68
248
56
0
255
160
68
255
160
68
255
160
68
248
56
0
248
56
0
255
160
68
255
160
68
248
56
0
255
224
168
255
224
168
255
224
168
255
224
168
255
224
168
255
224
168
255
224
168
255
224
168
255
224
168
255
224
168
255
224
168
255
224
168
255
224
168
255
224
168
255
224
168
248
56
0
248
56
0
248
56
0
255
160
68
255
160
68
255
160
68
255
160
68
248
56
0
248
56
0
248
56
0
248
56
0
255
224
168
255
224
168
255
224
168
255
224
168
255
224
168
255
224
168
255
224
168
255
224
168
255
224
168
255
224
168
255
224
168
248
56
0
248
56
0
248
56
0
248
56
0
248
56
0
248
56
0
255
160
68
255
160
68
255
160
68
255
160
68
255
160
68
248
56
0
248
56
0
255
224
168
255
224
168
255
224
168
255
224
168
255
224
168
255
224
168
255
224
168
255
224
168
255
224
168
255
224
168
255
224
168
255
224
168
248
56
0
248
56
0
248
56
0
248
56
0
248
56
0
248
56
0
255
160
68
255
160
68
255
160
68
255
160
68
255
160
68
248
56
0
248
56
0
255
224
168
255
224
168
255
224
168
255
224
168
255
224
168
255
224
168
255
224
168
255
224
168
255
224
168
255
224
168
255
224
168
255
224
168
255
224
168
248
56
0
248
56
0
248
56
0
248
56
0
248
56
0
255
160
68
255
160
68
255
160
68
255
160
68
255
160
68
248
56
0
248
56
0
255
224
168
255
224
168
255
224
168
255
224
168
255
224
168
255
224
168
255
224
168
255
224
168
255
224
168
255
224
168
255
224
168
255
224
168
255
224
168
248
56
0
248
56
0
248
56
0
248
56
0
248
56
0
255
160
68
255
160
68
255
160
68
255
160
68
255
160
68
248
56
0
248
56
0
248
56
0
255
224
168
255
224
168
255
224
168
255
224
168
255
224
168
255
224
168
255
224
168
255
224
168
255
224
168
255
224
168
255
224
168
255
224
168
255
224
168
255
224
168
255
224
168
248
56
0
248
56
0
248
56
0
248
56
0
248
56
0
255
160
68
255
160
68
255
160
68
255
160
68
255
160
68
248
56
0
248
56
0
248
56
0
255
224
168
255
224
168
255
224
168
255
224
168
255
224
168
255
224
168
255
224
168
255
224
168
255
224
168
255
224
168
255
224
168
255
224
168
255
224
168
255
224
168
255
224
168
248
56
0
248
56
0
248
56
0
255
160
68
255
160
68
255
160
68
255
160
68
255
160
68
248
56
0
248
56
0
248
56
0
248
56
0
248
56
0
255
224
168
255
224
168
255
224
168
255
224
168
255
224
168
255
224
168
255
224
168
255
224
168
255
224
168
255
224
168
255
224
168
255
224
168
255
224
168
255
224
168
255
224
168
248
56
0
248
56
0
248
56
0
255
160
68
255
160
68
255
160
68
255
160
68
255
160
68
248
56
0
248
56
0
248
56
0
248
56
0
248
56
0
255
224
168
255
224
168
255
224
168
255
224
168
255
224
168
255
224
168
255
224
168
255
224
168
255
224
168
255
224
168
255
224
168
255
224
168
255
224
168
248
56
0
248
56
0
255
160
68
255
160
68
255
160
68
255
160
68
255
160
68
248
56
0
248
56
0
248
56
0
248
56
0
248
56
0
255
224
168
255
224
168
255
224
168
255
224
168
255
224
168
255
224
168
255
224
168
255
224
168
255
224
168
255
224
168
255
224
168
255
224
168
255
224
168
248
56
0
248
56
0
255
160
68
255
160
68
255
160
68
255
160
68
255
160
68
248
56
0
248
56
0
248
56
0
248
56
0
248
56
0
248
56
0
255
224
168
255
224
168
255
224
168
255
224
168
255
224
168
255
224
168
255
224
168
255
224
168
255
224
168
255
224
168
255
224
168
255
224
168
248
56
0
248
56
0
255
160
68
255
160
68
255
160
68
255
160
68
255
160
68
248
56
0
248
56
0
248
56
0
248
56
0
248
56
0
248
56
0
255
224
168
255
224
168
255
224
168
255
224
168
255
224
168
255
224
168
255
224
168
255
224
168
255
224
168
255
224
168
255
224
168
248
56
0
248
56
0
248
56
0
248
56
0
255
160
68
255
160
68
255
160
68
255
160
68
248
56
0
248
56
0
248
56
0
255
224
168
255
224
168
255
224
168
255
224
168
255
224
168
255
224
168
255
224
168
255
224
168
255
224
168
255
224
168
255
224
168
255
224
168
255
224
168
255
224
168
255
224
168
248
56
0
255
160
68
255
160
68
248
56
0
248
56
0
255
160
68
255
160
68
255
160
68
248
56
0
255
160
68
255
160
68
255
160
68
255
160
68
248
56
0
255
224
168
255
224
168
255
224
168
255
224
168
255
224
168
255
224
168
255
224
168
255
224
168
255
224
168
255
224
168
255
224
168
255
224
168
255
224
168
255
224
168
255
224
168
248
56
0
248
56
0
248
56
0
255
160
68
255
160
68
248
56
0
255
160
68
255
160
68
255
160
68
255
224
168
255
224
168
255
224
168
255
224
168
255
160
68
255
160
68
255
160
68
255
160
68
248
56
0
248
56
0
255
160
68
255
160
68
248
56
0
255
160
68
255
160
68
248
56
0
255
224
168
255
224
168
255
224
168
255
224
168
255
224
168
255
224
168
255
224
168
255
224
168
255
224
168
255
224
168
255
224
168
255
224
168
255
224
168
255
224
168
255
224
168
248
56
0
248
56
0
248
56
0
248
56
0
248
56
0
248
56
0
248
56
0
255
160
68
255
160
68
255
160
68
255
160
68
255
160
68
248
56
0
248
56
0
255
224
168
255
224
168
255
224
168
255
224
168
255
224
168
255
224
168
255
224
168
255
224
168
255
224
168
255
224
168
255
224
168
255
224
168
255
224
168
255
224
168
248
56
0
248
56
0
248
56
0
248
56
0
248
56
0
255
160
68
255
160
68
255
160
68
255
160
68
255
160
68
255
224
168
255
224
168
255
224
168
255
224
168
255
224
168
255
224
168
255
224
168
255
224
168
255
224
168
255
224
168
255
224
168
255
160
68
255
160
68
255
160
68
255
160
68
248
56
0
248
56
0
255
160
68
255
160
68
255
160
68
255
160
68
255
160
68
248
56
0
248
56
0
255
224
168
255
224
168
255
224
168
255
224
168
255
224
168
255
224
168
255
224
168
255
224
168
255
224
168
255
224
168
255
224
168
255
224
168
255
224
168
248
56
0
248
56
0
248
56
0
248
56
0
248
56
0
255
160
68
255
160
68
255
160
68
255
160
68
255
160
68
248
56
0
248
56
0
255
224
168
255
224
168
255
224
168
255
224
168
255
224
168
255
224
168
255
224
168
255
224
168
255
224
168
255
224
168
255
224
168
255
224
168
255
224
168
255
224
168
255
224
168
255
160
68
255
160
68
255
160
68
255
160
68
255
160
68
255
160
68
255
160
68
255
160
68
248
56
0
248
56
0
255
224
168
255
224
168
255
224
168
255
224
168
255
224
168
255
224
168
255
224
168
255
224
168
255
224
168
255
224
168
255
224
168
255
224
168
255
224
168
255
224
168
255
224
168
255
160
68
255
160
68
255
160
68
255
160
68
255
160
68
255
160
68
255
160
68
255
160
68
248
56
0
248
56
0
255
224
168
255
224
168
255
224
168
255
224
168
255
224
168
255
224
168
255
224
168
255
224
168
255
224
168
255
224
168
255
224
168
255
224
168
255
224
168
255
224
168
255
224
168
255
224
168
255
224
168
255
224
168
255
160
68
255
160
68
255
160
68
255
160
68
255
160
68
255
160
68
255
160
68
255
160
68
248
56
0
248
56
0
255
224
168
255
224
168
255
224
168
255
224
168
255
224
168
255
224
168
255
224
168
255
224
168
255
224
168
255
224
168
255
224
168
255
224
168
255
224
168
255
224
168
255
224
168
255
224
168
255
224
168
255
224
168
255
224
168
248
56
0
248
56
0
255
160
68
255
160
68
255
160
68
255
160
68
255
160
68
255
160
68
255
160
68
255
160
68
255
224
168
255
224
168
255
224
168
255
224
168
255
224
168
255
224
168
255
224
168
255
224
168
255
224
168
255
224
168
255
224
168
255
224
168
255
224
168
255
224
168
255
224
168
255
224
168
255
224
168
255
224
168
248
56
0
248
56
0
255
160
68
255
160
68
255
160
68
255
160
68
255
160
68
255
160
68
255
160
68
255
160
68
255
224
168
255
224
168
255
224
168
255
224
168
255
224
168
255
224
168
255
224
168
255
224
168
255
224
168
255
224
168
255
224
168
255
224
168
255
224
168
255
224
168
255
224
168
248
56
0
248
56
0
255
160
68
255
160
68
255
160
68
255
160
68
255
160
68
255
160
68
255
160
68
255
160
68
255
224
168
255
224
168
255
224
168
255
224
168
255
224
168
255
224
168
255
224
168
255
224
168
255
224
168
255
224
168
255
224
168
255
224
168
255
224
168
255
224
168
255
224
168
248
56
0
248
56
0
255
160
68
255
160
68
255
160
68
255
160
68
255
160
68
248
56
0
248
56
0
248
56
0
248
56
0
248
56
0
255
224
168
255
224
168
255
224
168
255
224
168
255
224
168
255
224
168
255
224
168
255
224
168
255
224
168
255
224
168
255
224
168
255
224
168
255
224
168
248
56
0
248
56
0
255
160
68
255
160
68
255
160
68
255
160
68
255
160
68
248
56
0
248
56
0
255
160
68
255
160
68
255
160
68
255
160
68
255
224
168
255
224
168
255
224
168
255
224
168
255
224
168
255
224
168
255
224
168
255
224
168
255
224
168
255
224
168
255
224
168
255
160
68
255
160
68
255
160
68
255
160
68
255
160
68
248
56
0
248
56
0
248
56
0
248
56
0
248
56
0
255
224
168
255
224
168
255
224
168
255
224
168
255
224
168
255
224
168
255
224
168
255
224
168
255
224
168
255
224
168
255
224
168
255
224
168
255
224
168
255
224
168
248
56
0
248
56
0
255
160
68
255
160
68
255
160
68
255
160
68
255
160
68
248
56
0
248
56
0
248
56
0
248
56
0
248
56
0
248
56
0
248
56
0
255
224
168
255
224
168
255
224
168
255
224
168
255
224
168
255
224
168
255
224
168
255
224
168
255
224
168
255
224
168
255
224
168
255
224
168
255
224
168
255
224
168
255
224
168
248
56
0
255
160
68
255
160
68
248
56
0
255
160
68
255
160
68
248
56
0
248
56
0
255
160
68
255
160
68
255
160
68
255
160
68
255
224
168
255
160
68
255
160
68
255
160
68
255
160
68
248
56
0
255
160
68
255
160
68
255
160
68
248
56
0
255
160
68
255
160
68
255
160
68
248
56
0
248
56
0
255
224
168
255
224
168
255
224
168
255
224
168
255
224
168
255
224
168
255
224
168
255
224
168
255
224
168
255
224
168
255
224
168
255
224
168
255
224
168
255
224
168
248
56
0
255
160
68
248
56
0
248
56
0
248
56
0
248
56
0
255
160
68
255
160
68
255
160
68
255
160
68
248
56
0
248
56
0
248
56
0
248
56
0
255
224
168
255
224
168
255
224
168
255
224
168
255
224
168
255
224
168
255
224
168
255
224
168
255
224
168
255
224
168
255
224
168
255
224
168
255
224
168
248
56
0
248
56
0
255
160
68
255
160
68
255
160
68
248
56
0
248
56
0
255
224
168
255
224
168
255
224
168
248
56
0
248
56
0
255
224
168
255
224
168
255
224
168
255
224
168
255
224
168
255
224
168
255
224
168
255
224
168
255
224
168
255
224
168
255
224
168
255
160
68
255
160
68
255
160
68
255
160
68
248
56
0
248
56
0
248
56
0
255
160
68
255
160
68
248
56
0
255
224
168
255
224
168
255
224
168
255
224
168
255
224
168
255
224
168
255
224
168
255
224
168
255
224
168
255
224
168
255
224
168
255
224
168
255
224
168
255
224
168
255
224
168
255
224
168
255
160
68
255
160
68
255
160
68
255
160
68
255
160
68
255
160
68
255
160
68
255
160
68
248
56
0
255
224
168
255
224
168
255
224
168
255
224
168
255
224
168
255
224
168
255
224
168
255
224
168
255
224
168
255
224
168
255
224
168
255
224
168
255
224
168
255
224
168
255
224
168
255
224
168
255
224
168
255
224
168
255
224
168
255
224
168
255
160
68
255
160
68
255
224
168
255
224
168
255
224
168
255
224
168
255
224
168
255
224
168
255
224
168
255
224
168
255
224
168
255
224
168
255
224
168
255
224
168
255
224
168
255
224
168
255
224
168
255
224
168
255
224
168
255
224
168
255
224
168
255
224
168
255
224
168
255
224
168
255
224
168
255
160
68
255
160
68
248
56
0
248
56
0
248
56
0
255
224
168
255
224
168
255
224
168
255
224
168
255
224
168
255
224
168
255
224
168
255
224
168
255
224
168
255
224
168
255
224
168
255
224
168
255
224
168
255
224
168
255
224
168
255
224
168
255
224
168
255
224
168
255
224
168
255
224
168
255
224
168
255
224
168
248
56
0
255
160
68
255
160
68
255
160
68
255
160
68
255
160
68
255
224
168
255
224
168
255
224
168
255
224
168
255
224
168
255
224
168
255
224
168
255
224
168
255
224
168
255
224
168
255
224
168
255
224
168
255
224
168
255
224
168
255
224
168
255
224
168
255
224
168
255
224
168
255
224
168
255
224
168
255
224
168
255
224
168
255
224
168
255
160
68
255
160
68
255
160
68
255
160
68
255
160
68
248
56
0
255
224
168
255
224
168
255
224
168
255
224
168
255
224
168
255
224
168
255
224
168
255
224
168
255
224
168
255
224
168
255
224
168
255
224
168
255
224
168
255
224
168
255
224
168
255
224
168
255
224
168
255
224
168
255
224
168
255
224
168
255
224
168
255
224
168
248
56
0
248
56
0
248
56
0
255
160
68
255
160
68
255
224
168
255
224
168
255
224
168
255
224
168
255
224
168
255
224
168
255
224
168
255
224
168
255
224
168
255
224
168
255
224
168
255
224
168
255
224
168
255
224
168
255
224
168
255
224
168
255
224
168
255
224
168
255
224
168
255
224
168
255
224
168
255
224
168
255
224
168
255
160
68
255
160
68
255
224
168
255
224
168
255
224
168
255
224
168
255
224
168
255
224
168
255
224
168
255
224
168
255
224
168
255
224
168
255
224
168
255
224
168
255
224
168
255
224
168
255
224
168
255
224
168
255
224
168
255
224
168
255
224
168
255
224
168
248
56
0
255
160
68
255
160
68
255
160
68
255
160
68
255
160
68
255
160
68
255
160
68
255
160
68
255
224
168
255
224
168
255
224
168
255
224
168
255
224
168
255
224
168
255
224
168
255
224
168
255
224
168
255
224
168
255
224
168
255
224
168
255
224
168
255
224
168
255
224
168
255
224
168
248
56
0
255
160
68
255
160
68
248
56
0
248
56
0
248
56
0
255
160
68
255
160
68
255
160
68
255
160
68
255
224
168
255
224
168
255
224
168
255
224
168
255
224
168
255
224
168
255
224
168
255
224
168
255
224
168
255
224
168
255
224
168
248
56
0
248
56
0
255
224
168
255
224
168
255
224
168
248
56
0
248
56
0
255
160
68
255
160
68
255
160
68
248
56
0
248
56
0
255
224
168
255
224
168
255
224
168
255
224
168
255
224
168
255
224
168
255
224
168
255
224
168
255
224
168
255
224
168
255
224
168
255
224
168
255
224
168
248
56
0
248
56
0
248
56
0
248
56
0
255
160
68
255
160
68
255
160
68
255
160
68
248
56
0
248
56
0
248
56
0
248
56
0
255
160
68
248
56
0
255
224
168
255
224
168
255
224
168
255
224
168
255
224
168
255
224
168
255
224
168
255
224
168
255
224
168
255
224
168
255
224
168
255
224
168
255
224
168
255
224
168
248
56
0
248
56
0
255
160
68
255
160
68
255
160
68
248
56
0
255
160
68
255
160
68
255
160
68
248
56
0
255
160
68
255
160
68
255
160
68
255
160
68
255
224
168
248
56
0
248
56
0
248
56
0
248
56
0
248
56
0
248
56
0
255
160
68
255
160
68
255
160
68
255
160
68
255
160
68
248
56
0
248
56
0
255
224
168
255
224
168
255
224
168
255
224
168
255
224
168
255
224
168
255
224
168
255
224
168
255
224
168
255
224
168
255
224
168
255
224
168
255
224
168
255
224
168
248
56
0
248
56
0
255
160
68
255
160
68
255
160
68
255
160
68
255
160
68
255
160
68
255
160
68
255
160
68
248
56
0
248
56
0
255
224
168
255
224
168
255
224
168
255
224
168
255
224
168
255
224
168
255
224
168
255
224
168
255
224
168
255
224
168
255
224
168
255
224
168
255
224
168
255
224
168
255
224
168
248
56
0
255
160
68
255
160
68
255
160
68
255
160
68
255
160
68
255
224
168
255
224
168
255
224
168
248
56
0
248
56
0
248
56
0
255
224
168
255
224
168
255
224
168
255
224
168
255
224
168
255
224
168
255
224
168
255
224
168
255
224
168
255
224
168
255
224
168
255
224
168
255
160
68
255
160
68
248
56
0
248
56
0
248
56
0
248
56
0
248
56
0
255
224
168
255
224
168
248
56
0
255
224
168
255
224
168
255
224
168
255
224
168
255
224
168
255
224
168
255
224
168
255
224
168
255
224
168
255
224
168
255
224
168
255
224
168
255
224
168
255
224
168
255
224
168
255
224
168
255
224
168
255
224
168
255
160
68
255
160
68
255
160
68
255
224
168
255
224
168
255
224
168
248
56
0
255
224
168
255
224
168
255
224
168
255
224
168
255
224
168
255
224
168
255
224
168
255
224
168
255
224
168
255
224
168
255
224
168
255
224
168
255
224
168
255
224
168
255
224
168
255
224
168
255
224
168
255
224
168
248
56
0
248
56
0
255
224
168
255
224
168
248
56
0
248
56
0
255
224
168
248
56
0
255
224
168
255
224
168
255
224
168
255
224
168
255
224
168
255
224
168
255
224
168
255
224
168
255
224
168
255
224
168
255
224
168
255
224
168
255
224
168
255
160
68
255
224
168
255
224
168
255
224
168
255
224
168
248
56
0
248
56
0
255
224
168
255
224
168
255
224
168
255
224
168
255
224
168
255
224
168
255
224
168
255
224
168
255
224
168
255
224
168
255
224
168
255
224
168
255
224
168
255
224
168
255
224
168
255
224
168
255
224
168
255
224
168
255
224
168
255
224
168
255
224
168
255
224
168
255
224
168
255
224
168
248
56
0
255
224
168
248
56
0
248
56
0
248
56
0
248
56
0
255
224
168
248
56
0
255
224
168
255
224
168
255
224
168
255
224
168
255
224
168
255
224
168
255
224
168
255
224
168
255
224
168
255
224
168
255
224
168
255
224
168
255
224
168
255
224
168
255
224
168
255
224
168
255
224
168
255
224
168
255
224
168
255
224
168
255
224
168
248
56
0
255
224
168
248
56
0
248
56
0
248
56
0
248
56
0
255
224
168
248
56
0
255
224
168
255
224
168
255
224
168
255
224
168
255
224
168
255
224
168
255
224
168
255
224
168
255
224
168
255
224
168
255
224
168
255
224
168
255
224
168
255
224
168
255
224
168
255
224
168
255
224
168
255
224
168
255
224
168
255
224
168
255
224
168
255
224
168
255
224
168
255
224
168
248
56
0
248
56
0
255
224
168
255
224
168
255
224
168
255
224
168
255
160
68
255
224
168
255
224
168
255
224
168
255
224
168
255
224
168
255
224
168
255
224
168
255
224
168
255
224
168
255
224
168
255
224
168
255
224
168
255
224
168
248
56
0
255
224
168
248
56
0
248
56
0
255
224
168
255
224
168
248
56
0
248
56
0
255
224
168
255
224
168
255
224
168
255
224
168
255
224
168
255
224
168
255
224
168
255
224
168
255
224
168
255
224
168
255
224
168
255
224
168
255
224
168
255
224
168
255
224
168
255
224
168
255
224
168
255
224
168
248
56
0
255
224
168
255
224
168
255
224
168
255
160
68
255
160
68
255
160
68
255
224
168
255
224
168
255
224
168
255
224
168
255
224
168
255
224
168
255
224
168
255
224
168
255
224
168
255
224
168
255
224
168
255
224
168
255
224
168
255
224
168
255
224
168
255
224
168
255
224
168
255
224
168
248
56
0
255
224
168
255
224
168
248
56
0
248
56
0
248
56
0
248
56
0
248
56
0
255
160
68
255
160
68
255
224
168
255
224
168
255
224
168
255
224
168
255
224
168
255
224
168
255
224
168
255
224
168
255
224
168
255
224
168
255
224
168
255
224
168
248
56
0
248
56
0
248
56
0
255
224
168
255
224
168
255
224
168
255
160
68
255
160
68
255
160
68
255
160
68
255
160
68
248
56
0
255
224
168
255
224
168
255
224
168
255
224
168
255
224
168
255
224
168
255
224
168
255
224
168
255
224
168
255
224
168
255
224
168
255
224
168
255
224
168
255
224
168
255
224
168
248
56
0
248
56
0
255
160
68
255
160
68
255
160
68
255
160
68
255
160
68
255
160
68
255
160
68
255
160
68
248
56
0
248
56
0
255
224
168
255
224
168
255
224
168
255
224
168
255
224
168
255
224
168
255
224
168
255
224
168
255
224
168
255
224
168
255
224
168
255
224
168
255
224
168
255
224
168
248
56
0
248
56
0
255
160
68
255
160
68
255
160
68
255
160
68
255
160
68
248
56
0
248
56
0
248
56
0
248
56
0
248
56
0
248
56
0
255
224
168
255
224
168
248
56
0
248
56
0
248
56
0
248
56
0
248
56
0
255
160
68
255
160
68
255
160
68
255
160
68
255
160
68
248
56
0
255
224
168
255
224
168
255
224
168
255
224
168
255
224
168
255
224
168
255
224
168
255
224
168
255
224
168
255
224
168
255
224
168
255
224
168
255
224
168
255
224
168
255
224
168
255
224
168
248
56
0
248
56
0
248
56
0
248
56
0
255
224
168
248
56
0
248
56
0
255
224
168
255
224
168
255
224
168
255
224
168
255
224
168
255
224
168
255
224
168
255
224
168
255
224
168
255
224
168
255
224
168
255
224
168
255
224
168
255
224
168
255
224
168
255
224
168
255
224
168
255
224
168
255
224
168
255
224
168
248
56
0
255
160
68
255
160
68
255
160
68
255
160
68
255
160
68
248
56
0
248
56
0
255
224
168
248
56
0
248
56
0
248
56
0
255
224
168
255
224
168
255
224
168
255
224
168
255
224
168
255
224
168
255
224
168
255
224
168
255
224
168
255
224
168
255
224
168
255
224
168
255
224
168
255
160
68
248
56
0
248
56
0
248
56
0
248
56
0
248
56
0
248
56
0
255
224
168
255
224
168
248
56
0
255
224
168
255
224
168
255
224
168
255
224
168
255
224
168
255
224
168
255
224
168
255
224
168
255
224
168
255
224
168
255
224
168
255
224
168
255
224
168
255
224
168
255
224
168
255
224
168
255
224
168
255
224
168
248
56
0
255
224
168
248
56
0
248
56
0
248
56
0
255
224
168
248
56
0
255
224
168
255
224
168
255
224
168
255
224
168
255
224
168
255
224
168
255
224
168
255
224
168
255
224
168
255
224
168
255
224
168
255
224
168
255
224
168
255
224
168
255
224
168
255
224
168
255
224
168
248
56
0
255
224
168
255
224
168
248
56
0
248
56
0
248
56
0
248
56
0
255
224
168
248
56
0
255
224
168
255
224
168
255
224
168
255
224
168
255
224
168
255
224
168
255
224
168
255
224
168
255
224
168
255
224
168
255
224
168
255
160
68
255
160
68
255
160
68
255
224
168
255
224
168
248
56
0
248
56
0
255
224
168
255
224
168
248
56
0
248
56
0
248
56
0
248
56
0
255
224
168
255
224
168
255
224
168
255
224
168
255
224
168
255
224
168
255
224
168
255
224
168
255
224
168
255
224
168
255
224
168
255
224
168
255
224
168
255
224
168
255
224
168
255
224
168
255
224
168
255
224
168
248
56
0
248
56
0
255
224
168
248
56
0
248
56
0
248
56
0
248
56
0
255
224
168
248
56
0
248
56
0
255
224
168
255
224
168
255
224
168
255
224
168
255
224
168
255
224
168
255
224
168
255
224
168
255
224
168
255
224
168
255
224
168
255
224
168
255
224
168
255
224
168
255
224
168
255
224
168
255
224
168
255
224
168
255
224
168
248
56
0
248
56
0
255
224
168
248
56
0
248
56
0
248
56
0
248
56
0
255
224
168
248
56
0
248
56
0
255
224
168
255
224
168
255
224
168
255
224
168
255
224
168
255
224
168
255
224
168
255
224
168
255
224
168
255
224
168
255
224
168
255
224
168
255
224
168
255
224
168
255
224
168
255
224
168
255
224
168
255
224
168
248
56
0
248
56
0
248
56
0
248
56
0
255
224
168
255
224
168
248
56
0
248
56
0
255
224
168
255
224
168
255
160
68
255
160
68
255
160
68
255
224
168
255
224
168
255
224
168
255
224
168
255
224
168
255
224
168
255
224
168
255
224
168
255
224
168
255
224
168
255
224
168
248
56
0
255
224
168
248
56
0
248
56
0
248
56
0
248
56
0
255
224
168
255
224
168
248
56
0
255
224
168
255
224
168
255
224
168
255
224
168
255
224
168
255
224
168
255
224
168
255
224
168
255
224
168
255
224
168
255
224
168
255
224
168
255
224
168
255
224
168
255
224
168
255
224
168
255
224
168
248
56
0
255
224
168
248
56
0
248
56
0
248
56
0
255
224
168
248
56
0
255
224
168
255
224
168
255
224
168
255
224
168
255
224
168
255
224
168
255
224
168
255
224
168
255
224
168
255
224
168
255
224
168
255
224
168
255
224
168
255
224
168
255
224
168
255
224
168
255
224
168
255
224
168
248
56
0
255
224
168
255
224
168
248
56
0
248
56
0
248
56
0
248
56
0
248
56
0
248
56
0
255
160
68
255
224
168
255
224
168
255
224
168
255
224
168
255
224
168
255
224
168
255
224
168
255
224
168
255
224
168
255
224
168
255
224
168
255
224
168
255
224
168
248
56
0
248
56
0
248
56
0
255
224
168
248
56
0
248
56
0
255
160
68
255
160
68
255
160
68
255
160
68
255
160
68
248
56
0
255
224
168
255
224
168
255
224
168
255
224
168
255
224
168
255
224
168
255
224
168
255
224
168
255
224
168
255
224
168
255
224
168
255
224
168
255
224
168
255
224
168
255
224
168
255
224
168
255
224
168
255
224
168
255
224
168
255
224
168
248
56
0
248
56
0
255
224
168
248
56
0
248
56
0
248
56
0
248
56
0
255
224
168
255
224
168
255
224
168
255
224
168
255
224
168
255
224
168
255
224
168
255
224
168
255
224
168
255
224
168
255
224
168
255
224
168
255
224
168
255
224
168
255
224
168
255
224
168
248
56
0
255
160
68
255
160
68
255
160
68
255
160
68
255
160
68
248
56
0
248
56
0
248
56
0
248
56
0
248
56
0
255
224
168
255
224
168
255
160
68
255
160
68
255
160
68
255
160
68
255
160
68
255
160
68
255
160
68
255
160
68
255
160
68
248
56
0
255
224
168
248
56
0
248
56
0
248
56
0
255
224
168
255
224
168
255
224
168
255
224
168
255
224
168
255
224
168
255
224
168
255
224
168
255
224
168
255
224
168
255
224
168
255
224
168
255
224
168
255
224
168
248
56
0
248
56
0
248
56
0
255
224
168
248
56
0
255
224
168
255
224
168
248
56
0
248
56
0
248
56
0
248
56
0
248
56
0
248
56
0
255
224
168
255
224
168
255
224
168
255
224
168
255
224
168
255
224
168
255
224
168
255
224
168
255
224
168
255
224
168
255
224
168
255
224
168
255
224
168
255
224
168
255
160
68
255
160
68
255
160
68
255
160
68
255
160
68
248
56
0
248
56
0
248
56
0
248
56
0
248
56
0
248
56
0
248
56
0
255
224
168
255
224
168
255
224
168
255
224
168
255
224
168
255
224
168
255
224
168
255
224
168
255
224
168
255
224
168
255
224
168
255
224
168
255
224
168
255
224
168
248
56
0
248
56
0
248
56
0
248
56
0
248
56
0
248
56
0
255
224
168
248
56
0
255
224
168
255
224
168
255
224
168
255
224
168
255
224
168
255
224
168
255
224
168
255
224
168
255
224
168
255
224
168
255
224
168
255
224
168
255
224
168
255
224
168
255
224
168
255
224
168
255
224
168
248
56
0
255
224
168
248
56
0
248
56
0
248
56
0
248
56
0
255
224
168
248
56
0
255
224
168
255
224
168
255
224
168
255
224
168
255
224
168
255
224
168
255
224
168
255
224
168
255
224
168
255
224
168
255
224
168
255
224
168
255
224
168
255
224
168
255
224
168
255
224
168
248
56
0
248
56
0
255
224
168
255
224
168
248
56
0
248
56
0
248
56
0
248
56
0
255
224
168
248
56
0
255
224
168
255
224
168
255
224
168
255
224
168
255
224
168
255
224
168
255
224
168
255
224
168
255
224
168
255
224
168
255
224
168
255
160
68
255
160
68
255
160
68
248
56
0
255
224
168
248
56
0
255
224
168
255
224
168
248
56
0
248
56
0
248
56
0
248
56
0
248
56
0
248
56
0
255
224
168
255
224
168
255
224
168
255
224
168
255
224
168
255
224
168
255
224
168
255
224
168
255
224
168
255
224
168
255
224
168
255
224
168
255
224
168
255
224
168
255
224
168
255
224
168
248
56
0
248
56
0
248
56
0
255
224
168
248
56
0
248
56
0
248
56
0
248
56
0
255
224
168
248
56
0
248
56
0
248
56
0
255
224
168
255
224
168
255
224
168
255
224
168
255
224
168
255
224
168
255
224
168
255
224
168
255
224
168
255
224
168
255
224
168
255
224
168
255
224
168
255
224
168
255
224
168
255
224
168
255
224
168
248
56
0
248
56
0
248
56
0
255
224
168
248
56
0
248
56
0
248
56
0
248
56
0
255
224
168
248
56
0
248
56
0
248
56
0
255
224
168
255
224
168
255
224
168
255
224
168
255
224
168
255
224
168
255
224
168
255
224
168
255
224
168
255
224
168
255
224
168
255
224
168
255
224
168
255
224
168
255
224
168
255
224
168
248
56
0
248
56
0
248
56
0
248
56
0
248
56
0
248
56
0
255
224
168
255
224
168
248
56
0
255
224
168
248
56
0
255
160
68
255
160
68
255
160
68
255
224
168
255
224
168
255
224
168
255
224
168
255
224
168
255
224
168
255
224
168
255
224
168
255
224
168
255
224
168
255
224
168
248
56
0
255
224
168
248
56
0
248
56
0
248
56
0
248
56
0
255
224
168
255
224
168
248
56
0
248
56
0
255
224
168
255
224
168
255
224
168
255
224
168
255
224
168
255
224
168
255
224
168
255
224
168
255
224
168
255
224
168
255
224
168
255
224
168
255
224
168
255
224
168
255
224
168
255
224
168
248
56
0
255
224
168
248
56
0
248
56
0
248
56
0
248
56
0
255
224
168
248
56
0
255
224
168
255
224
168
255
224
168
255
224
168
255
224
168
255
224
168
255
224
168
255
224
168
255
224
168
255
224
168
255
224
168
255
224
168
255
224
168
255
224
168
255
224
168
255
224
168
255
224
168
248
56
0
255
224
168
248
56
0
248
56
0
248
56
0
248
56
0
248
56
0
248
56
0
255
224
168
255
224
168
255
224
168
255
224
168
255
224
168
255
224
168
255
224
168
255
224
168
255
224
168
255
224
168
255
224
168
255
224
168
255
224
168
255
224
168
248
56
0
248
56
0
248
56
0
248
56
0
248
56
0
248
56
0
248
56
0
255
160
68
255
160
68
255
160
68
255
160
68
255
160
68
255
224
168
255
224
168
255
224
168
255
224
168
255
224
168
255
224
168
255
224
168
255
224
168
255
224
168
255
224
168
255
224
168
255
224
168
255
224
168
255
224
168
248
56
0
248
56
0
248
56
0
248
56
0
248
56
0
248
56
0
255
224
168
255
224
168
248
56
0
255
224
168
248
56
0
248
56
0
248
56
0
255
224
168
255
224
168
255
224
168
255
224
168
255
224
168
255
224
168
255
224
168
255
224
168
255
224
168
255
224
168
255
224
168
255
224
168
255
224
168
255
224
168
248
56
0
248
56
0
248
56
0
255
224
168
248
56
0
255
160
68
255
160
68
255
160
68
255
160
68
255
160
68
255
160
68
255
160
68
255
160
68
255
160
68
255
224
168
255
224
168
248
56
0
255
224
168
248
56
0
248
56
0
255
160
68
255
160
68
255
160
68
248
56
0
248
56
0
248
56
0
255
224
168
248
56
0
248
56
0
248
56
0
255
224
168
255
224
168
255
224
168
255
224
168
255
224
168
255
224
168
255
224
168
255
224
168
255
224
168
255
224
168
255
224
168
255
224
168
255
224
168
255
224
168
248
56
0
248
56
0
255
224
168
248
56
0
248
56
0
255
224
168
248
56
0
248
56
0
248
56
0
248
56
0
248
56
0
248
56
0
248
56
0
248
56
0
255
224
168
255
224
168
255
224
168
255
224
168
255
224
168
255
224
168
255
224
168
255
224
168
255
224
168
255
224
168
255
224
168
255
224
168
255
224
168
255
224
168
255
160
68
248
56
0
255
160
68
255
160
68
248
56
0
248
56
0
248
56
0
248
56
0
248
56
0
248
56
0
248
56
0
255
224
168
255
224
168
255
224
168
255
224
168
255
224
168
255
224
168
255
224
168
255
224
168
255
224
168
255
224
168
255
224
168
255
224
168
255
224
168
248
56
0
255
224
168
248
56
0
248
56
0
248
56
0
248
56
0
248
56
0
255
224
168
248
56
0
255
224
168
255
224
168
255
224
168
255
224
168
255
224
168
255
224
168
255
224
168
255
224
168
255
224
168
255
224
168
255
224
168
255
224
168
255
224
168
255
224
168
255
160
68
255
160
68
255
224
168
255
224
168
248
56
0
248
56
0
248
56
0
248
56
0
248
56
0
255
224
168
248
56
0
248
56
0
255
224
168
255
224
168
255
224
168
255
224
168
255
224
168
255
224
168
255
224
168
255
224
168
255
224
168
255
224
168
255
224
168
255
224
168
255
224
168
255
224
168
255
224
168
248
56
0
255
224
168
255
224
168
255
224
168
248
56
0
248
56
0
248
56
0
248
56
0
255
224
168
248
56
0
255
224
168
255
224
168
255
224
168
255
224
168
255
224
168
255
224
168
255
224
168
255
224
168
255
224
168
255
224
168
255
224
168
255
160
68
255
160
68
255
160
68
255
224
168
248
56
0
248
56
0
255
224
168
255
224
168
248
56
0
248
56
0
248
56
0
248
56
0
248
56
0
248
56
0
248
56
0
255
224
168
255
224
168
255
224
168
255
224
168
255
224
168
255
224
168
255
224
168
255
224
168
255
224
168
255
224
168
255
224
168
255
224
168
255
224
168
255
224
168
248
56
0
248
56
0
248
56
0
248
56
0
255
224
168
248
56
0
248
56
0
248
56
0
248
56
0
255
224
168
248
56
0
248
56
0
248
56
0
248
56
0
255
224
168
255
224
168
255
224
168
255
224
168
255
224
168
255
224
168
255
224
168
255
224
168
255
224
168
255
224
168
255
224
168
255
224
168
255
224
168
255
224
168
255
224
168
248
56
0
248
56
0
248
56
0
248
56
0
255
224
168
248
56
0
248
56
0
248
56
0
248
56
0
255
224
168
248
56
0
248
56
0
248
56
0
248
56
0
255
224
168
255
224
168
255
224
168
255
224
168
255
224
168
255
224
168
255
224
168
255
224
168
255
224
168
255
224
168
255
224
168
255
224
168
255
224
168
255
224
168
248
56
0
248
56
0
248
56
0
248
56
0
248
56
0
248
56
0
248
56
0
255
224
168
255
224
168
248
56
0
248
56
0
255
224
168
255
160
68
255
160
68
255
160
68
255
224
168
255
224
168
255
224
168
255
224
168
255
224
168
255
224
168
255
224
168
255
224
168
255
224
168
255
224
168
255
224
168
248
56
0
255
224
168
248
56
0
248
56
0
248
56
0
248
56
0
255
224
168
255
224
168
255
224
168
248
56
0
255
224
168
255
224
168
255
224
168
255
224
168
255
224
168
255
224
168
255
224
168
255
224
168
255
224
168
255
224
168
255
224
168
255
224
168
255
224
168
255
224
168
255
224
168
248
56
0
248
56
0
255
224
168
248
56
0
248
56
0
248
56
0
248
56
0
248
56
0
255
224
168
255
224
168
255
160
68
255
160
68
255
224
168
255
224
168
255
224
168
255
224
168
255
224
168
255
224
168
255
224
168
255
224
168
255
224
168
255
224
168
255
224
168
255
224
168
255
224
168
255
224
168
248
56
0
255
224
168
248
56
0
248
56
0
248
56
0
248
56
0
248
56
0
255
224
168
248
56
0
255
224
168
255
224
168
255
224
168
255
224
168
255
224
168
255
224
168
255
224
168
255
224
168
255
224
168
255
224
168
255
224
168
255
224
168
255
224
168
248
56
0
248
56
0
248
56
0
248
56
0
248
56
0
248
56
0
248
56
0
255
160
68
255
160
68
248
56
0
255
160
68
255
224
168
255
224
168
255
224
168
255
224
168
255
224
168
255
224
168
255
224
168
255
224
168
255
224
168
255
224
168
255
224
168
255
224
168
255
224
168
255
224
168
248
56
0
248
56
0
248
56
0
248
56
0
248
56
0
248
56
0
248
56
0
248
56
0
255
224
168
248
56
0
248
56
0
255
224
168
248
56
0
248
56
0
255
224
168
255
224
168
255
224
168
255
224
168
255
224
168
255
224
168
255
224
168
255
224
168
255
224
168
255
224
168
255
224
168
255
224
168
255
224
168
255
224
168
248
56
0
248
56
0
248
56
0
255
224
168
248
56
0
248
56
0
248
56
0
255
160
68
255
160
68
255
160
68
248
56
0
248
56
0
255
224
168
248
56
0
255
224
168
255
224
168
248
56
0
255
224
168
248
56
0
248
56
0
248
56
0
248
56
0
248
56
0
248
56
0
248
56
0
248
56
0
255
224
168
248
56
0
248
56
0
248
56
0
248
56
0
255
224
168
255
224
168
255
224
168
255
224
168
255
224
168
255
224
168
255
224
168
255
224
168
255
224
168
255
224
168
255
224
168
255
224
168
255
224
168
255
224
168
248
56
0
255
224
168
248
56
0
255
224
168
255
224
168
248
56
0
248
56
0
248
56
0
248
56
0
248
56
0
248
56
0
248
56
0
248
56
0
255
224
168
255
224
168
255
224
168
255
224
168
255
224
168
255
224
168
255
224
168
255
224
168
255
224
168
255
224
168
255
224
168
255
224
168
255
224
168
255
224
168
255
224
168
255
160
68
255
160
68
248
56
0
248
56
0
248
56
0
248
56
0
248
56
0
248
56
0
248
56
0
248
56
0
255
224
168
255
224
168
255
224
168
255
224
168
255
224
168
255
224
168
255
224
168
255
224
168
255
224
168
255
224
168
255
224
168
255
224
168
255
224
168
248
56
0
255
224
168
255
224
168
248
56
0
248
56
0
248
56
0
248
56
0
255
224
168
248
56
0
255
224
168
255
224
168
255
224
168
255
224
168
255
224
168
255
224
168
255
224
168
255
224
168
255
224
168
255
224
168
255
224
168
255
224
168
255
160
68
255
160
68
255
160
68
255
160
68
248
56
0
248
56
0
248
56
0
248
56
0
248
56
0
248
56
0
248
56
0
255
224
168
255
224
168
248
56
0
255
224
168
255
224
168
255
224
168
255
224
168
255
224
168
255
224
168
255
224
168
255
224
168
255
224
168
255
224
168
255
224
168
255
224
168
255
224
168
255
224
168
255
224
168
248
56
0
255
160
68
255
160
68
248
56
0
248
56
0
248
56
0
248
56
0
248
56
0
255
224
168
248
56
0
255
224
168
255
224
168
255
224
168
255
224
168
255
224
168
255
224
168
255
224
168
255
224
168
255
224
168
255
224
168
255
224
168
248
56
0
255
160
68
248
56
0
255
224
168
248
56
0
248
56
0
255
224
168
255
224
168
248
56
0
248
56
0
248
56
0
248
56
0
248
56
0
248
56
0
248
56
0
255
224
168
255
224
168
255
224
168
255
224
168
255
224
168
255
224
168
255
224
168
255
224
168
255
224
168
255
224
168
255
224
168
255
224
168
255
224
168
255
224
168
248
56
0
248
56
0
248
56
0
255
224
168
255
224
168
248
56
0
248
56
0
248
56
0
248
56
0
255
224
168
255
224
168
248
56
0
248
56
0
248
56
0
255
224
168
255
224
168
255
224
168
255
224
168
255
224
168
255
224
168
255
224
168
255
224
168
255
224
168
255
224
168
255
224
168
255
224
168
255
224
168
255
224
168
255
224
168
248
56
0
248
56
0
248
56
0
255
224
168
255
224
168
248
56
0
248
56
0
248
56
0
248
56
0
255
224
168
255
224
168
248
56
0
248
56
0
248
56
0
255
224
168
255
224
168
255
224
168
255
224
168
255
224
168
255
224
168
255
224
168
255
224
168
255
224
168
255
224
168
255
224
168
255
224
168
255
224
168
255
224
168
248
56
0
248
56
0
248
56
0
248
56
0
248
56
0
248
56
0
248
56
0
255
224
168
255
224
168
248
56
0
248
56
0
255
224
168
248
56
0
255
160
68
248
56
0
255
224
168
255
224
168
255
224
168
255
224
168
255
224
168
255
224
168
255
224
168
255
224
168
255
224
168
255
224
168
255
224
168
248
56
0
255
224
168
248
56
0
248
56
0
248
56
0
248
56
0
248
56
0
255
160
68
255
160
68
248
56
0
255
224
168
255
224
168
255
224
168
255
224
168
255
224
168
255
224
168
255
224
168
255
224
168
255
224
168
255
224
168
255
224
168
255
224
168
255
224
168
255
224
168
255
224
168
248
56
0
255
224
168
255
224
168
248
56
0
248
56
0
248
56
0
248
56
0
248
56
0
248
56
0
248
56
0
255
160
68
255
160
68
255
160
68
255
160
68
255
224
168
255
224
168
255
224
168
255
224
168
255
224
168
255
224
168
255
224
168
255
224
168
255
224
168
255
224
168
255
224
168
255
224
168
248
56
0
255
224
168
248
56
0
248
56
0
248
56
0
248
56
0
255
224
168
255
224
168
248
56
0
255
224
168
255
224
168
255
224
168
255
224
168
255
224
168
255
224
168
255
224
168
255
224
168
255
224
168
255
224
168
255
224
168
255
224
168
255
224
168
248
56
0
248
56
0
248
56
0
248
56
0
248
56
0
248
56
0
248
56
0
248
56
0
255
160
68
255
160
68
255
224
168
255
224
168
255
224
168
255
224
168
255
224
168
255
224
168
255
224
168
255
224
168
255
224
168
255
224
168
255
224
168
255
224
168
255
224
168
255
224
168
255
224
168
248
56
0
248
56
0
248
56
0
248
56
0
248
56
0
248
56
0
248
56
0
248
56
0
255
224
168
255
224
168
248
56
0
255
224
168
248
56
0
255
224
168
255
224
168
255
224
168
255
224
168
255
224
168
255
224
168
255
224
168
255
224
168
255
224
168
255
224
168
255
224
168
255
224
168
255
224
168
255
224
168
248
56
0
248
56
0
248
56
0
248
56
0
255
224
168
248
56
0
248
56
0
248
56
0
248
56
0
248
56
0
248
56
0
248
56
0
248
56
0
255
224
168
248
56
0
255
224
168
248
56
0
248
56
0
255
224
168
255
224
168
248
56
0
248
56
0
248
56
0
248
56
0
248
56
0
248
56
0
248
56
0
255
224
168
248
56
0
248
56
0
248
56
0
248
56
0
255
224
168
255
224
168
255
224
168
255
224
168
255
224
168
255
224
168
255
224
168
255
224
168
255
224
168
255
224
168
255
224
168
255
224
168
255
224
168
255
224
168
255
224
168
248
56
0
248
56
0
255
224
168
255
224
168
248
56
0
248
56
0
248
56
0
248
56
0
255
160
68
255
160
68
248
56
0
248
56
0
255
224
168
255
224
168
255
224
168
255
224
168
255
224
168
255
224
168
255
224
168
255
224
168
255
224
168
255
224
168
255
224
168
255
224
168
255
224
168
255
224
168
255
224
168
255
224
168
255
224
168
255
224
168
248
56
0
248
56
0
248
56
0
248
56
0
248
56
0
248
56
0
248
56
0
255
224
168
255
224
168
255
224
168
255
224
168
255
224
168
255
224
168
255
224
168
255
224
168
255
224
168
255
224
168
255
224
168
255
224
168
248
56
0
248
56
0
255
224
168
255
224
168
255
224
168
248
56
0
248
56
0
255
224
168
255
224
168
255
224
168
255
224
168
255
224
168
255
224
168
255
224
168
255
224
168
255
224
168
255
224
168
255
224
168
255
224
168
255
224
168
255
224
168
255
224
168
255
160
68
255
160
68
255
160
68
255
160
68
248
56
0
248
56
0
248
56
0
248
56
0
248
56
0
248
56
0
255
224
168
255
224
168
255
224
168
248
56
0
255
224
168
255
224
168
255
224
168
255
224
168
255
224
168
255
224
168
255
224
168
255
224
168
255
224
168
255
224
168
255
224
168
255
224
168
255
224
168
255
224
168
255
224
168
255
160
68
255
160
68
255
160
68
255
160
68
248
56
0
248
56
0
248
56
0
248
56
0
255
224
168
248
56
0
255
224
168
255
224
168
255
224
168
255
224
168
255
224
168
255
224
168
255
224
168
255
224
168
255
224
168
255
224
168
255
224
168
255
224
168
248
56
0
248
56
0
255
224
168
248
56
0
248
56
0
255
224
168
255
224
168
255
224
168
248
56
0
248
56
0
248
56
0
248
56
0
248
56
0
248
56
0
255
224
168
255
224
168
255
224
168
255
224
168
255
224
168
255
224
168
255
224
168
255
224
168
255
224
168
255
224
168
255
224
168
255
224
168
255
224
168
248
56
0
248
56
0
248
56
0
248
56
0
255
224
168
255
224
168
248
56
0
248
56
0
248
56
0
248
56
0
255
224
168
255
224
168
248
56
0
248
56
0
248
56
0
248
56
0
255
224
168
255
224
168
255
224
168
255
224
168
255
224
168
255
224
168
255
224
168
255
224
168
255
224
168
255
224
168
255
224
168
255
224
168
255
224
168
248
56
0
248
56
0
248
56
0
248
56
0
255
224
168
255
224
168
248
56
0
248
56
0
248
56
0
248
56
0
255
224
168
255
224
168
248
56
0
248
56
0
248
56
0
248
56
0
255
224
168
255
224
168
255
224
168
255
224
168
255
224
168
255
224
168
255
224
168
255
224
168
255
224
168
255
224
168
255
224
168
255
224
168
255
224
168
248
56
0
248
56
0
248
56
0
248
56
0
248
56
0
248
56
0
255
224
168
255
224
168
255
224
168
248
56
0
248
56
0
255
224
168
248
56
0
248
56
0
255
224
168
255
224
168
255
224
168
255
224
168
255
224
168
255
224
168
255
224
168
255
224
168
255
224
168
255
224
168
255
224
168
255
224
168
248
56
0
255
224
168
248
56
0
248
56
0
248
56
0
248
56
0
255
160
68
255
160
68
255
160
68
255
160
68
255
224
168
255
224
168
255
224
168
255
224
168
255
224
168
255
224
168
255
224
168
255
224
168
255
224
168
255
224
168
255
224
168
255
224
168
255
224
168
255
224
168
255
224
168
248
56
0
255
224
168
255
224
168
255
224
168
248
56
0
248
56
0
248
56
0
248
56
0
248
56
0
248
56
0
255
160
68
255
160
68
255
160
68
255
160
68
255
224
168
255
224
168
255
224
168
255
224
168
255
224
168
255
224
168
255
224
168
255
224
168
255
224
168
255
224
168
255
224
168
255
224
168
255
224
168
255
224
168
255
224
168
248
56
0
248
56
0
255
224
168
255
224
168
255
224
168
248
56
0
248
56
0
255
224
168
255
224
168
255
224
168
255
224
168
255
224
168
255
224
168
255
224
168
255
224
168
255
224
168
255
224
168
255
224
168
255
224
168
248
56
0
248
56
0
248
56
0
248
56
0
248
56
0
248
56
0
248
56
0
255
224
168
255
224
168
255
224
168
255
224
168
255
224
168
255
224
168
255
224
168
255
224
168
255
224
168
255
224
168
255
224
168
255
224
168
255
224
168
255
224
168
255
224
168
255
224
168
255
224
168
255
224
168
248
56
0
248
56
0
255
160
68
255
160
68
248
56
0
248
56
0
248
56
0
248
56
0
255
224
168
255
224
168
248
56
0
248
56
0
255
224
168
255
224
168
255
224
168
255
224
168
255
224
168
255
224
168
255
224
168
255
224
168
255
224
168
255
224
168
255
224
168
255
224
168
255
224
168
255
224
168
255
224
168
248
56
0
248
56
0
248
56
0
248
56
0
255
224
168
248
56
0
248
56
0
248
56
0
248
56
0
248
56
0
248
56
0
248
56
0
255
224
168
255
224
168
248
56
0
248
56
0
248
56
0
248
56
0
248
56
0
255
224
168
255
224
168
248
56
0
248
56
0
248
56
0
248
56
0
248
56
0
255
160
68
255
224
168
248
56
0
248
56
0
248
56
0
248
56
0
255
224
168
255
224
168
255
224
168
255
224
168
255
224
168
255
224
168
255
224
168
255
224
168
255
224
168
255
224
168
255
224
168
255
224
168
255
224
168
255
224
168
255
160
68
248
56
0
255
224
168
255
224
168
255
224
168
255
224
168
248
56
0
248
56
0
255
160
68
255
160
68
255
160
68
255
160
68
248
56
0
255
224
168
255
224
168
255
224
168
255
224
168
255
224
168
255
224
168
255
224
168
255
224
168
255
224
168
255
224
168
255
224
168
255
224
168
255
224
168
255
224
168
255
224
168
255
224
168
255
224
168
255
224
168
255
224
168
248
56
0
248
56
0
248
56
0
248
56
0
248
56
0
248
56
0
255
224
168
255
224
168
255
224
168
255
224
168
255
224
168
255
224
168
255
224
168
255
224
168
255
224
168
255
224
168
255
224
168
255
224
168
248
56
0
255
224
168
255
224
168
255
224
168
255
224
168
255
224
168
255
224
168
255
224
168
255
224
168
255
224
168
255
224
168
255
224
168
255
224
168
255
224
168
255
224
168
255
224
168
255
224
168
255
224
168
255
224
168
255
224
168
255
224
168
255
224
168
255
160
68
255
160
68
255
160
68
248
56
0
248
56
0
248
56
0
248
56
0
248
56
0
248
56
0
248
56
0
255
224
168
255
224
168
255
224
168
255
224
168
255
224
168
255
224
168
255
224
168
255
224
168
255
224
168
255
224
168
255
224
168
255
224
168
255
224
168
255
224
168
255
224
168
255
224
168
255
224
168
255
224
168
255
224
168
255
160
68
255
160
68
255
160
68
255
160
68
248
56
0
248
56
0
248
56
0
248
56
0
255
224
168
255
224
168
255
224
168
255
224
168
255
224
168
255
224
168
255
224
168
255
224
168
255
224
168
255
224
168
255
224
168
255
224
168
255
224
168
255
224
168
255
224
168
248
56
0
255
160
68
248
56
0
255
224
168
255
160
68
255
224
168
255
224
168
255
224
168
248
56
0
248
56
0
248
56
0
248
56
0
248
56
0
248
56
0
255
224
168
255
224
168
255
224
168
255
224
168
255
224
168
255
224
168
255
224
168
255
224
168
255
224
168
255
224
168
255
224
168
255
224
168
248
56
0
248
56
0
248
56
0
248
56
0
255
224
168
255
224
168
255
224
168
255
224
168
255
224
168
255
224
168
255
224
168
255
224
168
248
56
0
248
56
0
248
56
0
248
56
0
255
224
168
255
224
168
255
224
168
255
224
168
255
224
168
255
224
168
255
224
168
255
224
168
255
224
168
255
224
168
255
224
168
255
224
168
255
224
168
248
56
0
248
56
0
248
56
0
248
56
0
255
224
168
255
224
168
255
224
168
255
224
168
255
224
168
255
224
168
255
224
168
255
224
168
248
56
0
248
56
0
248
56
0
248
56
0
255
224
168
255
224
168
255
224
168
255
224
168
255
224
168
255
224
168
255
224
168
255
224
168
255
224
168
255
224
168
255
224
168
255
224
168
248
56
0
248
56
0
248
56
0
248
56
0
248
56
0
248
56
0
255
224
168
255
224
168
255
224
168
255
160
68
255
224
168
248
56
0
255
160
68
248
56
0
255
224
168
255
224
168
255
224
168
255
224
168
255
224
168
255
224
168
255
224
168
255
224
168
255
224
168
255
224
168
255
224
168
255
224
168
255
224
168
255
224
168
255
224
168
248
56
0
248
56
0
248
56
0
248
56
0
255
160
68
255
160
68
255
160
68
255
160
68
255
224
168
255
224
168
255
224
168
255
224
168
255
224
168
255
224
168
255
224
168
255
224
168
255
224
168
255
224
168
255
224
168
255
224
168
255
224
168
255
224
168
255
224
168
255
224
168
255
224
168
255
224
168
255
224
168
248
56
0
248
56
0
248
56
0
248
56
0
248
56
0
248
56
0
248
56
0
255
160
68
255
160
68
255
160
68
255
224
168
255
224
168
255
224
168
255
224
168
255
224
168
255
224
168
255
224
168
255
224
168
255
224
168
255
224
168
255
224
168
255
224
168
255
224
168
255
224
168
255
224
168
255
224
168
255
224
168
255
224
168
255
224
168
255
224
168
255
224
168
248
56
0
255
224
168
255
224
168
255
224
168
255
224
168
255
224
168
255
224
168
255
224
168
255
224
168
255
224
168
255
224
168
255
224
168
255
224
168
248
56
0
248
56
0
248
56
0
248
56
0
248
56
0
248
56
0
255
224
168
255
224
168
255
224
168
255
224
168
255
224
168
255
224
168
255
224
168
255
224
168
255
224
168
255
224
168
255
224
168
255
224
168
255
224
168
255
224
168
255
224
168
255
224
168
255
224
168
255
224
168
255
224
168
248
56
0
255
160
68
255
160
68
255
160
68
255
160
68
248
56
0
248
56
0
255
224
168
255
224
168
255
224
168
255
224
168
248
56
0
255
160
68
255
224
168
255
224
168
255
224
168
255
224
168
255
224
168
255
224
168
255
224
168
255
224
168
255
224
168
255
224
168
255
224
168
255
224
168
255
224
168
255
224
168
248
56
0
248
56
0
248
56
0
248
56
0
255
224
168
255
160
68
248
56
0
248
56
0
248
56
0
248
56
0
248
56
0
255
224
168
255
224
168
248
56
0
248
56
0
248
56
0
248
56
0
248
56
0
248
56
0
248
56
0
255
224
168
255
224
168
255
224
168
255
224
168
255
224
168
255
224
168
255
224
168
255
224
168
248
56
0
248
56
0
248
56
0
248
56
0
255
224
168
255
224
168
255
224
168
255
224
168
255
224
168
255
224
168
255
224
168
255
224
168
255
224
168
255
224
168
255
224
168
255
224
168
255
224
168
255
224
168
255
224
168
255
224
168
255
224
168
255
160
68
255
224
168
255
224
168
255
224
168
248
56
0
255
160
68
255
160
68
255
160
68
255
160
68
255
160
68
255
224
168
255
224
168
255
224
168
255
224
168
255
224
168
255
224
168
255
224
168
255
224
168
255
224
168
255
224
168
255
224
168
255
224
168
255
224
168
248
56
0
248
56
0
248
56
0
255
224
168
255
224
168
255
224
168
255
224
168
255
224
168
248
56
0
248
56
0
248
56
0
255
224
168
255
224
168
255
224
168
255
224
168
255
224
168
255
224
168
255
224
168
255
224
168
255
224
168
255
224
168
255
224
168
255
224
168
255
224
168
255
224
168
255
224
168
255
224
168
255
160
68
255
224
168
255
224
168
255
224
168
255
224
168
255
224
168
255
224
168
255
224
168
255
224
168
255
224
168
255
224
168
255
224
168
255
224
168
255
224
168
255
224
168
255
224
168
255
224
168
255
224
168
255
224
168
255
160
68
255
160
68
255
160
68
248
56
0
248
56
0
248
56
0
248
56
0
248
56
0
248
56
0
255
224
168
255
224
168
255
224
168
255
224
168
255
224
168
255
224
168
255
224
168
255
224
168
255
224
168
255
224
168
255
224
168
255
224
168
255
224
168
255
224
168
255
224
168
255
224
168
255
224
168
255
224
168
255
224
168
255
224
168
255
160
68
255
160
68
255
160
68
255
160
68
248
56
0
248
56
0
248
56
0
255
224
168
255
224
168
255
224
168
255
224
168
255
224
168
255
224
168
255
224
168
255
224
168
255
224
168
255
224
168
255
224
168
255
224
168
255
224
168
255
224
168
255
224
168
255
224
168
255
224
168
255
224
168
255
224
168
255
224
168
255
224
168
255
224
168
255
224
168
255
224
168
255
224
168
255
224
168
248
56
0
248
56
0
248
56
0
248
56
0
255
224
168
255
224
168
255
224
168
255
224
168
255
224
168
255
224
168
255
224
168
255
224
168
255
224
168
255
224
168
255
224
168
255
224
168
248
56
0
248
56
0
248
56
0
248
56
0
255
224
168
255
160
68
255
224
168
255
224
168
255
224
168
255
224
168
255
160
68
255
224
168
248
56
0
248
56
0
248
56
0
248
56
0
255
224
168
255
224
168
255
224
168
255
224
168
255
224
168
255
224
168
255
224
168
255
224
168
255
224
168
255
224
168
255
224
168
255
224
168
255
224
168
248
56
0
248
56
0
248
56
0
248
56
0
255
224
168
255
160
68
255
224
168
255
224
168
255
224
168
255
224
168
255
160
68
255
224
168
248
56
0
248
56
0
248
56
0
248
56
0
255
224
168
255
224
168
255
224
168
255
224
168
255
224
168
255
224
168
255
224
168
255
224
168
255
224
168
255
224
168
255
224
168
255
224
168
248
56
0
248
56
0
248
56
0
248
56
0
255
224
168
255
224
168
255
224
168
255
224
168
255
224
168
255
224
168
255
224
168
255
224
168
255
224
168
255
224
168
255
224
168
255
224
168
255
224
168
255
224
168
255
224
168
255
224
168
255
224
168
255
224
168
255
224
168
255
224
168
255
224
168
255
224
168
255
224
168
255
224
168
255
224
168
255
224
168
248
56
0
248
56
0
248
56
0
255
160
68
255
160
68
255
160
68
255
160
68
255
224
168
255
224
168
255
224
168
255
224
168
255
224
168
255
224
168
255
224
168
255
224
168
255
224
168
255
224
168
255
224
168
255
224
168
255
224
168
255
224
168
255
224
168
255
224
168
255
224
168
255
224
168
255
224
168
255
224
168
248
56
0
248
56
0
248
56
0
248
56
0
248
56
0
248
56
0
255
160
68
255
160
68
255
160
68
255
224
168
255
224
168
255
224
168
255
224
168
255
224
168
255
224
168
255
224
168
255
224
168
255
224
168
255
224
168
255
224
168
255
224
168
255
224
168
255
224
168
255
224
168
255
224
168
255
224
168
255
224
168
255
160
68
255
224
168
255
224
168
255
224
168
255
224
168
255
224
168
255
224
168
255
224
168
255
224
168
255
224
168
255
224
168
255
224
168
255
224
168
255
224
168
255
224
168
255
224
168
255
224
168
248
56
0
248
56
0
248
56
0
255
224
168
255
224
168
255
224
168
255
224
168
255
224
168
248
56
0
248
56
0
248
56
0
255
224
168
255
224
168
255
224
168
255
224
168
255
224
168
255
224
168
255
224
168
255
224
168
255
224
168
255
224
168
255
224
168
255
224
168
255
224
168
255
160
68
255
160
68
255
160
68
255
160
68
255
160
68
248
56
0
255
224
168
255
224
168
255
224
168
255
160
68
255
224
168
255
224
168
255
224
168
255
224
168
255
224
168
255
224
168
255
224
168
255
224
168
255
224
168
255
224
168
255
224
168
255
224
168
255
224
168
255
224
168
255
224
168
255
224
168
255
224
168
248
56
0
248
56
0
248
56
0
248
56
0
255
224
168
255
224
168
255
224
168
255
224
168
255
224
168
255
224
168
255
224
168
255
224
168
248
56
0
248
56
0
248
56
0
248
56
0
248
56
0
248
56
0
248
56
0
248
56
0
248
56
0
255
224
168
255
224
168
255
224
168
255
224
168
255
224
168
255
224
168
248
56
0
248
56
0
248
56
0
248
56
0
248
56
0
255
224
168
255
224
168
255
224
168
255
224
168
255
224
168
255
224
168
255
224
168
255
224
168
255
224
168
255
224
168
255
224
168
255
224
168
255
224
168
255
224
168
255
224
168
255
224
168
255
224
168
255
224
168
255
224
168
255
224
168
255
224
168
255
224
168
255
160
68
255
160
68
255
160
68
255
160
68
255
160
68
255
224
168
255
224
168
255
224
168
255
224
168
255
224
168
255
224
168
255
224
168
255
224
168
255
224
168
255
224
168
255
224
168
255
224
168
255
224
168
255
224
168
248
56
0
248
56
0
248
56
0
248
56
0
248
56
0
255
224
168
255
224
168
255
224
168
255
224
168
255
224
168
255
224
168
255
224
168
255
224
168
255
224
168
255
224
168
255
224
168
255
224
168
255
224
168
255
224
168
255
224
168
255
224
168
255
224
168
255
224
168
255
224
168
255
224
168
255
224
168
255
224
168
255
224
168
255
224
168
255
224
168
255
224
168
255
224
168
255
224
168
255
224
168
255
224
168
255
224
168
255
224
168
255
224
168
255
224
168
255
224
168
255
224
168
255
224
168
255
224
168
255
224
168
255
224
168
255
224
168
255
224
168
255
224
168
255
224
168
248
56
0
248
56
0
248
56
0
255
224
168
255
224
168
255
224
168
255
224
168
255
224
168
255
224
168
255
224
168
255
224
168
255
224
168
255
224
168
255
224
168
255
224
168
255
224
168
255
224
168
255
224
168
255
224
168
255
224
168
255
224
168
255
224
168
255
224
168
255
224
168
255
224
168
255
224
168
255
160
68
255
160
68
255
160
68
248
56
0
248
56
0
255
224
168
255
224
168
255
224
168
255
224
168
255
224
168
255
224
168
255
224
168
255
224
168
255
224
168
255
224
168
255
224
168
255
224
168
255
224
168
255
224
168
255
224
168
255
224
168
255
224
168
255
224
168
255
224
168
255
224
168
255
224
168
255
224
168
255
224
168
255
224
168
255
224
168
255
224
168
255
160
68
255
160
68
255
160
68
255
160
68
255
160
68
255
224
168
255
224
168
255
224
168
255
224
168
255
224
168
255
224
168
255
224
168
255
224
168
255
224
168
255
224
168
255
224
168
255
224
168
255
160
68
255
160
68
255
160
68
255
160
68
255
224
168
255
224
168
255
224
168
255
224
168
255
224
168
255
224
168
255
224
168
255
224
168
255
160
68
255
160
68
255
160
68
255
160
68
255
224
168
255
224
168
255
224
168
255
224
168
255
224
168
255
224
168
255
224
168
255
224
168
255
224
168
255
224
168
255
224
168
255
224
168
255
224
168
255
160
68
255
160
68
255
160
68
255
160
68
255
224
168
255
224
168
255
224
168
255
224
168
255
224
168
255
224
168
255
224
168
255
224
168
255
160
68
255
160
68
255
160
68
255
160
68
255
224
168
255
224
168
255
224
168
255
224
168
255
224
168
255
224
168
255
224
168
255
224
168
255
224
168
255
224
168
255
224
168
255
224
168
255
160
68
255
160
68
255
160
68
255
160
68
255
160
68
255
224
168
255
224
168
255
224
168
255
224
168
255
224
168
255
224
168
255
224
168
255
224
168
255
224
168
255
224
168
255
224
168
255
224
168
255
224
168
255
224
168
255
224
168
255
224
168
255
224
168
255
224
168
255
224
168
255
224
168
255
224
168
255
224
168
255
224
168
255
224
168
255
224
168
255
224
168
248
56
0
248
56
0
255
160
68
255
160
68
255
160
68
255
224
168
255
224
168
255
224
168
255
224
168
255
224
168
255
224
168
255
224
168
255
224
168
255
224
168
255
224
168
255
224
168
255
224
168
255
224
168
255
224
168
255
224
168
255
224
168
255
224
168
255
224
168
255
224
168
255
224
168
255
224
168
255
224
168
255
224
168
248
56
0
248
56
0
248
56
0
255
224
168
255
224
168
255
224
168
255
224
168
255
224
168
255
224
168
255
224
168
255
224
168
255
224
168
255
224
168
255
224
168
255
224
168
255
224
168
255
224
168
255
224
168
255
224
168
255
224
168
255
224
168
255
224
168
255
224
168
255
224
168
255
224
168
255
224
168
255
224
168
255
224
168
255
224
168
255
224
168
255
224
168
255
224
168
255
224
168
255
224
168
255
224
168
255
224
168
255
224
168
255
224
168
255
224
168
255
224
168
255
224
168
255
224
168
255
224
168
255
224
168
255
224
168
255
224
168
255
224
168
248
56
0
248
56
0
248
56
0
248
56
0
248
56
0
255
224
168
255
224
168
255
224
168
255
224
168
255
224
168
255
224
168
255
224
168
255
224
168
255
224
168
255
224
168
255
224
168
255
224
168
255
224
168
255
224
168
255
160
68
255
160
68
255
160
68
255
160
68
255
160
68
255
224
168
255
224
168
255
224
168
255
224
168
255
224
168
255
224
168
255
224
168
255
224
168
255
224
168
255
224
168
255
224
168
255
224
168
255
224
168
255
224
168
255
224
168
255
224
168
255
224
168
255
224
168
255
224
168
255
224
168
255
224
168
255
224
168
248
56
0
248
56
0
248
56
0
248
56
0
248
56
0
255
224
168
255
224
168
255
224
168
255
224
168
255
224
168
255
224
168
248
56
0
248
56
0
248
56
0
248
56
0
248
56
0
248
56
0
248
56
0
248
56
0
255
160
68
255
160
68
255
160
68
255
224
168
255
224
168
255
224
168
255
224
168
255
160
68
255
160
68
255
160
68
248
56
0
248
56
0
248
56
0
255
224
168
255
224
168
255
224
168
255
224
168
255
224
168
255
224
168
255
224
168
255
224
168
255
224
168
255
224
168
255
224
168
248
56
0
255
224
168
255
224
168
255
224
168
255
224
168
255
224
168
255
224
168
255
224
168
255
224
168
255
224
168
255
224
168
255
224
168
255
160
68
255
160
68
255
224
168
255
160
68
255
224
168
255
224
168
255
224
168
255
224
168
255
224
168
255
224
168
255
224
168
255
224
168
255
224
168
255
224
168
255
224
168
248
56
0
248
56
0
248
56
0
248
56
0
248
56
0
248
56
0
248
56
0
248
56
0
255
224
168
255
224
168
255
224
168
255
224
168
255
224
168
255
224
168
255
224
168
255
224
168
255
224
168
255
224
168
255
224
168
255
224
168
255
224
168
255
224
168
255
224
168
255
224
168
255
224
168
255
224
168
255
224
168
255
224
168
255
224
168
255
224
168
255
224
168
255
224
168
255
224
168
255
224
168
255
224
168
255
224
168
255
224
168
255
224
168
255
224
168
255
224
168
255
224
168
255
224
168
255
224
168
255
224
168
255
224
168
255
224
168
255
224
168
255
224
168
255
224
168
255
224
168
255
224
168
255
224
168
255
224
168
255
224
168
255
224
168
255
224
168
255
224
168
255
224
168
255
224
168
255
224
168
255
224
168
255
224
168
255
224
168
255
224
168
255
224
168
255
224
168
255
224
168
255
224
168
255
224
168
255
224
168
255
224
168
255
224
168
255
224
168
255
224
168
255
224
168
255
224
168
255
224
168
255
224
168
255
224
168
248
56
0
248
56
0
255
224
168
255
224
168
255
224
168
255
224
168
255
224
168
255
224
168
255
224
168
255
224
168
255
224
168
255
224
168
255
224
168
255
224
168
255
224
168
255
224
168
255
224
168
255
224
168
255
224
168
248
56
0
255
224
168
255
224
168
255
224
168
255
224
168
255
224
168
255
224
168
255
224
168
255
224
168
255
224
168
255
224
168
255
160
68
255
160
68
255
160
68
255
160
68
255
160
68
255
224
168
255
224
168
255
224
168
255
224
168
255
224
168
255
224
168
255
224
168
255
224
168
255
224
168
255
224
168
255
224
168
255
224
168
255
160
68
255
160
68
255
160
68
255
160
68
255
224
168
255
224
168
255
224
168
255
224
168
255
224
168
255
224
168
255
224
168
255
224
168
255
160
68
255
160
68
255
160
68
255
160
68
255
224
168
255
224
168
255
224
168
255
224
168
255
224
168
255
224
168
255
224
168
255
224
168
255
224
168
255
224
168
255
224
168
255
224
168
255
224
168
255
160
68
255
160
68
255
160
68
255
160
68
255
224
168
255
224
168
255
224
168
255
224
168
255
224
168
255
224
168
255
224
168
255
224
168
255
160
68
255
160
68
255
160
68
255
160
68
255
224
168
255
224
168
255
224
168
255
224
168
255
224
168
255
224
168
255
224
168
255
224
168
255
224
168
255
224
168
255
224
168
255
224
168
255
160
68
255
160
68
255
160
68
255
160
68
255
160
68
255
224
168
255
224
168
255
224
168
255
224
168
255
224
168
255
224
168
255
224
168
255
224
168
255
224
168
255
224
168
248
56
0
255
224
168
255
224
168
255
224
168
255
224
168
255
224
168
255
224
168
255
224
168
255
224
168
255
224
168
255
224
168
255
224
168
255
224
168
255
224
168
255
224
168
255
224
168
255
224
168
255
224
168
248
56
0
248
56
0
255
224
168
255
224
168
255
224
168
255
224
168
255
224
168
255
224
168
255
224
168
255
224
168
255
224
168
255
224
168
255
224
168
255
224
168
255
224
168
255
224
168
255
224
168
255
224
168
255
224
168
255
224
168
255
224
168
255
224
168
255
224
168
255
224
168
255
224
168
255
224
168
255
224
168
255
224
168
255
224
168
255
224
168
255
224
168
255
224
168
255
224
168
255
224
168
255
224
168
255
224
168
255
224
168
255
224
168
255
224
168
255
224
168
255
224
168
255
224
168
255
224
168
255
224
168
255
224
168
255
224
168
255
224
168
255
224
168
255
224
168
255
224
168
255
224
168
255
224
168
255
224
168
255
224
168
255
224
168
255
224
168
255
224
168
255
224
168
255
224
168
255
224
168
255
224
168
255
224
168
255
224
168
255
224
168
255
224
168
255
224
168
255
224
168
255
224
168
255
224
168
255
224
168
255
224
168
255
224
168
255
224
168
248
56
0
248
56
0
248
56
0
248
56
0
248
56
0
248
56
0
248
56
0
248
56
0
255
224
168
255
224
168
255
224
168
255
224
168
255
224
168
255
224
168
255
224
168
255
224
168
255
224
168
255
224
168
255
224
168
255
160
68
255
224
168
255
160
68
255
160
68
255
224
168
255
224
168
255
224
168
255
224
168
255
224
168
255
224
168
255
224
168
255
224
168
255
224
168
255
224
168
255
224
168
248
56
0
255
224
168
255
224
168
255
224
168
255
224
168
255
224
168
255
224
168
255
224
168
255
224
168
255
224
168
255
224
168
255
224
168
248
56
0
248
56
0
248
56
0
255
160
68
255
160
68
255
160
68
255
224
168
255
224
168
255
224
168
255
224
168
255
160
68
255
160
68
255
160
68
248
56
0
248
56
0
248
56
0
255
224
168
248
56
0
255
160
68
255
160
68
255
160
68
255
160
68
255
224
168
255
224
168
255
224
168
255
224
168
255
160
68
255
160
68
255
160
68
255
160
68
248
56
0
255
224
168
255
224
168
255
224
168
255
224
168
255
224
168
255
224
168
255
224
168
255
224
168
255
224
168
255
224
168
255
224
168
255
224
168
248
56
0
248
56
0
255
224
168
255
224
168
255
224
168
255
224
168
255
224
168
255
224
168
255
224
168
255
224
168
255
224
168
255
224
168
255
224
168
255
160
68
255
160
68
255
224
168
255
224
168
255
224
168
255
224
168
255
224
168
255
224
168
255
224
168
255
224
168
255
224
168
255
224
168
255
224
168
255
224
168
248
56
0
255
160
68
255
160
68
255
160
68
255
160
68
248
56
0
248
56
0
248
56
0
248
56
0
255
224
168
255
224
168
255
224
168
255
224
168
255
224
168
255
224
168
255
224
168
255
224
168
255
224
168
255
224
168
255
224
168
255
224
168
255
224
168
255
224
168
255
224
168
255
224
168
255
224
168
255
224
168
255
224
168
255
224
168
255
224
168
255
224
168
255
224
168
255
224
168
255
224
168
255
224
168
255
224
168
255
224
168
255
224
168
255
224
168
255
224
168
255
224
168
255
224
168
255
224
168
255
224
168
255
224
168
255
224
168
255
224
168
255
224
168
255
224
168
255
224
168
255
224
168
248
56
0
255
224
168
255
224
168
255
224
168
255
224
168
255
224
168
255
224
168
255
224
168
255
224
168
255
224
168
255
224
168
255
224
168
255
224
168
255
224
168
255
224
168
255
224
168
255
224
168
255
224
168
255
224
168
255
224
168
255
224
168
255
224
168
255
224
168
255
224
168
255
224
168
255
224
168
255
224
168
248
56
0
248
56
0
248
56
0
255
224
168
255
224
168
255
224
168
255
224
168
255
224
168
255
224
168
255
224
168
255
224
168
255
224
168
255
224
168
255
224
168
255
224
168
255
224
168
255
224
168
255
224
168
255
224
168
255
224
168
248
56
0
248
56
0
255
224
168
255
224
168
255
224
168
255
224
168
255
224
168
255
224
168
255
224
168
255
224
168
255
224
168
255
224
168
255
160
68
255
160
68
255
160
68
255
160
68
255
224
168
255
224
168
255
224
168
255
224
168
255
224
168
255
224
168
255
224
168
255
224
168
255
224
168
255
224
168
255
224
168
255
224
168
255
224
168
255
160
68
255
160
68
255
160
68
255
224
168
255
224
168
255
224
168
255
224
168
255
224
168
255
224
168
255
224
168
255
224
168
255
160
68
255
160
68
255
160
68
255
224
168
255
224
168
255
224
168
255
224
168
255
224
168
255
224
168
255
224
168
255
224
168
255
224
168
255
224
168
255
224
168
255
224
168
255
224
168
255
224
168
255
224
168
255
160
68
255
160
68
255
160
68
255
224
168
255
224
168
255
224
168
255
224
168
255
224
168
255
224
168
255
224
168
255
224
168
255
160
68
255
160
68
255
160
68
255
224
168
255
224
168
255
224
168
255
224
168
255
224
168
255
224
168
255
224
168
255
224
168
255
224
168
255
224
168
255
224
168
255
224
168
255
224
168
255
160
68
255
160
68
255
160
68
255
160
68
255
224
168
255
224
168
255
224
168
255
224
168
255
224
168
255
224
168
255
224
168
255
224
168
255
224
168
255
224
168
248
56
0
248
56
0
255
224
168
255
224
168
255
224
168
255
224
168
255
224
168
255
224
168
255
224
168
255
224
168
255
224
168
255
224
168
255
224
168
255
224
168
255
224
168
255
224
168
255
224
168
255
224
168
255
224
168
248
56
0
248
56
0
248
56
0
255
224
168
255
224
168
255
224
168
255
224
168
255
224
168
255
224
168
255
224
168
255
224
168
255
224
168
255
224
168
255
224
168
255
224
168
255
224
168
255
224
168
255
224
168
255
224
168
255
224
168
255
224
168
255
224
168
255
224
168
255
224
168
255
224
168
255
224
168
255
224
168
255
224
168
255
224
168
248
56
0
255
224
168
255
224
168
255
224
168
255
224
168
255
224
168
255
224
168
255
224
168
255
224
168
255
224
168
255
224
168
255
224
168
255
224
168
255
224
168
255
224
168
255
224
168
255
224
168
255
224
168
255
224
168
255
224
168
255
224
168
255
224
168
255
224
168
255
224
168
255
224
168
255
224
168
255
224
168
255
224
168
255
224
168
255
224
168
255
224
168
255
224
168
255
224
168
255
224
168
255
224
168
255
224
168
255
224
168
255
224
168
255
224
168
255
224
168
255
224
168
255
224
168
255
224
168
248
56
0
248
56
0
248
56
0
248
56
0
255
160
68
255
160
68
255
160
68
255
160
68
248
56
0
255
224
168
255
224
168
255
224
168
255
224
168
255
224
168
255
224
168
255
224
168
255
224
168
255
224
168
255
224
168
255
224
168
255
224
168
255
160
68
255
160
68
255
224
168
255
224
168
255
224
168
255
224
168
255
224
168
255
224
168
255
224
168
255
224
168
255
224
168
255
224
168
255
224
168
248
56
0
248
56
0
255
224
168
255
224
168
255
224
168
255
224
168
255
224
168
255
224
168
255
224
168
255
224
168
255
224
168
255
224
168
255
224
168
255
224
168
248
56
0
255
160
68
255
160
68
255
160
68
255
160
68
255
224
168
255
224
168
255
224
168
255
224
168
255
160
68
255
160
68
255
160
68
255
160
68
248
56
0
255
224
168
255
224
168
255
160
68
255
160
68
255
160
68
255
160
68
255
224
168
255
224
168
255
224
168
255
224
168
255
224
168
255
224
168
255
160
68
255
160
68
255
160
68
255
160
68
255
224
168
255
224
168
255
224
168
255
224
168
255
224
168
255
224
168
255
224
168
255
224
168
255
224
168
255
224
168
255
224
168
255
224
168
248
56
0
248
56
0
248
56
0
248
56
0
255
224
168
255
224
168
255
224
168
255
224
168
255
224
168
255
224
168
255
224
168
255
224
168
255
224
168
255
224
168
255
224
168
255
224
168
255
224
168
255
224
168
255
224
168
255
224
168
255
224
168
255
224
168
255
224
168
255
224
168
255
224
168
255
224
168
255
224
168
248
56
0
255
160
68
255
160
68
255
160
68
255
160
68
255
160
68
255
160
68
248
56
0
248
56
0
255
224
168
255
224
168
255
224
168
255
224
168
255
224
168
255
224
168
255
224
168
255
224
168
255
224
168
255
224
168
255
224
168
255
224
168
255
224
168
255
224
168
255
224
168
255
224
168
255
224
168
255
224
168
248
56
0
255
224
168
255
224
168
255
224
168
255
224
168
255
224
168
255
224
168
255
224
168
248
56
0
248
56
0
248
56
0
248
56
0
255
224
168
255
224
168
255
224
168
255
224
168
255
224
168
255
224
168
255
224
168
255
224
168
255
224
168
255
224
168
255
224
168
255
224
168
255
224
168
248
56
0
255
224
168
255
224
168
255
224
168
255
224
168
255
224
168
255
224
168
255
224
168
248
56
0
248
56
0
248
56
0
248
56
0
255
224
168
255
224
168
255
224
168
255
224
168
255
224
168
255
224
168
255
224
168
255
224
168
255
224
168
255
224
168
255
224
168
255
224
168
248
56
0
248
56
0
248
56
0
248
56
0
248
56
0
248
56
0
255
224
168
255
224
168
255
224
168
255
224
168
255
224
168
255
224
168
255
224
168
255
224
168
255
224
168
255
224
168
255
224
168
255
224
168
255
224
168
255
224
168
255
224
168
255
224
168
248
56
0
248
56
0
248
56
0
248
56
0
248
56
0
255
224
168
255
224
168
255
224
168
255
224
168
255
224
168
255
224
168
255
224
168
255
160
68
255
160
68
255
160
68
255
224
168
255
224
168
255
224
168
255
224
168
255
224
168
255
224
168
255
224
168
255
224
168
255
224
168
255
224
168
255
224
168
255
224
168
255
224
168
255
224
168
255
160
68
255
160
68
255
224
168
255
224
168
255
224
168
255
224
168
255
224
168
255
224
168
255
224
168
255
224
168
255
224
168
255
224
168
255
160
68
255
160
68
255
224
168
255
224
168
255
224
168
255
224
168
255
224
168
255
224
168
255
224
168
255
224
168
255
224
168
255
224
168
255
224
168
255
224
168
255
224
168
255
224
168
255
224
168
255
160
68
255
160
68
255
224
168
255
224
168
255
224
168
255
224
168
255
224
168
255
224
168
255
224
168
255
224
168
255
224
168
255
224
168
255
160
68
255
160
68
255
224
168
255
224
168
255
224
168
255
224
168
255
224
168
255
224
168
255
224
168
255
224
168
255
224
168
255
224
168
255
224
168
255
224
168
255
224
168
255
224
168
255
160
68
255
160
68
255
160
68
255
224
168
255
224
168
255
224
168
255
224
168
255
224
168
255
224
168
255
224
168
248
56
0
248
56
0
248
56
0
248
56
0
248
56
0
255
224
168
255
224
168
255
224
168
255
224
168
255
224
168
255
224
168
255
224
168
255
224
168
255
224
168
255
224
168
255
224
168
255
224
168
255
224
168
255
224
168
255
224
168
255
224
168
248
56
0
248
56
0
248
56
0
248
56
0
248
56
0
248
56
0
255
224
168
255
224
168
255
224
168
255
224
168
255
224
168
255
224
168
255
224
168
255
224
168
255
224
168
255
224
168
255
224
168
255
224
168
248
56
0
248
56
0
248
56
0
248
56
0
255
224
168
255
224
168
255
224
168
255
224
168
255
224
168
255
224
168
255
224
168
248
56
0
255
224
168
255
224
168
255
224
168
255
224
168
255
224
168
255
224
168
255
224
168
255
224
168
255
224
168
255
224
168
255
224
168
255
224
168
255
224
168
248
56
0
248
56
0
248
56
0
248
56
0
255
224
168
255
224
168
255
224
168
255
224
168
255
224
168
255
224
168
255
224
168
248
56
0
255
224
168
255
224
168
255
224
168
255
224
168
255
224
168
255
224
168
255
224
168
255
224
168
255
224
168
255
224
168
255
224
168
255
224
168
255
224
168
255
224
168
255
224
168
255
224
168
255
224
168
255
224
168
248
56
0
248
56
0
255
160
68
255
160
68
255
160
68
255
160
68
255
160
68
255
160
68
248
56
0
255
224
168
255
224
168
255
224
168
255
224
168
255
224
168
255
224
168
255
224
168
255
224
168
255
224
168
255
224
168
255
224
168
255
224
168
255
224
168
255
224
168
255
224
168
255
224
168
255
224
168
255
224
168
255
224
168
255
224
168
255
224
168
255
224
168
255
224
168
248
56
0
248
56
0
248
56
0
248
56
0
255
224
168
255
224
168
255
224
168
255
224
168
255
224
168
255
224
168
255
224
168
255
224
168
255
224
168
255
224
168
255
224
168
255
224
168
255
160
68
255
160
68
255
160
68
255
160
68
255
224
168
255
224
168
255
224
168
255
224
168
255
224
168
255
224
168
255
160
68
255
160
68
255
160
68
255
160
68
255
224
168
255
224
168
255
224
168
255
160
68
255
160
68
248
56
0
255
224
168
255
224
168
255
224
168
255
224
168
255
224
168
255
224
168
248
56
0
255
160
68
255
160
68
255
224
168
255
224
168
255
224
168
255
224
168
255
224
168
255
224
168
255
224
168
255
224
168
255
224
168
255
224
168
255
224
168
255
224
168
255
224
168
248
56
0
248
56
0
248
56
0
248
56
0
255
224
168
255
224
168
255
224
168
255
224
168
255
224
168
255
224
168
255
224
168
255
224
168
248
56
0
255
224
168
255
224
168
255
224
168
255
224
168
255
224
168
255
224
168
255
224
168
255
224
168
255
224
168
255
224
168
255
224
168
255
224
168
255
224
168
255
224
168
255
224
168
255
224
168
255
224
168
255
224
168
255
224
168
255
224
168
255
160
68
255
160
68
248
56
0
255
224
168
255
224
168
255
224
168
255
224
168
255
224
168
255
224
168
255
224
168
255
224
168
255
224
168
255
224
168
255
224
168
255
224
168
255
224
168
255
224
168
255
224
168
255
224
168
255
224
168
255
224
168
255
224
168
248
56
0
248
56
0
255
224
168
255
224
168
255
224
168
255
224
168
255
224
168
248
56
0
248
56
0
248
56
0
248
56
0
255
224
168
255
224
168
255
224
168
255
224
168
255
224
168
255
224
168
255
224
168
255
224
168
255
224
168
255
224
168
255
224
168
255
224
168
255
224
168
255
224
168
248
56
0
248
56
0
255
224
168
255
224
168
255
224
168
255
224
168
255
224
168
248
56
0
248
56
0
248
56
0
248
56
0
255
224
168
255
224
168
255
224
168
255
224
168
255
224
168
255
224
168
255
224
168
255
224
168
255
224
168
255
224
168
255
224
168
255
224
168
255
224
168
248
56
0
248
56
0
248
56
0
248
56
0
248
56
0
248
56
0
255
224
168
255
224
168
255
224
168
255
224
168
255
224
168
255
224
168
255
224
168
255
224
168
255
224
168
255
224
168
255
224
168
255
224
168
255
224
168
255
224
168
255
224
168
248
56
0
248
56
0
248
56
0
248
56
0
248
56
0
255
224
168
255
224
168
255
224
168
255
224
168
255
224
168
255
224
168
248
56
0
255
224
168
255
224
168
255
224
168
255
224
168
255
224
168
255
224
168
255
224
168
255
224
168
255
224
168
255
224
168
255
224
168
255
224
168
255
224
168
255
224
168
255
224
168
255
224
168
255
224
168
255
224
168
255
224
168
255
224
168
255
224
168
255
224
168
255
224
168
255
224
168
255
224
168
255
224
168
255
224
168
255
224
168
255
224
168
255
224
168
255
224
168
255
224
168
255
224
168
255
224
168
255
224
168
255
224
168
255
224
168
255
224
168
255
224
168
255
224
168
255
224
168
255
224
168
255
224
168
255
224
168
255
224
168
255
224
168
255
224
168
255
224
168
255
224
168
255
224
168
255
224
168
255
224
168
255
224
168
255
224
168
255
224
168
255
224
168
255
224
168
255
224
168
255
224
168
255
224
168
255
224
168
255
224
168
255
224
168
255
224
168
255
224
168
255
224
168
255
224
168
255
224
168
255
224
168
255
224
168
255
224
168
255
224
168
255
224
168
255
224
168
255
224
168
255
224
168
255
224
168
248
56
0
255
224
168
255
224
168
255
224
168
255
224
168
255
224
168
255
224
168
248
56
0
248
56
0
248
56
0
248
56
0
248
56
0
255
224
168
255
224
168
255
224
168
255
224
168
255
224
168
255
224
168
255
224
168
255
224
168
255
224
168
255
224
168
255
224
168
255
224
168
255
224
168
255
224
168
255
224
168
248
56
0
248
56
0
248
56
0
248
56
0
248
56
0
248
56
0
255
224
168
255
224
168
255
224
168
255
224
168
255
224
168
255
224
168
255
224
168
255
224
168
255
224
168
255
224
168
255
224
168
255
224
168
255
224
168
248
56
0
248
56
0
248
56
0
248
56
0
255
224
168
255
224
168
255
224
168
255
224
168
255
224
168
248
56
0
248
56
0
255
224
168
255
224
168
255
224
168
255
224
168
255
224
168
255
224
168
255
224
168
255
224
168
255
224
168
255
224
168
255
224
168
255
224
168
255
224
168
255
224
168
248
56
0
248
56
0
248
56
0
248
56
0
255
224
168
255
224
168
255
224
168
255
224
168
255
224
168
248
56
0
248
56
0
255
224
168
255
224
168
255
224
168
255
224
168
255
224
168
255
224
168
255
224
168
255
224
168
255
224
168
255
224
168
255
224
168
255
224
168
255
224
168
255
224
168
255
224
168
255
224
168
255
224
168
255
224
168
255
224
168
248
56
0
255
160
68
255
160
68
255
224
168
255
224
168
255
224
168
255
224
168
255
224
168
255
224
168
255
224
168
255
224
168
255
224
168
255
224
168
255
224
168
255
224
168
255
224
168
255
224
168
255
224
168
255
224
168
255
224
168
255
224
168
255
224
168
255
224
168
248
56
0
255
224
168
255
224
168
255
224
168
255
224
168
255
224
168
255
224
168
255
224
168
255
224
168
248
56
0
248
56
0
248
56
0
248
56
0
255
224
168
255
224
168
255
224
168
255
224
168
255
224
168
255
224
168
255
224
168
255
224
168
255
224
168
255
224
168
255
224
168
255
224
168
255
224
168
255
160
68
255
160
68
248
56
0
255
224
168
255
224
168
255
224
168
255
224
168
255
224
168
255
224
168
248
56
0
255
160
68
255
160
68
255
224
168
255
224
168
255
224
168
255
224
168
248
56
0
248
56
0
248
56
0
248
56
0
255
224
168
255
224
168
255
224
168
255
224
168
248
56
0
248
56
0
248
56
0
248
56
0
255
224
168
255
224
168
255
224
168
255
224
168
255
224
168
255
224
168
255
224
168
255
224
168
255
224
168
255
224
168
255
224
168
255
224
168
255
224
168
248
56
0
248
56
0
248
56
0
248
56
0
255
224
168
255
224
168
255
224
168
255
224
168
255
224
168
255
224
168
248
56
0
248
56
0
255
224
168
248
56
0
248
56
0
248
56
0
255
224
168
255
224
168
255
224
168
255
224
168
255
224
168
255
224
168
255
224
168
255
224
168
255
224
168
248
56
0
255
224
168
255
224
168
255
224
168
255
224
168
255
224
168
255
224
168
255
224
168
255
224
168
255
224
168
255
224
168
255
224
168
255
224
168
255
224
168
255
224
168
255
224
168
255
224
168
255
224
168
255
224
168
255
224
168
255
224
168
255
224
168
255
224
168
255
224
168
255
224
168
255
224
168
255
224
168
255
224
168
255
224
168
255
224
168
255
224
168
255
224
168
248
56
0
255
224
168
255
224
168
255
224
168
255
224
168
248
56
0
248
56
0
248
56
0
248
56
0
255
224
168
255
224
168
255
224
168
255
224
168
255
224
168
255
224
168
255
224
168
255
224
168
255
224
168
255
224
168
255
224
168
255
224
168
255
224
168
255
224
168
255
224
168
255
224
168
248
56
0
255
224
168
255
224
168
255
224
168
255
224
168
248
56
0
248
56
0
248
56
0
248
56
0
255
224
168
255
224
168
255
224
168
255
224
168
255
224
168
255
224
168
255
224
168
255
224
168
255
224
168
255
224
168
255
224
168
255
224
168
255
224
168
255
224
168
248
56
0
248
56
0
248
56
0
248
56
0
255
224
168
255
224
168
255
224
168
255
224
168
255
224
168
255
224
168
255
224
168
255
224
168
255
224
168
255
224
168
255
224
168
255
224
168
255
224
168
255
224
168
255
224
168
255
224
168
248
56
0
248
56
0
248
56
0
248
56
0
248
56
0
255
224
168
255
224
168
255
224
168
255
224
168
255
224
168
248
56
0
255
224
168
255
224
168
248
56
0
255
224
168
255
224
168
255
224
168
255
224
168
255
224
168
255
224
168
255
224
168
255
224
168
255
224
168
255
224
168
255
224
168
255
224
168
255
224
168
255
224
168
255
224
168
255
224
168
255
224
168
255
224
168
255
224
168
255
224
168
255
224
168
255
224
168
255
224
168
255
224
168
255
224
168
255
224
168
255
224
168
255
224
168
255
224
168
255
224
168
255
224
168
255
224
168
255
224
168
255
224
168
255
224
168
255
224
168
255
224
168
255
224
168
255
224
168
255
224
168
255
224
168
255
224
168
255
224
168
255
224
168
255
224
168
255
224
168
255
224
168
255
224
168
255
224
168
255
224
168
255
224
168
255
224
168
255
224
168
255
224
168
255
224
168
255
224
168
255
224
168
255
224
168
255
224
168
255
224
168
255
224
168
255
224
168
255
224
168
255
224
168
255
224
168
255
224
168
255
224
168
255
224
168
255
224
168
255
224
168
255
224
168
255
224
168
255
224
168
248
56
0
255
224
168
255
224
168
248
56
0
255
224
168
255
224
168
255
224
168
255
224
168
255
224
168
248
56
0
248
56
0
248
56
0
248
56
0
248
56
0
255
224
168
255
224
168
255
224
168
255
224
168
255
224
168
255
224
168
255
224
168
255
224
168
255
224
168
255
224
168
255
224
168
255
224
168
255
224
168
255
224
168
255
224
168
255
224
168
248
56
0
248
56
0
248
56
0
248
56
0
255
224
168
255
224
168
255
224
168
255
224
168
255
224
168
255
224
168
255
224
168
255
224
168
255
224
168
255
224
168
255
224
168
255
224
168
255
224
168
255
224
168
248
56
0
248
56
0
248
56
0
248
56
0
255
224
168
255
224
168
255
224
168
255
224
168
248
56
0
255
224
168
255
224
168
255
224
168
255
224
168
255
224
168
255
224
168
255
224
168
255
224
168
255
224
168
255
224
168
255
224
168
255
224
168
255
224
168
255
224
168
255
224
168
255
224
168
248
56
0
248
56
0
248
56
0
248
56
0
255
224
168
255
224
168
255
224
168
255
224
168
248
56
0
255
224
168
255
224
168
255
224
168
255
224
168
255
224
168
255
224
168
255
224
168
255
224
168
255
224
168
255
224
168
255
224
168
255
224
168
255
224
168
255
224
168
255
224
168
255
224
168
255
224
168
255
224
168
255
224
168
255
224
168
255
224
168
255
224
168
255
224
168
255
224
168
255
224
168
255
224
168
255
224
168
255
224
168
255
224
168
255
224
168
255
224
168
248
56
0
255
224
168
255
224
168
255
224
168
255
224
168
255
224
168
255
224
168
255
224
168
255
224
168
255
224
168
248
56
0
248
56
0
248
56
0
255
224
168
248
56
0
248
56
0
255
224
168
255
224
168
255
224
168
255
224
168
255
224
168
255
224
168
248
56
0
248
56
0
248
56
0
248
56
0
255
224
168
255
224
168
255
224
168
255
224
168
255
224
168
255
224
168
255
224
168
255
224
168
255
224
168
255
224
168
255
224
168
255
224
168
255
224
168
248
56
0
248
56
0
248
56
0
248
56
0
255
224
168
255
224
168
255
224
168
255
224
168
248
56
0
248
56
0
248
56
0
248
56
0
255
224
168
255
224
168
248
56
0
248
56
0
248
56
0
248
56
0
248
56
0
248
56
0
255
224
168
255
224
168
255
224
168
255
224
168
248
56
0
248
56
0
248
56
0
248
56
0
248
56
0
248
56
0
255
224
168
255
224
168
255
224
168
255
224
168
255
224
168
255
224
168
255
224
168
255
224
168
255
224
168
255
224
168
255
224
168
248
56
0
248
56
0
248
56
0
248
56
0
255
224
168
255
224
168
255
224
168
255
224
168
248
56
0
248
56
0
255
224
168
255
224
168
255
224
168
248
56
0
248
56
0
248
56
0
255
224
168
255
224
168
255
224
168
255
224
168
255
224
168
255
224
168
255
224
168
255
224
168
255
224
168
248
56
0
248
56
0
255
224
168
255
224
168
248
56
0
255
224
168
255
224
168
255
224
168
255
224
168
255
224
168
255
224
168
255
224
168
255
224
168
255
224
168
255
224
168
255
224
168
255
224
168
255
224
168
255
224
168
255
224
168
255
224
168
255
224
168
255
224
168
255
224
168
255
224
168
255
224
168
255
224
168
255
224
168
255
224
168
255
224
168
255
224
168
255
224
168
255
224
168
255
224
168
255
224
168
255
224
168
255
224
168
248
56
0
248
56
0
248
56
0
248
56
0
255
224
168
255
224
168
255
224
168
255
224
168
255
224
168
255
224
168
255
224
168
255
224
168
255
224
168
255
224
168
255
224
168
255
224
168
255
224
168
255
224
168
255
224
168
255
224
168
255
224
168
255
224
168
255
224
168
255
224
168
255
224
168
248
56
0
248
56
0
248
56
0
248
56
0
255
224
168
255
224
168
255
224
168
255
224
168
255
224
168
255
224
168
255
224
168
255
224
168
255
224
168
255
224
168
255
224
168
255
224
168
255
224
168
248
56
0
248
56
0
248
56
0
255
224
168
255
224
168
255
224
168
248
56
0
255
224
168
255
224
168
255
224
168
255
224
168
255
224
168
255
224
168
255
224
168
255
224
168
255
224
168
255
224
168
255
224
168
255
224
168
255
224
168
255
224
168
248
56
0
248
56
0
248
56
0
248
56
0
248
56
0
255
224
168
255
224
168
255
224
168
248
56
0
248
56
0
255
224
168
255
224
168
255
224
168
248
56
0
248
56
0
248
56
0
255
224
168
255
224
168
255
224
168
255
224
168
255
224
168
255
224
168
255
224
168
255
224
168
255
224
168
255
224
168
255
224
168
255
224
168
255
224
168
255
224
168
255
224
168
255
224
168
255
224
168
255
224
168
255
224
168
255
224
168
255
224
168
255
224
168
255
224
168
255
224
168
255
224
168
255
224
168
255
224
168
255
224
168
255
224
168
255
224
168
255
224
168
255
224
168
255
224
168
255
224
168
255
224
168
255
224
168
255
224
168
255
224
168
255
224
168
255
224
168
255
224
168
255
224
168
255
224
168
255
224
168
255
224
168
255
224
168
255
224
168
255
224
168
255
224
168
255
224
168
255
224
168
255
224
168
255
224
168
255
224
168
255
224
168
255
224
168
255
224
168
255
224
168
255
224
168
255
224
168
255
224
168
255
224
168
255
224
168
255
224
168
255
224
168
255
224
168
255
224
168
255
224
168
255
224
168
248
56
0
248
56
0
248
56
0
255
224
168
255
224
168
255
224
168
248
56
0
248
56
0
255
224
168
255
224
168
255
224
168
248
56
0
248
56
0
248
56
0
248
56
0
248
56
0
255
224
168
255
224
168
255
224
168
255
224
168
255
224
168
255
224
168
255
224
168
255
224
168
255
224
168
255
224
168
255
224
168
255
224
168
255
224
168
255
224
168
248
56
0
255
224
168
255
224
168
255
224
168
248
56
0
248
56
0
248
56
0
255
224
168
255
224
168
255
224
168
255
224
168
255
224
168
255
224
168
255
224
168
255
224
168
255
224
168
255
224
168
255
224
168
255
224
168
255
224
168
248
56
0
248
56
0
248
56
0
248
56
0
255
224
168
255
224
168
255
224
168
255
224
168
255
224
168
255
224
168
255
224
168
255
224
168
255
224
168
255
224
168
255
224
168
255
224
168
255
224
168
255
224
168
255
224
168
255
224
168
255
224
168
255
224
168
255
224
168
255
224
168
255
224
168
248
56
0
248
56
0
248
56
0
248
56
0
255
224
168
255
224
168
255
224
168
255
224
168
255
224
168
255
224
168
255
224
168
255
224
168
255
224
168
255
224
168
255
224
168
255
224
168
255
224
168
255
224
168
255
224
168
255
224
168
255
224
168
255
224
168
255
224
168
255
224
168
255
224
168
255
224
168
255
224
168
255
224
168
255
224
168
255
224
168
255
224
168
255
224
168
255
224
168
255
224
168
255
224
168
255
224
168
248
56
0
255
224
168
255
224
168
248
56
0
248
56
0
255
224
168
255
224
168
255
224
168
255
224
168
255
224
168
255
224
168
255
224
168
255
224
168
255
224
168
248
56
0
248
56
0
248
56
0
255
224
168
255
224
168
255
224
168
248
56
0
248
56
0
255
224
168
255
224
168
255
224
168
255
224
168
248
56
0
248
56
0
248
56
0
248
56
0
255
224
168
255
224
168
255
224
168
255
224
168
255
224
168
255
224
168
255
224
168
255
224
168
255
224
168
255
224
168
255
224
168
248
56
0
248
56
0
248
56
0
248
56
0
248
56
0
248
56
0
255
224
168
255
224
168
255
224
168
255
224
168
248
56
0
248
56
0
248
56
0
248
56
0
248
56
0
248
56
0
255
224
168
255
224
168
255
224
168
255
224
168
255
224
168
255
224
168
255
224
168
255
224
168
255
224
168
255
224
168
255
224
168
255
224
168
255
224
168
255
224
168
255
224
168
255
224
168
255
224
168
255
224
168
255
224
168
255
224
168
255
224
168
255
224
168
255
224
168
255
224
168
255
224
168
255
224
168
255
224
168
248
56
0
248
56
0
248
56
0
248
56
0
255
224
168
255
224
168
255
224
168
255
224
168
255
224
168
255
224
168
255
224
168
255
224
168
255
224
168
248
56
0
248
56
0
248
56
0
255
224
168
255
224
168
255
224
168
255
224
168
255
224
168
255
224
168
255
224
168
255
224
168
255
224
168
248
56
0
248
56
0
248
56
0
248
56
0
248
56
0
248
56
0
248
56
0
255
224
168
255
224
168
255
224
168
255
224
168
255
224
168
255
224
168
255
224
168
255
224
168
255
224
168
255
224
168
255
224
168
255
224
168
255
224
168
255
224
168
255
224
168
255
224
168
255
224
168
255
224
168
255
224
168
255
224
168
255
224
168
248
56
0
248
56
0
248
56
0
248
56
0
255
224
168
255
224
168
255
224
168
255
224
168
255
224
168
248
56
0
248
56
0
248
56
0
248
56
0
255
224
168
255
224
168
255
224
168
255
224
168
255
224
168
255
224
168
255
224
168
255
224
168
255
224
168
255
224
168
255
224
168
255
224
168
248
56
0
248
56
0
248
56
0
248
56
0
255
224
168
255
224
168
255
224
168
255
224
168
255
224
168
248
56
0
248
56
0
248
56
0
248
56
0
255
224
168
255
224
168
255
224
168
255
224
168
255
224
168
255
224
168
255
224
168
255
224
168
255
224
168
255
224
168
255
224
168
255
224
168
255
224
168
248
56
0
248
56
0
255
224
168
248
56
0
248
56
0
248
56
0
248
56
0
255
224
168
255
224
168
255
224
168
255
224
168
255
224
168
255
224
168
255
224
168
255
224
168
255
224
168
255
224
168
255
224
168
255
224
168
255
224
168
255
224
168
248
56
0
248
56
0
248
56
0
248
56
0
248
56
0
255
224
168
255
224
168
255
224
168
255
224
168
255
224
168
255
224
168
255
224
168
248
56
0
248
56
0
248
56
0
248
56
0
255
224
168
255
224
168
255
224
168
255
224
168
255
224
168
255
224
168
255
224
168
255
224
168
255
224
168
255
224
168
255
224
168
255
224
168
255
224
168
255
224
168
255
224
168
255
224
168
255
224
168
255
224
168
255
224
168
255
224
168
255
224
168
255
224
168
255
224
168
255
224
168
255
224
168
255
224
168
255
224
168
255
224
168
255
224
168
255
224
168
255
224
168
255
224
168
255
224
168
255
224
168
255
224
168
255
224
168
255
224
168
255
224
168
255
224
168
255
224
168
255
224
168
255
224
168
255
224
168
255
224
168
255
224
168
255
224
168
255
224
168
255
224
168
255
224
168
255
224
168
255
224
168
255
224
168
255
224
168
255
224
168
255
224
168
255
224
168
255
224
168
255
224
168
255
224
168
255
224
168
255
224
168
255
224
168
255
224
168
255
224
168
255
224
168
255
224
168
255
224
168
255
224
168
255
224
168
248
56
0
248
56
0
248
56
0
248
56
0
255
224
168
255
224
168
255
224
168
255
224
168
255
224
168
255
224
168
255
224
168
248
56
0
248
56
0
248
56
0
248
56
0
248
56
0
255
224
168
255
224
168
255
224
168
255
224
168
255
224
168
255
224
168
255
224
168
255
224
168
255
224
168
255
224
168
255
224
168
255
224
168
255
224
168
255
224
168
248
56
0
248
56
0
248
56
0
248
56
0
255
224
168
248
56
0
248
56
0
255
224
168
255
224
168
255
224
168
255
224
168
255
224
168
255
224
168
255
224
168
255
224
168
255
224
168
255
224
168
255
224
168
255
224
168
255
224
168
248
56
0
248
56
0
248
56
0
248
56
0
255
224
168
255
224
168
255
224
168
255
224
168
255
224
168
248
56
0
248
56
0
248
56
0
248
56
0
255
224
168
255
224
168
255
224
168
255
224
168
255
224
168
255
224
168
255
224
168
255
224
168
255
224
168
255
224
168
255
224
168
255
224
168
248
56
0
248
56
0
248
56
0
248
56
0
255
224
168
255
224
168
255
224
168
255
224
168
255
224
168
248
56
0
248
56
0
248
56
0
248
56
0
255
224
168
255
224
168
255
224
168
255
224
168
255
224
168
255
224
168
255
224
168
255
224
168
255
224
168
255
224
168
255
224
168
255
224
168
255
224
168
255
224
168
255
224
168
255
224
168
255
224
168
255
224
168
255
224
168
255
224
168
255
224
168
248
56
0
248
56
0
248
56
0
248
56
0
248
56
0
248
56
0
248
56
0
255
224
168
255
224
168
255
224
168
255
224
168
255
224
168
255
224
168
255
224
168
255
224
168
255
224
168
248
56
0
248
56
0
248
56
0
255
224
168
255
224
168
255
224
168
255
224
168
255
224
168
255
224
168
255
224
168
255
224
168
255
224
168
248
56
0
248
56
0
248
56
0
248
56
0
255
224
168
255
224
168
255
224
168
255
224
168
255
224
168
255
224
168
255
224
168
255
224
168
255
224
168
255
224
168
255
224
168
255
224
168
255
224
168
255
224
168
255
224
168
255
224
168
255
224
168
255
224
168
255
224
168
255
224
168
255
224
168
255
224
168
255
224
168
255
224
168
255
224
168
255
224
168
255
224
168
255
224
168
255
224
168
255
224
168
255
224
168
255
224
168
255
224
168
255
224
168
255
224
168
255
224
168
255
224
168
255
224
168
255
224
168
255
224
168
255
224
168
255
224
168
255
224
168
255
224
168
255
224
168
255
224
168
255
224
168
255
224
168
255
224
168
255
224
168
255
224
168
255
224
168
255
224
168
255
224
168
255
224
168
255
224
168
255
224
168
255
224
168
255
224
168
255
224
168
255
224
168
255
224
168
255
224
168
255
224
168
255
224
168
255
224
168
255
224
168
248
56
0
248
56
0
248
56
0
255
224
168
255
224
168
255
224
168
255
224
168
255
224
168
255
224
168
255
224
168
255
224
168
255
224
168
255
224
168
248
56
0
248
56
0
248
56
0
248
56
0
248
56
0
248
56
0
248
56
0
255
224
168
255
224
168
255
224
168
255
224
168
255
224
168
255
224
168
255
224
168
255
224
168
255
224
168
255
224
168
255
224
168
255
224
168
255
224
168
255
224
168
255
224
168
255
224
168
255
224
168
255
224
168
255
224
168
255
224
168
248
56
0
248
56
0
248
56
0
248
56
0
255
224
168
255
224
168
255
224
168
255
224
168
255
224
168
255
224
168
255
224
168
248
56
0
248
56
0
255
224
168
255
224
168
255
224
168
255
224
168
255
224
168
255
224
168
255
224
168
255
224
168
255
224
168
255
224
168
255
224
168
255
224
168
248
56
0
248
56
0
248
56
0
248
56
0
255
224
168
255
224
168
255
224
168
255
224
168
255
224
168
255
224
168
255
224
168
248
56
0
248
56
0
255
224
168
255
224
168
255
224
168
255
224
168
255
224
168
255
224
168
255
224
168
255
224
168
255
224
168
255
224
168
255
224
168
255
224
168
255
224
168
255
224
168
255
224
168
255
224
168
248
56
0
248
56
0
248
56
0
248
56
0
248
56
0
255
224
168
255
224
168
255
224
168
255
224
168
255
224
168
255
224
168
255
224
168
255
224
168
255
224
168
255
224
168
255
224
168
255
224
168
255
224
168
255
224
168
255
224
168
255
224
168
255
224
168
255
224
168
255
224
168
255
224
168
255
224
168
255
224
168
255
224
168
255
224
168
248
56
0
248
56
0
248
56
0
248
56
0
248
56
0
255
224
168
255
224
168
255
224
168
255
224
168
255
224
168
255
224
168
255
224
168
255
224
168
255
224
168
255
224
168
255
224
168
255
224
168
255
224
168
255
224
168
248
56
0
248
56
0
248
56
0
248
56
0
255
224
168
255
224
168
255
224
168
255
224
168
248
56
0
248
56
0
248
56
0
248
56
0
255
224
168
255
224
168
255
224
168
255
224
168
255
224
168
255
224
168
255
224
168
255
224
168
255
224
168
255
224
168
255
224
168
255
224
168
255
224
168
255
224
168
255
224
168
255
224
168
255
224
168
248
56
0
248
56
0
248
56
0
248
56
0
255
224
168
255
224
168
255
224
168
255
224
168
248
56
0
248
56
0
248
56
0
248
56
0
255
224
168
255
224
168
255
224
168
255
224
168
255
224
168
255
224
168
255
224
168
255
224
168
255
224
168
255
224
168
255
224
168
255
224
168
255
224
168
255
224
168
248
56
0
248
56
0
248
56
0
248
56
0
248
56
0
255
224
168
255
224
168
255
224
168
255
224
168
255
224
168
255
224
168
255
224
168
255
224
168
255
224
168
255
224
168
255
224
168
255
224
168
255
224
168
255
224
168
255
224
168
255
224
168
255
224
168
255
224
168
255
224
168
255
224
168
255
224
168
255
224
168
255
224
168
255
224
168
248
56
0
248
56
0
248
56
0
248
56
0
248
56
0
255
224
168
255
224
168
255
224
168
255
224
168
255
224
168
255
224
168
255
224
168
255
224
168
255
224
168
255
224
168
255
224
168
255
224
168
255
224
168
255
224
168
255
224
168
255
224
168
248
56
0
248
56
0
255
224
168
255
224
168
255
224
168
255
224
168
255
224
168
255
224
168
255
224
168
248
56
0
248
56
0
248
56
0
248
56
0
255
224
168
255
224
168
255
224
168
255
224
168
255
224
168
255
224
168
255
224
168
255
224
168
255
224
168
255
224
168
255
224
168
255
224
168
248
56
0
248
56
0
255
224
168
255
224
168
255
224
168
255
224
168
255
224
168
255
224
168
255
224
168
248
56
0
248
56
0
248
56
0
248
56
0
255
224
168
255
224
168
255
224
168
255
224
168
255
224
168
255
224
168
255
224
168
255
224
168
255
224
168
255
224
168
255
224
168
255
224
168
255
224
168
255
224
168
255
224
168
255
224
168
255
224
168
255
224
168
255
224
168
255
224
168
248
56
0
248
56
0
248
56
0
248
56
0
248
56
0
248
56
0
248
56
0
255
224
168
255
224
168
255
224
168
255
224
168
255
224
168
255
224
168
255
224
168
255
224
168
255
224
168
255
224
168
248
56
0
248
56
0
248
56
0
255
224
168
255
224
168
255
224
168
255
224
168
255
224
168
255
224
168
255
224
168
255
224
168
255
224
168
255
224
168
255
224
168
255
224
168
255
224
168
255
224
168
255
224
168
255
224
168
255
224
168
255
224
168
255
224
168
255
224
168
255
224
168
255
224
168
255
224
168
255
224
168
255
224
168
255
224
168
255
224
168
255
224
168
255
224
168
255
224
168
255
224
168
255
224
168
255
224
168
255
224
168
255
224
168
255
224
168
255
224
168
255
224
168
255
224
168
255
224
168
255
224
168
255
224
168
255
224
168
255
224
168
255
224
168
255
224
168
255
224
168
255
224
168
255
224
168
255
224
168
255
224
168
255
224
168
255
224
168
255
224
168
255
224
168
255
224
168
255
224
168
255
224
168
255
224
168
255
224
168
255
224
168
255
224
168
255
224
168
255
224
168
255
224
168
255
224
168
255
224
168
255
224
168
255
224
168
255
224
168
255
224
168
255
224
168
255
224
168
255
224
168
255
224
168
255
224
168
255
224
168
255
224
168
255
224
168
255
224
168
248
56
0
248
56
0
248
56
0
255
224
168
255
224
168
255
224
168
255
224
168
255
224
168
255
224
168
255
224
168
255
224
168
255
224
168
255
224
168
255
224
168
248
56
0
248
56
0
248
56
0
248
56
0
248
56
0
248
56
0
255
224
168
255
224
168
255
224
168
255
224
168
255
224
168
255
224
168
255
224
168
255
224
168
255
224
168
255
224
168
255
224
168
255
224
168
255
224
168
255
224
168
255
224
168
255
224
168
255
224
168
255
224
168
248
56
0
248
56
0
248
56
0
248
56
0
248
56
0
248
56
0
255
224
168
255
224
168
255
224
168
255
224
168
255
224
168
255
224
168
255
224
168
255
224
168
248
56
0
255
224
168
255
224
168
255
224
168
255
224
168
255
224
168
255
224
168
255
224
168
255
224
168
255
224
168
255
224
168
248
56
0
248
56
0
248
56
0
248
56
0
248
56
0
248
56
0
255
224
168
255
224
168
255
224
168
255
224
168
255
224
168
255
224
168
255
224
168
255
224
168
248
56
0
255
224
168
255
224
168
255
224
168
255
224
168
255
224
168
255
224
168
255
224
168
255
224
168
255
224
168
255
224
168
255
224
168
255
224
168
255
224
168
255
224
168
248
56
0
248
56
0
248
56
0
248
56
0
248
56
0
248
56
0
248
56
0
255
224
168
255
224
168
255
224
168
255
224
168
255
224
168
255
224
168
255
224
168
255
224
168
255
224
168
255
224
168
255
224
168
255
224
168
255
224
168
255
224
168
255
224
168
255
224
168
255
224
168
255
224
168
255
224
168
255
224
168
255
224
168
255
224
168
255
224
168
255
224
168
255
224
168
248
56
0
248
56
0
248
56
0
255
224
168
255
224
168
255
224
168
255
224
168
255
224
168
255
224
168
255
224
168
255
224
168
255
224
168
255
224
168
255
224
168
255
224
168
255
224
168
255
224
168
255
224
168
248
56
0
248
56
0
248
56
0
248
56
0
255
224
168
255
224
168
255
224
168
255
224
168
248
56
0
248
56
0
248
56
0
248
56
0
255
224
168
255
224
168
255
224
168
255
224
168
255
224
168
255
224
168
255
224
168
255
224
168
255
224
168
255
224
168
255
224
168
255
224
168
255
224
168
255
224
168
255
224
168
255
224
168
255
224
168
248
56
0
248
56
0
248
56
0
248
56
0
255
224
168
255
224
168
255
224
168
255
224
168
248
56
0
248
56
0
248
56
0
248
56
0
255
224
168
255
224
168
255
224
168
255
224
168
255
224
168
255
224
168
255
224
168
255
224
168
255
224
168
255
224
168
255
224
168
255
224
168
255
224
168
255
224
168
255
224
168
248
56
0
248
56
0
248
56
0
255
224
168
255
224
168
255
224
168
255
224
168
255
224
168
255
224
168
255
224
168
255
224
168
255
224
168
255
224
168
255
224
168
255
224
168
255
224
168
255
224
168
255
224
168
255
224
168
255
224
168
255
224
168
255
224
168
255
224
168
255
224
168
255
224
168
255
224
168
255
224
168
255
224
168
248
56
0
248
56
0
248
56
0
248
56
0
248
56
0
248
56
0
248
56
0
255
224
168
255
224
168
255
224
168
255
224
168
255
224
168
255
224
168
255
224
168
255
224
168
255
224
168
255
224
168
255
224
168
255
224
168
255
224
168
255
224
168
248
56
0
255
224
168
255
224
168
255
224
168
255
224
168
255
224
168
255
224
168
255
224
168
255
224
168
248
56
0
248
56
0
248
56
0
248
56
0
248
56
0
248
56
0
255
224
168
255
224
168
255
224
168
255
224
168
255
224
168
255
224
168
255
224
168
255
224
168
255
224
168
255
224
168
248
56
0
255
224
168
255
224
168
255
224
168
255
224
168
255
224
168
255
224
168
255
224
168
255
224
168
248
56
0
248
56
0
248
56
0
248
56
0
248
56
0
248
56
0
255
224
168
255
224
168
255
224
168
255
224
168
255
224
168
255
224
168
255
224
168
255
224
168
255
224
168
255
224
168
255
224
168
255
224
168
255
224
168
255
224
168
255
224
168
255
224
168
255
224
168
255
224
168
248
56
0
248
56
0
248
56
0
248
56
0
248
56
0
248
56
0
255
224
168
255
224
168
255
224
168
255
224
168
255
224
168
255
224
168
255
224
168
255
224
168
255
224
168
255
224
168
255
224
168
248
56
0
248
56
0
248
56
0
255
224
168
255
224
168
255
224
168
255
224
168
255
224
168
255
224
168
255
224
168
255
224
168
255
224
168
255
224
168
255
224
168
255
224
168
255
224
168
255
224
168
255
224
168
255
224
168
255
224
168
255
224
168
255
224
168
255
224
168
255
224
168
255
224
168
255
224
168
255
224
168
255
224
168
255
224
168
255
224
168
255
224
168
255
224
168
255
224
168
255
224
168
255
224
168
255
224
168
255
224
168
255
224
168
255
224
168
255
224
168
255
224
168
255
224
168
255
224
168
255
224
168
255
224
168
255
224
168
255
224
168
255
224
168
255
224
168
255
224
168
255
224
168
255
224
168
255
224
168
255
224
168
255
224
168
255
224
168
255
224
168
255
224
168
255
224
168
255
224
168
255
224
168
255
224
168
255
224
168
255
224
168
255
224
168
255
224
168
255
224
168
255
224
168
255
224
168
255
224
168
255
224
168
255
224
168
255
224
168
255
224
168
255
224
168
255
224
168
255
224
168
255
224
168
255
224
168
255
224
168
255
224
168
255
224
168
255
224
168
255
224
168
248
56
0
248
56
0
255
224
168
255
224
168
255
224
168
255
224
168
255
224
168
255
224
168
255
224
168
255
224
168
255
224
168
255
224
168
255
224
168
255
224
168
248
56
0
248
56
0
248
56
0
248
56
0
255
224
168
255
224
168
255
224
168
255
224
168
255
224
168
255
224
168
255
224
168
255
224
168
255
224
168
255
224
168
255
224
168
255
224
168
255
224
168
255
224
168
255
224
168
255
224
168
255
224
168
255
224
168
255
224
168
248
56
0
248
56
0
248
56
0
248
56
0
248
56
0
248
56
0
255
224
168
255
224
168
255
224
168
255
224
168
255
224
168
255
224
168
255
224
168
255
224
168
255
224
168
255
224
168
255
224
168
255
224
168
255
224
168
255
224
168
255
224
168
255
224
168
255
224
168
255
224
168
255
224
168
248
56
0
248
56
0
248
56
0
248
56
0
248
56
0
248
56
0
255
224
168
255
224
168
255
224
168
255
224
168
255
224
168
255
224
168
255
224
168
255
224
168
255
224
168
255
224
168
255
224
168
255
224
168
255
224
168
255
224
168
255
224
168
255
224
168
255
224
168
255
224
168
255
224
168
255
224
168
255
224
168
255
224
168
255
224
168
248
56
0
248
56
0
248
56
0
248
56
0
248
56
0
255
224
168
255
224
168
255
224
168
255
224
168
255
224
168
255
224
168
255
224
168
255
224
168
255
224
168
255
224
168
255
224
168
255
224
168
255
224
168
255
224
168
255
224
168
255
224
168
255
224
168
255
224
168
255
224
168
255
224
168
255
224
168
255
224
168
255
224
168
255
224
168
255
224
168
255
224
168
255
224
168
248
56
0
248
56
0
248
56
0
255
224
168
255
224
168
255
224
168
255
224
168
255
224
168
255
224
168
255
224
168
255
224
168
255
224
168
255
224
168
255
224
168
255
224
168
255
224
168
248
56
0
248
56
0
248
56
0
248
56
0
248
56
0
248
56
0
255
224
168
255
224
168
255
224
168
255
224
168
248
56
0
248
56
0
248
56
0
248
56
0
248
56
0
248
56
0
255
224
168
255
224
168
255
224
168
255
224
168
255
224
168
255
224
168
255
224
168
255
224
168
255
224
168
255
224
168
255
224
168
255
224
168
255
224
168
248
56
0
248
56
0
248
56
0
248
56
0
248
56
0
248
56
0
255
224
168
255
224
168
255
224
168
255
224
168
248
56
0
248
56
0
248
56
0
248
56
0
248
56
0
248
56
0
255
224
168
255
224
168
255
224
168
255
224
168
255
224
168
255
224
168
255
224
168
255
224
168
255
224
168
255
224
168
255
224
168
255
224
168
255
224
168
248
56
0
248
56
0
248
56
0
255
224
168
255
224
168
255
224
168
255
224
168
255
224
168
255
224
168
255
224
168
255
224
168
255
224
168
255
224
168
255
224
168
255
224
168
255
224
168
255
224
168
255
224
168
255
224
168
255
224
168
255
224
168
255
224
168
255
224
168
255
224
168
255
224
168
255
224
168
255
224
168
255
224
168
255
224
168
255
224
168
248
56
0
248
56
0
248
56
0
248
56
0
248
56
0
255
224
168
255
224
168
255
224
168
255
224
168
255
224
168
255
224
168
255
224
168
255
224
168
255
224
168
255
224
168
255
224
168
255
224
168
255
224
168
255
224
168
255
224
168
255
224
168
255
224
168
255
224
168
255
224
168
255
224
168
255
224
168
255
224
168
255
224
168
248
56
0
248
56
0
248
56
0
248
56
0
248
56
0
248
56
0
255
224
168
255
224
168
255
224
168
255
224
168
255
224
168
255
224
168
255
224
168
255
224
168
255
224
168
255
224
168
255
224
168
255
224
168
255
224
168
255
224
168
255
224
168
255
224
168
255
224
168
255
224
168
255
224
168
248
56
0
248
56
0
248
56
0
248
56
0
248
56
0
248
56
0
255
224
168
255
224
168
255
224
168
255
224
168
255
224
168
255
224
168
255
224
168
255
224
168
255
224
168
255
224
168
255
224
168
255
224
168
255
224
168
255
224
168
255
224
168
255
224
168
255
224
168
255
224
168
255
224
168
248
56
0
248
56
0
248
56
0
248
56
0
255
224
168
255
224
168
255
224
168
255
224
168
255
224
168
255
224
168
255
224
168
255
224
168
255
224
168
255
224
168
255
224
168
255
224
168
248
56
0
248
56
0
255
224
168
255
224
168
255
224
168
255
224
168
255
224
168
255
224
168
255
224
168
255
224
168
255
224
168
255
224
168
255
224
168
255
224
168
255
224
168
255
224
168
255
224
168
255
224
168
255
224
168
255
224
168
255
224
168
255
224
168
255
224
168
255
224
168
255
224
168
255
224
168
255
224
168
255
224
168
255
224
168
255
224
168
255
224
168
255
224
168
255
224
168
255
224
168
255
224
168
255
224
168
255
224
168
255
224
168
255
224
168
255
224
168
255
224
168
255
224
168
255
224
168
255
224
168
255
224
168
255
224
168
255
224
168
255
224
168
255
224
168
255
224
168
255
224
168
255
224
168
255
224
168
255
224
168
255
224
168
255
224
168
255
224
168
255
224
168
255
224
168
255
224
168
255
224
168
255
224
168
255
224
168
255
224
168
255
224
168
255
224
168
255
224
168
255
224
168
255
224
168
255
224
168
255
224
168
255
224
168
255
224
168
255
224
168
255
224
168
255
224
168
255
224
168
255
224
168
255
224
168
255
224
168
255
224
168
255
224
168
255
224
168
255
224
168
255
224
168
248
56
0
255
224
168
255
224
168
255
224
168
255
224
168
255
224
168
255
224
168
255
224
168
255
224
168
255
224
168
255
224
168
255
224
168
255
224
168
255
224
168
248
56
0
248
56
0
248
56
0
255
224
168
255
224
168
255
224
168
255
224
168
255
224
168
255
224
168
255
224
168
255
224
168
255
224
168
255
224
168
255
224
168
255
224
168
255
224
168
255
224
168
255
224
168
255
224
168
255
224
168
255
224
168
255
224
168
255
224
168
255
224
168
255
224
168
255
224
168
255
224
168
255
224
168
255
224
168
255
224
168
255
224
168
255
224
168
255
224
168
255
224
168
255
224
168
255
224
168
255
224
168
255
224
168
255
224
168
255
224
168
255
224
168
255
224
168
255
224
168
255
224
168
255
224
168
255
224
168
255
224
168
255
224
168
255
224
168
255
224
168
255
224
168
255
224
168
255
224
168
255
224
168
255
224
168
255
224
168
255
224
168
255
224
168
255
224
168
255
224
168
255
224
168
255
224
168
255
224
168
255
224
168
255
224
168
255
224
168
255
224
168
255
224
168
255
224
168
255
224
168
255
224
168
255
224
168
255
224
168
255
224
168
255
224
168
255
224
168
255
224
168
255
224
168
255
224
168
255
224
168
255
224
168
255
224
168
255
224
168
255
224
168
255
224
168
255
224
168
255
224
168
255
224
168
255
224
168
255
224
168
255
224
168
255
224
168
255
224
168
255
224
168
255
224
168
255
224
168
255
224
168
255
224
168
255
224
168
255
224
168
255
224
168
255
224
168
255
224
168
255
224
168
255
224
168
255
224
168
255
224
168
248
56
0
248
56
0
248
56
0
255
224
168
255
224
168
255
224
168
255
224
168
255
224
168
255
224
168
255
224
168
255
224
168
255
224
168
255
224
168
255
224
168
255
224
168
255
224
168
255
224
168
248
56
0
248
56
0
248
56
0
248
56
0
248
56
0
248
56
0
255
224
168
255
224
168
255
224
168
255
224
168
248
56
0
248
56
0
248
56
0
248
56
0
248
56
0
248
56
0
255
224
168
255
224
168
255
224
168
255
224
168
255
224
168
255
224
168
255
224
168
255
224
168
255
224
168
255
224
168
255
224
168
255
224
168
255
224
168
248
56
0
248
56
0
248
56
0
248
56
0
248
56
0
248
56
0
255
224
168
255
224
168
255
224
168
255
224
168
248
56
0
248
56
0
248
56
0
248
56
0
248
56
0
248
56
0
255
224
168
255
224
168
255
224
168
255
224
168
255
224
168
255
224
168
255
224
168
255
224
168
255
224
168
255
224
168
255
224
168
255
224
168
255
224
168
255
224
168
248
56
0
248
56
0
248
56
0
255
224
168
255
224
168
255
224
168
255
224
168
255
224
168
255
224
168
255
224
168
255
224
168
255
224
168
255
224
168
255
224
168
255
224
168
255
224
168
255
224
168
255
224
168
255
224
168
255
224
168
255
224
168
255
224
168
255
224
168
255
224
168
255
224
168
255
224
168
255
224
168
255
224
168
255
224
168
255
224
168
255
224
168
255
224
168
255
224
168
255
224
168
255
224
168
255
224
168
255
224
168
255
224
168
255
224
168
255
224
168
255
224
168
255
224
168
255
224
168
255
224
168
255
224
168
255
224
168
255
224
168
255
224
168
255
224
168
255
224
168
255
224
168
255
224
168
255
224
168
255
224
168
255
224
168
255
224
168
255
224
168
255
224
168
255
224
168
255
224
168
255
224
168
255
224
168
255
224
168
255
224
168
255
224
168
255
224
168
255
224
168
255
224
168
255
224
168
255
224
168
255
224
168
255
224
168
255
224
168
255
224
168
255
224
168
255
224
168
255
224
168
255
224
168
255
224
168
255
224
168
255
224
168
255
224
168
255
224
168
255
224
168
255
224
168
255
224
168
255
224
168
255
224
168
255
224
168
255
224
168
255
224
168
255
224
168
255
224
168
255
224
168
255
224
168
255
224
168
255
224
168
255
224
168
255
224
168
255
224
168
255
224
168
255
224
168
255
224
168
255
224
168
255
224
168
255
224
168
255
224
168
248
56
0
248
56
0
248
56
0
255
224
168
255
224
168
255
224
168
255
224
168
255
224
168
255
224
168
255
224
168
255
224
168
255
224
168
255
224
168
255
224
168
255
224
168
255
224
168
248
56
0
255
224
168
255
224
168
255
224
168
255
224
168
255
224
168
255
224
168
255
224
168
255
224
168
255
224
168
255
224
168
255
224
168
255
224
168
255
224
168
255
224
168
255
224
168
255
224
168
255
224
168
255
224
168
255
224
168
255
224
168
255
224
168
255
224
168
255
224
168
255
224
168
255
224
168
255
224
168
255
224
168
255
224
168
255
224
168
255
224
168
255
224
168
255
224
168
255
224
168
255
224
168
255
224
168
255
224
168
255
224
168
255
224
168
255
224
168
255
224
168
255
224
168
255
224
168
255
224
168
255
224
168
255
224
168
255
224
168
255
224
168
255
224
168
255
224
168
255
224
168
255
224
168
255
224
168
255
224
168
255
224
168
255
224
168
255
224
168
255
224
168
255
224
168
255
224
168
255
224
168
255
224
168
255
224
168
255
224
168
255
224
168
255
224
168
255
224
168
255
224
168
255
224
168
255
224
168
255
224
168
255
224
168
255
224
168
255
224
168
255
224
168
255
224
168
255
224
168
255
224
168
255
224
168
255
224
168
255
224
168
255
224
168
255
224
168
255
224
168
255
224
168
255
224
168
255
224
168
255
224
168
255
224
168
255
224
168
255
224
168
255
224
168
255
224
168
255
224
168
255
224
168
255
224
168
255
224
168
255
224
168
255
224
168
255
224
168
255
224
168
255
224
168
255
224
168
255
224
168
255
224
168
255
224
168
255
224
168
255
224
168
255
224
168
255
224
168
255
224
168
255
224
168
255
224
168
255
224
168
255
224
168
255
224
168
255
224
168
255
224
168
255
224
168
255
224
168
255
224
168
255
224
168
255
224
168
255
224
168
255
224
168
255
224
168
255
224
168
255
224
168
255
224
168
255
224
168
255
224
168
255
224
168
255
224
168
255
224
168
255
224
168
255
224
168
255
224
168
255
224
168
255
224
168
255
224
168
255
224
168
255
224
168
255
224
168
255
224
168
255
224
168
255
224
168
255
224
168
255
224
168
255
224
168
255
224
168
255
224
168
255
224
168
255
224
168
255
224
168
255
224
168
255
224
168
255
224
168
255
224
168
255
224
168
255
224
168
255
224
168
255
224
168
255
224
168
255
224
168
255
224
168
255
224
168
255
224
168
255
224
168
255
224
168
255
224
168
255
224
168
255
224
168
255
224
168
255
224
168
255
224
168
255
224
168
255
224
168
255
224
168
255
224
168
255
224
168
255
224
168
255
224
168
255
224
168
255
224
168
255
224
168
255
224
168
255
224
168
255
224
168
255
224
168
255
224
168
255
224
168
255
224
168
255
224
168
255
224
168
255
224
168
255
224
168
255
224
168
255
224
168
255
224
168
255
224
168
255
224
168
255
224
168
255
224
168
255
224
168
255
224
168
255
224
168
255
224
168
255
224
168
255
224
168
255
224
168
255
224
168
255
224
168
255
224
168
255
224
168
255
224
168
255
224
168
255
224
168
255
224
168
255
224
168
255
224
168
255
224
168
255
224
168
255
224
168
255
224
168
255
224
168
255
224
168
255
224
168
255
224
168
255
224
168
255
224
168
255
224
168
255
224
168
255
224
168
255
224
168
255
224
168
255
224
168
255
224
168
255
224
168
255
224
168
255
224
168
255
224
168
255
224
168
255
224
168
255
224
168
255
224
168
255
224
168
255
224
168
255
224
168
255
224
168
255
224
168
255
224
168
255
224
168
255
224
168
255
224
168
255
224
168
255
224
168
255
224
168
255
224
168
255
224
168
255
224
168
255
224
168
255
224
168
255
224
168
255
224
168
255
224
168
255
224
168
255
224
168
255
224
168
255
224
168
255
224
168
255
224
168
255
224
168
255
224
168
255
224
168
255
224
168
255
224
168
255
224
168
255
224
168
255
224
168
255
224
168
255
224
168
255
224
168
255
224
168
255
224
168
255
224
168
255
224
168
255
224
168
255
224
168
255
224
168
255
224
168
255
224
168
255
224
168
255
224
168
255
224
168
255
224
168
255
224
168
255
224
168
255
224
168
255
224
168
255
224
168
255
224
168
255
224
168
255
224
168
255
224
168
255
224
168
255
224
168
255
224
168
255
224
168
255
224
168
255
224
168
255
224
168
255
224
168
255
224
168
255
224
168
255
224
168
255
224
168
255
224
168
255
224
168
255
224
168
255
224
168
255
224
168
255
224
168
255
224
168
255
224
168
255
224
168
255
224
168
255
224
168
255
224
168
255
224
168
255
224
168
255
224
168
255
224
168
255
224
168
255
224
168
255
224
168
255
224
168
255
224
168
255
224
168
255
224
168
255
224
168
255
224
168
255
224
168
255
224
168
255
224
168
255
224
168
255
224
168
255
224
168
255
224
168
255
224
168
255
224
168
255
224
168
255
224
168
255
224
168
255
224
168
255
224
168
255
224
168
255
224
168
255
224
168
255
224
168
255
224
168
255
224
168
255
224
168
255
224
168
255
224
168
255
224
168
255
224
168
255
224
168
255
224
168
255
224
168
255
224
168
255
224
168
255
224
168
255
224
168
255
224
168
255
224
168
255
224
168
255
224
168
255
224
168
255
224
168
255
224
168
255
224
168
255
224
168
255
224
168
255
224
168
255
224
168
255
224
168
255
224
168
255
224
168
255
224
168
255
224
168
255
224
168
255
224
168
255
224
168
255
224
168
255
224
168
255
224
168
255
224
168
255
224
168
255
224
168
255
224
168
255
224
168
255
224
168
255
224
168
255
224
168
255
224
168
255
224
168
255
224
168
255
224
168
255
224
168
255
224
168
255
224
168
255
224
168
255
224
168
255
224
168
255
224
168
255
224
168
255
224
168
255
224
168
255
224
168
255
224
168
255
224
168
255
224
168
255
224
168
255
224
168
255
224
168
255
224
168
255
224
168
255
224
168
255
224
168
255
224
168
255
224
168
255
224
168
255
224
168
255
224
168
255
224
168
255
224
168
255
224
168
255
224
168
255
224
168
255
224
168
255
224
168
255
224
168
255
224
168
255
224
168
255
224
168
255
224
168
255
224
168
255
224
168
255
224
168
255
224
168
255
224
168
255
224
168
255
224
168
255
224
168
255
224
168
255
224
168
255
224
168
255
224
168
255
224
168
255
224
168
255
224
168
255
224
168
255
224
168
255
224
168
255
224
168
255
224
168
255
224
168
255
224
168
255
224
168
255
224
168
255
224
168
255
224
168
255
224
168
255
224
168
255
224
168
255
224
168
255
224
168
255
224
168
255
224
168
255
224
168
255
224
168
255
224
168
255
224
168
255
224
168
255
224
168
255
224
168
255
224
168
255
224
168
255
224
168
255
224
168
255
224
168
255
224
168
255
224
168
255
224
168
255
224
168
255
224
168
255
224
168
255
224
168
255
224
168
255
224
168
255
224
168
255
224
168
255
224
168
255
224
168
255
224
168
255
224
168
255
224
168
255
224
168
255
224
168
255
224
168
255
224
168
255
224
168
255
224
168
255
224
168
255
224
168
255
224
168
255
224
168
255
224
168
255
224
168
255
224
168
255
224
168
255
224
168
255
224
168
255
224
168
255
224
168
255
224
168
255
224
168
255
224
168
255
224
168
255
224
168
255
224
168
255
224
168
255
224
168
255
224
168
255
224
168
255
224
168
255
224
168
255
224
168
255
224
168
255
224
168
255
224
168
255
224
168
255
224
168
255
224
168
255
224
168
255
224
168
255
224
168
255
224
168
255
224
168
255
224
168
255
224
168
255
224
168
255
224
168
255
224
168
255
224
168
255
224
168
255
224
168
255
224
168
255
224
168
255
224
168
255
224
168
255
224
168
255
224
168
255
224
168
255
224
168
255
224
168
255
224
168
255
224
168
255
224
168
255
224
168
255
224
168
255
224
168
255
224
168
255
224
168
255
224
168
255
224
168
255
224
168
255
224
168
255
224
168
255
224
168
255
224
168
255
224
168
255
224
168
255
224
168
255
224
168
255
224
168
255
224
168
255
224
168
255
224
168
255
224
168
255
224
168
255
224
168
255
224
168
255
224
168
255
224
168
255
224
168
255
224
168
255
224
168
255
224
168
255
224
168
255
224
168
255
224
168
255
224
168
255
224
168
255
224
168
255
224
168
255
224
168
255
224
168
255
224
168
255
224
168
255
224
168
255
224
168
255
224
168
255
224
168
255
224
168
255
224
168
255
224
168
255
224
168
255
224
168
255
224
168
255
224
168
255
224
168
255
224
168
255
224
168
255
224
168
255
224
168
255
224
168
255
224
168
255
224
168
255
224
168
255
224
168
255
224
168
255
224
168
255
224
168
255
224
168
255
224
168
255
224
168
255
224
168
255
224
168
255
224
168
255
224
168
255
224
168
255
224
168
255
224
168
255
224
168
255
224
168
255
224
168
255
224
168
255
224
168
255
224
168
255
224
168
255
224
168
255
224
168
255
224
168
255
224
168
255
224
168
255
224
168
255
224
168
255
224
168
255
224
168
255
224
168
255
224
168
255
224
168
255
224
168
255
224
168
255
224
168
255
224
168
255
224
168
255
224
168
255
224
168
255
224
168
255
224
168
255
224
168
255
224
168
255
224
168
255
224
168
255
224
168
255
224
168
255
224
168
255
224
168
255
224
168
255
224
168
255
224
168
255
224
168
255
224
168
255
224
168
255
224
168
255
224
168
255
224
168
255
224
168
255
224
168
255
224
168
255
224
168
255
224
168
255
224
168
255
224
168
255
224
168
255
224
168
255
224
168
255
224
168
255
224
168
255
224
168
255
224
168
255
224
168
255
224
168
255
224
168
255
224
168
255
224
168
255
224
168
255
224
168
255
224
168
255
224
168
255
224
168
255
224
168
255
224
168
255
224
168
255
224
168
255
224
168
255
224
168
255
224
168
255
224
168
255
224
168
255
224
168
255
224
168
255
224
168
255
224
168
255
224
168
255
224
168
255
224
168
255
224
168
255
224
168
255
224
168
255
224
168
255
224
168
255
224
168
255
224
168
255
224
168
255
224
168
255
224
168
255
224
168
255
224
168
255
224
168
255
224
168
255
224
168
255
224
168
255
224
168
255
224
168
255
224
168
255
224
168
255
224
168
255
224
168
255
224
168
255
224
168
255
224
168
255
224
168
255
224
168
255
224
168
255
224
168
255
224
168
255
224
168
255
224
168
255
224
168
255
224
168
255
224
168
255
224
168
255
224
168
255
224
168
255
224
168
255
224
168
255
224
168
255
224
168
255
224
168
255
224
168
255
224
168
255
224
168
255
224
168
255
224
168
255
224
168
255
224
168
255
224
168
255
224
168
255
224
168
255
224
168
255
224
168
255
224
168
255
224
168
255
224
168
255
224
168
255
224
168
255
224
168
255
224
168
255
224
168
255
224
168
255
224
168
255
224
168
255
224
168
255
224
168
255
224
168
255
224
168
255
224
168
255
224
168
255
224
168
255
224
168
255
224
168
255
224
168
255
224
168
255
224
168
255
224
168
255
224
168
255
224
168
255
224
168
255
224
168
255
224
168
255
224
168
255
224
168
255
224
168
255
224
168
255
224
168
255
224
168
255
224
168
255
224
168
255
224
168
255
224
168
255
224
168
255
224
168
255
224
168
255
224
168
255
224
168
255
224
168
255
224
168
255
224
168
255
224
168
255
224
168
255
224
168
255
224
168
255
224
168
255
224
168
255
224
168
255
224
168
255
224
168
255
224
168
255
224
168
255
224
168
255
224
168
255
224
168
255
224
168
255
224
168
255
224
168
255
224
168
255
224
168
255
224
168
255
224
168
255
224
168
255
224
168
255
224
168
255
224
168
255
224
168
255
224
168
255
224
168
255
224
168
255
224
168
255
224
168
255
224
168
255
224
168
255
224
168
255
224
168
255
224
168
255
224
168
255
224
168
255
224
168
255
224
168
255
224
168
255
224
168
255
224
168
255
224
168
255
224
168
255
224
168
255
224
168
255
224
168
255
224
168
255
224
168
255
224
168
255
224
168
255
224
168
255
224
168
255
224
168
255
224
168
255
224
168
255
224
168
255
224
168
255
224
168
255
224
168
255
224
168
255
224
168
255
224
168
255
224
168
255
224
168
255
224
168
255
224
168
255
224
168
255
224
168
255
224
168
255
224
168
255
224
168
255
224
168
255
224
168
255
224
168
255
224
168
255
224
168
255
224
168
255
224
168
255
224
168
255
224
168
255
224
168
255
224
168
255
224
168
255
224
168
255
224
168
255
224
168
255
224
168
255
224
168
255
224
168
255
224
168
255
224
168
255
224
168
255
224
168
255
224
168
255
224
168
255
224
168
255
224
168
255
224
168
255
224
168
255
224
168
255
224
168
255
224
168
255
224
168
255
224
168
255
224
168
255
224
168
255
224
168
255
224
168
255
224
168
255
224
168
255
224
168
255
224
168
255
224
168
255
224
168
255
224
168
255
224
168
255
224
168
255
224
168
255
224
168
255
224
168
255
224
168
255
224
168
255
224
168
255
224
168
255
224
168
255
224
168
255
224
168
255
224
168
255
224
168
255
224
168
255
224
168
255
224
168
255
224
168
255
224
168
255
224
168
255
224
168
255
224
168
255
224
168
255
224
168
255
224
168
255
224
168
255
224
168
255
224
168
255
224
168
255
224
168
255
224
168
255
224
168
255
224
168
255
224
168
255
224
168
255
224
168
255
224
168
255
224
168
255
224
168
255
224
168
255
224
168
255
224
168
255
224
168
255
224
168
255
224
168
255
224
168
255
224
168
255
224
168
255
224
168
255
224
168
255
224
168
255
224
168
255
224
168
255
224
168
255
224
168
255
224
168
255
224
168
255
224
168
255
224
168
255
224
168
255
224
168
255
224
168
255
224
168
255
224
168
255
224
168
255
224
168
255
224
168
255
224
168
255
224
168
255
224
168
255
224
168
255
224
168
255
224
168
255
224
168
255
224
168
255
224
168
255
224
168
255
224
168
255
224
168
255
224
168
255
224
168
255
224
168
255
224
168
255
224
168
255
224
168
255
224
168
255
224
168
255
224
168
255
224
168
255
224
168
255
224
168
255
224
168
255
224
168
255
224
168
255
224
168
255
224
168
255
224
168
255
224
168
255
224
168
255
224
168
255
224
168
255
224
168
255
224
168
255
224
168
255
224
168
255
224
168
255
224
168
255
224
168
255
224
168
255
224
168
255
224
168
255
224
168
255
224
168
255
224
168
255
224
168
255
224
168
255
224
168
255
224
168
255
224
168
255
224
168
255
224
168
255
224
168
255
224
168
255
224
168
255
224
168
255
224
168
255
224
168
255
224
168
255
224
168
255
224
168
255
224
168
255
224
168
255
224
168
255
224
168
255
224
168
255
224
168
255
224
168
255
224
168
255
224
168
255
224
168
255
224
168
255
224
168
255
224
168
255
224
168
255
224
168
255
224
168
255
224
168
255
224
168
255
224
168
255
224
168
255
224
168
255
224
168
255
224
168
255
224
168
255
224
168
255
224
168
255
224
168
255
224
168
255
224
168
255
224
168
255
224
168
255
224
168
255
224
168
255
224
168
255
224
168
255
224
168
255
224
168
255
224
168
255
224
168
255
224
168
255
224
168
255
224
168
255
224
168
255
224
168
255
224
168
255
224
168
255
224
168
255
224
168
255
224
168
255
224
168
255
224
168
255
224
168
255
224
168
255
224
168
255
224
168
255
224
168
255
224
168
255
224
168
255
224
168
255
224
168
255
224
168
255
224
168
255
224
168
255
224
168
255
224
168
255
224
168
255
224
168
255
224
168
255
224
168
255
224
168
255
224
168
255
224
168
255
224
168
255
224
168
255
224
168
255
224
168
255
224
168
255
224
168
255
224
168
255
224
168
255
224
168
255
224
168
255
224
168
255
224
168
255
224
168
255
224
168
255
224
168
255
224
168
255
224
168
255
224
168
255
224
168
255
224
168
255
224
168
255
224
168
255
224
168
255
224
168
255
224
168
255
224
168
255
224
168
255
224
168
255
224
168
255
224
168
255
224
168
255
224
168
255
224
168
255
224
168
255
224
168
255
224
168
255
224
168
255
224
168
255
224
168
255
224
168
255
224
168
255
224
168
255
224
168
255
224
168
255
224
168
255
224
168
255
224
168
255
224
168
255
224
168
255
224
168
255
224
168
255
224
168
255
224
168
255
224
168
255
224
168
255
224
168
255
224
168
255
224
168
255
224
168
255
224
168
255
224
168
255
224
168
255
224
168
255
224
168
255
224
168
255
224
168
255
224
168
255
224
168
255
224
168
255
224
168
255
224
168
255
224
168
255
224
168
255
224
168
255
224
168
255
224
168
255
224
168
255
224
168
255
224
168
255
224
168
255
224
168
255
224
168
255
224
168
255
224
168
255
224
168
255
224
168
255
224
168
255
224
168
255
224
168
255
224
168
255
224
168
255
224
168
255
224
168
255
224
168
255
224
168
255
224
168
255
224
168
255
224
168
255
224
168
255
224
168
255
224
168
255
224
168
255
224
168
255
224
168
255
224
168
255
224
168
255
224
168
255
224
168
255
224
168
255
224
168
255
224
168
255
224
168
255
224
168
255
224
168
255
224
168
255
224
168
255
224
168
255
224
168
255
224
168
255
224
168
255
224
168
255
224
168
255
224
168
255
224
168
255
224
168
255
224
168
255
224
168
255
224
168
255
224
168
255
224
168
255
224
168
255
224
168
255
224
168
255
224
168
255
224
168
255
224
168
255
224
168
255
224
168
255
224
168
255
224
168
255
224
168
255
224
168
255
224
168
255
224
168
255
224
168
255
224
168
255
224
168
255
224
168
255
224
168
255
224
168
255
224
168
255
224
168
255
224
168
255
224
168
255
224
168
255
224
168
255
224
168
255
224
168
255
224
168
255
224
168
255
224
168
255
224
168
255
224
168
255
224
168
255
224
168
255
224
168
255
224
168
255
224
168
255
224
168
255
224
168
255
224
168
255
224
168
255
224
168
255
224
168
255
224
168
255
224
168
255
224
168
255
224
168
255
224
168
255
224
168
255
224
168
255
224
168
255
224
168
255
224
168
255
224
168
255
224
168
255
224
168
255
224
168
255
224
168
255
224
168
255
224
168
255
224
168
255
224
168
255
224
168
255
224
168
255
224
168
255
224
168
255
224
168
255
224
168
255
224
168
255
224
168
255
224
168
255
224
168
255
224
168
255
224
168
255
224
168
255
224
168
255
224
168
255
224
168
255
224
168
255
224
168
255
224
168
255
224
168
255
224
168
255
224
168
255
224
168
255
224
168
255
224
168
255
224
168
255
224
168
255
224
168
255
224
168
255
224
168
255
224
168
255
224
168
255
224
168
255
224
168
255
224
168
255
224
168
255
224
168
255
224
168
255
224
168
255
224
168
255
224
168
255
224
168
255
224
168
255
224
168
255
224
168
255
224
168
255
224
168
255
224
168
255
224
168
255
224
168
255
224
168
255
224
168
255
224
168
255
224
168
255
224
168
255
224
168
255
224
168
255
224
168
255
224
168
255
224
168
255
224
168
255
224
168
255
224
168
255
224
168
255
224
168
255
224
168
255
224
168
255
224
168
255
224
168
255
224
168
255
224
168
255
224
168
255
224
168
255
224
168
255
224
168
255
224
168
255
224
168
255
224
168
255
224
168
255
224
168
255
224
168
255
224
168
255
224
168
255
224
168
255
224
168
255
224
168
255
224
168
255
224
168
255
224
168
255
224
168
255
224
168
255
224
168
255
224
168
255
224
168
255
224
168
255
224
168
255
224
168
255
224
168
255
224
168
255
224
168
255
224
168
255
224
168
255
224
168
255
224
168
255
224
168
255
224
168
255
224
168
255
224
168
255
224
168
255
224
168
255
224
168
255
224
168
255
224
168
255
224
168
255
224
168
255
224
168
255
224
168
255
224
168
255
224
168
255
224
168
255
224
168
255
224
168
255
224
168
255
224
168
255
224
168
255
224
168
255
224
168
255
224
168
255
224
168
255
224
168
255
224
168
255
224
168
255
224
168
255
224
168
255
224
168
255
224
168
255
224
168
255
224
168
255
224
168
255
224
168
255
224
168
255
224
168
255
224
168
255
224
168
255
224
168
255
224
168
255
224
168
255
224
168
255
224
168
255
224
168
255
224
168
255
224
168
255
224
168
255
224
168
255
224
168
255
224
168
255
224
168
255
224
168
255
224
168
255
224
168
255
224
168
255
224
168
255
224
168
255
224
168
255
224
168
255
224
168
255
224
168
255
224
168
255
224
168
255
224
168
255
224
168
255
224
168
255
224
168
255
224
168
255
224
168
255
224
168
255
224
168
255
224
168
255
224
168
255
224
168
255
224
168
255
224
168
255
224
168
255
224
168
255
224
168
255
224
168
255
224
168
255
224
168
255
224
168
255
224
168
255
224
168
255
224
168
255
224
168
255
224
168
255
224
168
255
224
168
255
224
168
255
224
168
255
224
168
255
224
168
255
224
168
255
224
168
255
224
168
255
224
168
255
224
168
255
224
168
255
224
168
255
224
168
255
224
168
255
224
168
255
224
168
255
224
168
255
224
168
255
224
168
255
224
168
255
224
168
255
224
168
255
224
168
255
224
168
255
224
168
255
224
168
255
224
168
255
224
168
255
224
168
255
224
168
255
224
168
255
224
168
255
224
168
255
224
168
255
224
168
255
224
168
255
224
168
255
224
168
255
224
168
255
224
168
255
224
168
255
224
168
255
224
168
255
224
168
255
224
168
255
224
168
255
224
168
255
224
168
255
224
168
255
224
168
255
224
168
255
224
168
255
224
168
255
224
168
255
224
168
255
224
168
255
224
168
255
224
168
255
224
168
255
224
168
255
224
168
255
224
168
255
224
168
255
224
168
255
224
168
255
224
168
255
224
168
255
224
168
255
224
168
255
224
168
255
224
168
255
224
168
255
224
168
255
224
168
255
224
168
255
224
168
255
224
168
255
224
168
255
224
168
255
224
168
255
224
168
255
224
168
255
224
168
255
224
168
255
224
168
255
224
168
255
224
168
255
224
168
255
224
168
255
224
168
255
224
168
255
224
168
255
224
168
255
224
168
255
224
168
255
224
168
255
224
168
255
224
168
255
224
168
255
224
168
255
224
168
255
224
168
255
224
168
255
224
168
255
224
168
255
224
168
255
224
168
255
224
168
255
224
168
255
224
168
255
224
168
255
224
168
255
224
168
255
224
168
255
224
168
255
224
168
255
224
168
255
224
168
255
224
168
255
224
168
255
224
168
255
224
168
255
224
168
255
224
168
255
224
168
255
224
168
255
224
168
255
224
168
255
224
168
255
224
168
255
224
168
255
224
168
255
224
168
255
224
168
255
224
168
255
224
168
255
224
168
255
224
168
255
224
168
255
224
168
255
224
168
255
224
168
255
224
168
255
224
168
255
224
168
255
224
168
255
224
168
255
224
168
255
224
168
255
224
168
255
224
168
255
224
168
255
224
168
255
224
168
255
224
168
255
224
168
255
224
168
255
224
168
255
224
168
255
224
168
255
224
168
255
224
168
255
224
168
255
224
168
255
224
168
255
224
168
255
224
168
255
224
168
255
224
168
255
224
168
255
224
168
255
224
168
255
224
168
255
224
168
255
224
168
255
224
168
255
224
168
255
224
168
255
224
168
255
224
168
255
224
168
255
224
168
255
224
168
255
224
168
255
224
168
255
224
168
255
224
168
255
224
168
255
224
168
255
224
168
255
224
168
255
224
168
255
224
168
255
224
168
255
224
168
255
224
168
255
224
168
255
224
168
255
224
168
255
224
168
255
224
168
255
224
168
255
224
168
255
224
168
255
224
168
255
224
168
255
224
168
255
224
168
255
224
168
255
224
168
255
224
168
255
224
168
255
224
168
255
224
168
255
224
168
255
224
168
255
224
168
255
224
168
255
224
168
255
224
168
255
224
168
255
224
168
255
224
168
255
224
168
255
224
168
255
224
168
255
224
168
255
224
168
255
224
168
255
224
168
255
224
168
255
224
168
255
224
168
255
224
168
255
224
168
255
224
168
255
224
168
255
224
168
255
224
168
255
224
168
255
224
168
255
224
168
255
224
168
255
224
168
255
224
168
255
224
168
255
224
168
255
224
168
255
224
168
255
224
168
255
224
168
255
224
168
255
224
168
255
224
168
255
224
168
255
224
168
255
224
168
255
224
168
255
224
168
255
224
168
255
224
168
255
224
168
255
224
168
255
224
168
255
224
168
255
224
168
255
224
168
255
224
168
255
224
168
255
224
168
255
224
168
255
224
168
255
224
168
255
224
168
255
224
168
255
224
168
255
224
168
255
224
168
255
224
168
255
224
168
255
224
168
255
224
168
255
224
168
255
224
168
255
224
168
255
224
168
255
224
168
255
224
168
255
224
168
255
224
168
255
224
168
255
224
168
255
224
168
255
224
168
255
224
168
255
224
168
255
224
168
255
224
168
255
224
168
255
224
168
255
224
168
255
224
168
255
224
168
255
224
168
255
224
168
255
224
168
255
224
168
255
224
168
255
224
168
255
224
168
255
224
168
255
224
168
255
224
168
255
224
168
255
224
168
255
224
168
255
224
168
255
224
168
255
224
168
255
224
168
255
224
168
255
224
168
255
224
168
255
224
168
255
224
168
255
224
168
255
224
168
255
224
168
255
224
168
255
224
168
255
224
168
255
224
168
255
224
168
255
224
168
255
224
168
255
224
168
255
224
168
255
224
168
255
224
168
255
224
168
255
224
168
255
224
168
255
224
168
255
224
168
255
224
168
255
224
168
255
224
168
255
224
168
255
224
168
255
224
168
255
224
168
255
224
168
255
224
168
255
224
168
255
224
168
255
224
168
255
224
168
255
224
168
255
224
168
255
224
168
255
224
168
255
224
168
255
224
168
255
224
168
255
224
168
255
224
168
255
224
168
255
224
168
255
224
168
255
224
168
255
224
168
255
224
168
255
224
168
255
224
168
255
224
168
255
224
168
255
224
168
255
224
168
255
224
168
255
224
168
255
224
168
255
224
168
255
224
168
255
224
168
255
224
168
255
224
168
255
224
168
255
224
168
255
224
168
255
224
168
255
224
168
255
224
168
255
224
168
255
224
168
255
224
168
255
224
168
255
224
168
255
224
168
255
224
168
255
224
168
255
224
168
255
224
168
255
224
168
255
224
168
255
224
168
255
224
168
255
224
168
255
224
168
255
224
168
255
224
168
255
224
168
255
224
168
255
224
168
255
224
168
255
224
168
255
224
168
255
224
168
255
224
168
255
224
168
255
224
168
255
224
168
255
224
168
255
224
168
255
224
168
255
224
168
255
224
168
255
224
168
255
224
168
255
224
168
255
224
168
255
224
168
255
224
168
255
224
168
255
224
168
255
224
168
255
224
168
255
224
168
255
224
168
255
224
168
255
224
168
255
224
168
255
224
168
255
224
168
255
224
168
255
224
168
255
224
168
255
224
168
255
224
168
255
224
168
255
224
168
255
224
168
255
224
168
255
224
168
255
224
168
255
224
168
255
224
168
255
224
168
255
224
168
255
224
168
255
224
168
255
224
168
255
224
168
255
224
168
255
224
168
255
224
168
255
224
168
255
224
168
255
224
168
255
224
168
255
224
168
255
224
168
255
224
168
255
224
168
255
224
168
255
224
168
255
224
168
255
224
168
255
224
168
255
224
168
255
224
168
255
224
168
255
224
168
255
224
168
255
224
168
255
224
168
255
224
168
255
224
168
255
224
168
255
224
168
255
224
168
255
224
168
255
224
168
255
224
168
255
224
168
255
224
168
255
224
168
255
224
168
255
224
168
255
224
168
255
224
168
255
224
168
255
224
168
255
224
168
255
224
168
255
224
168
255
224
168
255
224
168
255
224
168
255
224
168
255
224
168
255
224
168
255
224
168
255
224
168
255
224
168
255
224
168
255
224
168
255
224
168
255
224
168
255
224
168
255
224
168
255
224
168
255
224
168
255
224
168
255
224
168
255
224
168
255
224
168
255
224
168
255
224
168
255
224
168
255
224
168
255
224
168
255
224
168
255
224
168
255
224
168
255
224
168
255
160
68
255
224
168
255
224
168
255
224
168
255
224
168
255
224
168
255
224
168
255
224
168
255
224
168
255
224
168
255
224
168
255
224
168
255
224
168
255
224
168
255
224
168
255
224
168
255
224
168
255
224
168
255
224
168
255
224
168
255
224
168
255
224
168
255
224
168
255
224
168
255
224
168
255
224
168
255
224
168
255
224
168
255
224
168
255
224
168
255
224
168
255
224
168
255
224
168
255
224
168
255
224
168
255
224
168
255
224
168
255
224
168
255
224
168
255
224
168
255
224
168
255
224
168
255
224
168
255
224
168
255
224
168
255
224
168
255
224
168
255
224
168
255
224
168
255
224
168
255
224
168
255
160
68
255
224
168
255
224
168
255
224
168
255
224
168
255
224
168
255
224
168
255
224
168
255
224
168
255
224
168
255
224
168
255
224
168
255
224
168
255
224
168
255
224
168
255
224
168
255
224
168
255
224
168
255
224
168
255
224
168
255
224
168
255
224
168
255
224
168
255
224
168
255
224
168
255
224
168
255
160
68
255
224
168
255
224
168
255
224
168
255
224
168
255
224
168
255
224
168
255
224
168
255
224
168
255
224
168
255
224
168
255
224
168
255
224
168
255
224
168
255
224
168
255
224
168
255
224
168
255
224
168
255
224
168
255
224
168
255
224
168
255
224
168
255
224
168
255
224
168
255
224
168
255
160
68
255
224
168
255
224
168
255
224
168
255
224
168
255
224
168
255
224
168
255
224
168
255
224
168
255
224
168
255
224
168
255
224
168
255
224
168
255
224
168
255
224
168
255
224
168
255
224
168
255
224
168
255
224
168
255
224
168
255
224
168
255
224
168
255
224
168
255
224
168
255
160
68
255
224
168
255
224
168
255
224
168
255
224
168
255
224
168
255
224
168
255
224
168
255
224
168
255
224
168
255
224
168
255
224
168
255
224
168
255
224
168
255
224
168
255
224
168
255
224
168
255
224
168
255
224
168
255
224
168
255
224
168
255
224
168
255
224
168
255
224
168
255
224
168
255
160
68
255
224
168
255
224
168
255
224
168
255
224
168
255
224
168
255
224
168
255
224
168
255
224
168
255
224
168
255
224
168
255
224
168
255
224
168
255
224
168
255
224
168
255
224
168
255
224
168
255
224
168
255
224
168
255
224
168
255
224
168
255
224
168
255
224
168
255
224
168
255
224
168
255
224
168
255
224
168
255
224
168
255
160
68
255
224
168
255
224
168
255
224
168
255
224
168
255
224
168
255
224
168
255
224
168
255
224
168
255
224
168
255
224
168
255
224
168
255
224
168
255
224
168
255
224
168
255
224
168
255
224
168
255
224
168
255
224
168
255
224
168
255
224
168
255
224
168
255
224
168
255
224
168
255
224
168
255
224
168
255
224
168
255
224
168
255
224
168
255
224
168
255
224
168
255
224
168
255
224
168
255
224
168
255
224
168
255
224
168
255
160
68
255
224
168
255
224
168
255
224
168
255
224
168
255
224
168
255
224
168
255
224
168
255
224
168
255
224
168
255
224
168
255
224
168
255
224
168
255
224
168
255
224
168
255
224
168
255
224
168
255
224
168
255
224
168
255
224
168
255
224
168
255
224
168
255
224
168
255
224
168
255
224
168
255
224
168
255
224
168
255
224
168
255
160
68
255
224
168
255
224
168
255
224
168
255
224
168
255
224
168
255
224
168
255
224
168
255
224
168
255
224
168
255
224
168
255
224
168
255
224
168
255
224
168
255
224
168
255
224
168
255
224
168
255
224
168
255
224
168
255
224
168
255
224
168
255
224
168
255
224
168
255
224
168
255
224
168
255
160
68
255
224
168
255
224
168
255
224
168
255
224
168
255
224
168
255
224
168
255
224
168
255
224
168
255
224
168
255
224
168
255
224
168
255
224
168
255
224
168
255
224
168
255
224
168
255
224
168
255
224
168
255
224
168
255
224
168
255
224
168
255
224
168
255
224
168
255
224
168
255
160
68
255
224
168
255
224
168
255
224
168
255
224
168
255
224
168
255
224
168
255
224
168
255
224
168
255
224
168
255
224
168
255
224
168
255
224
168
255
224
168
255
224
168
255
224
168
255
224
168
255
224
168
255
224
168
255
224
168
255
224
168
255
224
168
255
224
168
255
224
168
255
224
168
255
160
68
255
224
168
255
224
168
255
224
168
255
224
168
255
224
168
255
224
168
255
224
168
255
224
168
255
224
168
255
224
168
255
224
168
255
224
168
255
224
168
255
224
168
255
224
168
255
224
168
255
224
168
255
224
168
255
224
168
255
224
168
255
224
168
255
224
168
255
224
168
255
224
168
255
224
168
255
160
68
255
224
168
255
224
168
255
224
168
255
224
168
255
224
168
255
224
168
255
224
168
255
224
168
255
224
168
255
224
168
255
224
168
255
224
168
255
224
168
255
224
168
255
224
168
255
224
168
255
224
168
255
224
168
255
224
168
255
224
168
255
224
168
255
224
168
255
224
168
255
224
168
255
224
168
255
224
168
255
224
168
255
224
168
255
224
168
255
224
168
255
224
168
255
224
168
255
224
168
255
224
168
255
224
168
255
224
168
255
224
168
255
224
168
255
224
168
255
224
168
255
224
168
255
224
168
255
224
168
255
224
168
255
224
168
255
224
168
255
224
168
255
224
168
255
224
168
255
224
168
255
160
68
255
224
168
255
224
168
255
224
168
255
224
168
255
224
168
255
224
168
255
224
168
255
224
168
255
224
168
255
224
168
255
160
68
255
160
68
255
224
168
255
224
168
255
224
168
255
224
168
255
224
168
255
224
168
255
224
168
255
224
168
255
224
168
255
224
168
255
224
168
255
224
168
255
224
168
255
224
168
255
224
168
255
224
168
255
224
168
255
224
168
255
224
168
255
224
168
255
224
168
255
224
168
255
224
168
255
224
168
255
224
168
255
160
68
255
224
168
255
224
168
255
224
168
255
224
168
255
224
168
255
224
168
255
224
168
255
224
168
255
224
168
255
224
168
255
224
168
255
224
168
255
224
168
255
224
168
255
224
168
255
224
168
255
224
168
255
224
168
255
224
168
255
224
168
255
224
168
255
224
168
255
224
168
255
160
68
255
160
68
255
224
168
255
224
168
255
224
168
255
224
168
255
224
168
255
224
168
255
224
168
255
224
168
255
224
168
255
224
168
255
224
168
255
224
168
255
224
168
255
224
168
255
224
168
255
224
168
255
224
168
255
224
168
255
224
168
255
224
168
255
224
168
255
224
168
255
224
168
255
224
168
255
160
68
255
160
68
255
224
168
255
224
168
255
224
168
255
224
168
255
224
168
255
224
168
255
224
168
255
224
168
255
224
168
255
224
168
255
224
168
255
224
168
255
224
168
255
224
168
255
224
168
255
224
168
255
224
168
255
224
168
255
224
168
255
224
168
255
224
168
255
224
168
255
224
168
255
160
68
255
160
68
255
224
168
255
224
168
255
224
168
255
224
168
255
224
168
255
224
168
255
224
168
255
224
168
255
224
168
255
224
168
255
224
168
255
224
168
255
224
168
255
224
168
255
224
168
255
224
168
255
224
168
255
224
168
255
224
168
255
224
168
255
224
168
255
224
168
255
160
68
255
160
68
255
224
168
255
224
168
255
224
168
255
224
168
255
224
168
255
224
168
255
224
168
255
224
168
255
224
168
255
224
168
255
224
168
255
224
168
255
224
168
255
224
168
255
224
168
255
224
168
255
224
168
255
224
168
255
224
168
255
224
168
255
224
168
255
224
168
255
224
168
255
160
68
255
160
68
255
224
168
255
224
168
255
224
168
255
224
168
255
224
168
255
224
168
255
224
168
255
224
168
255
224
168
255
224
168
255
224
168
255
224
168
255
224
168
255
224
168
255
224
168
255
224
168
255
224
168
255
224
168
255
224
168
255
224
168
255
224
168
255
224
168
255
224
168
255
224
168
255
224
168
255
224
168
255
160
68
255
160
68
255
224
168
255
224
168
255
224
168
255
224
168
255
224
168
255
224
168
255
224
168
255
224
168
255
224
168
255
224
168
255
224
168
255
224
168
255
224
168
255
224
168
255
224
168
255
224
168
255
224
168
255
224
168
255
224
168
255
224
168
255
224
168
255
224
168
255
224
168
255
224
168
255
224
168
255
224
168
255
224
168
255
224
168
255
224
168
255
224
168
255
224
168
255
224
168
255
224
168
255
160
68
255
160
68
255
224
168
255
224
168
255
224
168
255
224
168
255
224
168
255
224
168
255
224
168
255
224
168
255
224
168
255
224
168
255
224
168
255
224
168
255
224
168
255
224
168
255
224
168
255
224
168
255
224
168
255
224
168
255
224
168
255
224
168
255
224
168
255
224
168
255
224
168
255
224
168
255
224
168
255
224
168
255
160
68
255
160
68
255
224
168
255
224
168
255
224
168
255
224
168
255
224
168
255
224
168
255
224
168
255
224
168
255
224
168
255
224
168
255
224
168
255
224
168
255
224
168
255
224
168
255
224
168
255
224
168
255
224
168
255
224
168
255
224
168
255
224
168
255
224
168
255
224
168
255
224
168
255
160
68
255
160
68
255
224
168
255
224
168
255
224
168
255
224
168
255
224
168
255
224
168
255
224
168
255
224
168
255
224
168
255
224
168
255
224
168
255
224
168
255
224
168
255
224
168
255
224
168
255
224
168
255
224
168
255
224
168
255
224
168
255
224
168
255
224
168
255
224
168
255
160
68
255
160
68
255
224
168
255
224
168
255
224
168
255
224
168
255
224
168
255
224
168
255
224
168
255
224
168
255
224
168
255
224
168
255
224
168
255
224
168
255
224
168
255
224
168
255
224
168
255
224
168
255
224
168
255
224
168
255
224
168
255
224
168
255
224
168
255
224
168
255
224
168
255
160
68
255
160
68
255
224
168
255
224
168
255
224
168
255
224
168
255
224
168
255
224
168
255
224
168
255
224
168
255
224
168
255
224
168
255
224
168
255
224
168
255
224
168
255
224
168
255
224
168
255
224
168
255
224
168
255
224
168
255
224
168
255
224
168
255
224
168
255
224
168
255
224
168
255
224
168
255
160
68
255
160
68
255
224
168
255
224
168
255
224
168
255
224
168
255
224
168
255
224
168
255
224
168
255
224
168
255
224
168
255
224
168
255
224
168
255
224
168
255
224
168
255
224
168
255
224
168
255
224
168
255
224
168
255
224
168
255
224
168
255
224
168
255
224
168
255
224
168
255
224
168
255
160
68
255
224
168
255
224
168
255
224
168
255
224
168
255
224
168
255
224
168
255
224
168
255
224
168
255
224
168
255
224
168
255
224
168
255
224
168
255
224
168
255
224
168
255
224
168
255
224
168
255
224
168
255
224
168
255
224
168
255
224
168
255
224
168
255
224
168
255
224
168
255
224
168
255
224
168
255
160
68
255
160
68
255
224
168
255
224
168
255
224
168
255
224
168
255
224
168
255
224
168
255
224
168
255
224
168
255
224
168
255
224
168
255
224
168
255
224
168
255
224
168
255
224
168
255
224
168
255
224
168
255
224
168
255
224
168
255
224
168
255
224
168
255
224
168
255
224
168
255
224
168
255
224
168
255
224
168
255
224
168
255
224
168
255
224
168
255
224
168
255
224
168
255
224
168
255
224
168
255
224
168
255
224
168
255
224
168
255
224
168
255
224
168
255
160
68
255
160
68
255
224
168
255
224
168
255
224
168
255
224
168
255
224
168
255
224
168
255
224
168
255
224
168
255
224
168
255
224
168
255
224
168
255
224
168
255
224
168
255
224
168
255
224
168
255
224
168
255
224
168
255
224
168
255
224
168
255
224
168
255
224
168
255
224
168
255
224
168
255
224
168
255
224
168
255
224
168
255
224
168
255
224
168
255
224
168
255
224
168
255
224
168
255
224
168
255
224
168
255
224
168
255
224
168
255
224
168
255
224
168
255
224
168
255
224
168
255
224
168
255
224
168
255
224
168
255
224
168
255
224
168
255
224
168
255
224
168
255
224
168
255
224
168
255
224
168
255
224
168
255
224
168
255
224
168
255
224
168
255
224
168
255
224
168
255
224
168
255
224
168
255
224
168
255
224
168
255
224
168
255
224
168
255
224
168
255
224
168
255
224
168
255
224
168
255
224
168
255
224
168
255
224
168
255
224
168
255
224
168
255
224
168
255
224
168
255
224
168
255
224
168
255
224
168
255
224
168
255
224
168
255
224
168
255
224
168
255
224
168
255
224
168
255
224
168
255
224
168
255
224
168
255
224
168
255
224
168
255
224
168
255
224
168
255
224
168
255
224
168
255
224
168
255
224
168
255
224
168
255
224
168
255
224
168
255
224
168
255
224
168
255
224
168
255
224
168
255
224
168
255
224
168
255
224
168
255
224
168
255
224
168
255
224
168
255
224
168
255
224
168
255
224
168
255
224
168
255
224
168
255
224
168
255
224
168
255
224
168
255
224
168
255
224
168
255
224
168
255
224
168
255
224
168
255
224
168
255
224
168
255
224
168
255
224
168
255
224
168
255
224
168
255
224
168
255
224
168
255
224
168
255
224
168
255
224
168
255
224
168
255
224
168
255
224
168
255
224
168
255
224
168
255
224
168
255
224
168
255
224
168
255
224
168
255
224
168
255
224
168
255
224
168
255
224
168
255
224
168
255
224
168
255
224
168
255
224
168
255
224
168
255
224
168
255
224
168
255
224
168
255
224
168
255
224
168
255
224
168
255
224
168
255
224
168
255
224
168
255
224
168
255
224
168
255
224
168
255
224
168
255
224
168
255
224
168
255
224
168
255
224
168
255
224
168
255
224
168
255
224
168
255
224
168
255
224
168
255
224
168
255
224
168
255
224
168
255
224
168
255
224
168
255
224
168
255
224
168
255
224
168
255
224
168
255
224
168
255
224
168
255
224
168
255
224
168
255
224
168
255
224
168
255
224
168
255
224
168
255
224
168
255
224
168
255
224
168
255
224
168
255
224
168
255
224
168
255
224
168
255
224
168
255
224
168
255
224
168
255
224
168
255
224
168
255
224
168
255
224
168
255
224
168
255
224
168
255
224
168
255
224
168
255
224
168
255
224
168
255
224
168
255
224
168
255
224
168
255
224
168
255
224
168
255
224
168
255
224
168
255
224
168
255
224
168
255
224
168
255
224
168
255
224
168
255
224
168
255
224
168
255
224
168
255
224
168
255
224
168
255
224
168
255
224
168
255
224
168
255
224
168
255
224
168
255
224
168
255
224
168
255
224
168
255
224
168
255
224
168
255
224
168
255
224
168
255
224
168
255
224
168
255
224
168
255
224
168
255
224
168
255
224
168
255
224
168
255
224
168
255
224
168
255
224
168
255
224
168
255
224
168
255
224
168
255
224
168
255
224
168
255
224
168
255
224
168
255
224
168
255
224
168
255
224
168
255
224
168
255
224
168
255
224
168
255
224
168
255
224
168
255
224
168
255
224
168
255
224
168
255
224
168
255
224
168
255
224
168
255
224
168
255
224
168
255
224
168
255
224
168
255
224
168
255
224
168
255
224
168
255
224
168
255
224
168
255
224
168
255
224
168
255
224
168
255
224
168
255
224
168
255
224
168
255
224
168
255
224
168
255
224
168
255
224
168
255
224
168
255
224
168
255
224
168
255
224
168
255
224
168
255
224
168
255
224
168
255
224
168
255
224
168
255
224
168
255
224
168
255
224
168
255
224
168
255
224
168
255
224
168
255
224
168
255
224
168
255
224
168
255
224
168
255
224
168
255
224
168
255
224
168
255
224
168
255
224
168
255
224
168
255
224
168
255
224
168
255
224
168
255
224
168
255
224
168
255
224
168
255
224
168
255
224
168
255
224
168
255
224
168
255
224
168
255
224
168
255
224
168
255
224
168
255
224
168
255
224
168
255
224
168
255
224
168
255
224
168
255
224
168
255
224
168
255
224
168
255
224
168
255
224
168
255
224
168
255
224
168
255
224
168
255
160
68
255
160
68
255
224
168
255
224
168
255
224
168
255
224
168
255
224
168
255
224
168
255
224
168
255
224
168
255
224
168
255
224
168
255
224
168
255
224
168
255
224
168
255
224
168
255
224
168
255
224
168
255
224
168
255
224
168
255
224
168
255
224
168
255
224
168
255
224
168
255
224
168
255
224
168
255
224
168
255
224
168
255
224
168
255
224
168
255
224
168
255
224
168
255
224
168
255
224
168
255
224
168
255
224
168
255
224
168
255
224
168
255
160
68
255
160
68
255
160
68
248
56
0
255
160
68
255
160
68
248
56
0
248
56
0
248
56
0
255
224
168
255
224
168
255
224
168
255
224
168
255
224
168
255
224
168
255
224
168
255
224
168
255
224
168
255
224
168
255
224
168
255
224
168
255
224
168
255
224
168
255
224
168
255
224
168
255
224
168
255
224
168
255
224
168
255
224
168
255
224
168
255
224
168
255
224
168
255
224
168
255
224
168
255
224
168
255
224
168
255
224
168
255
224
168
255
224
168
255
224
168
255
224
168
255
224
168
255
224
168
255
224
168
255
224
168
255
224
168
255
224
168
255
224
168
255
224
168
255
224
168
255
224
168
255
160
68
255
160
68
255
160
68
248
56
0
255
160
68
255
160
68
248
56
0
248
56
0
248
56
0
255
224
168
255
224
168
255
224
168
255
224
168
255
224
168
255
224
168
255
224
168
255
224
168
255
224
168
255
224
168
255
224
168
255
224
168
255
224
168
255
224
168
255
224
168
255
224
168
255
224
168
255
160
68
255
160
68
255
160
68
248
56
0
255
160
68
255
160
68
248
56
0
248
56
0
248
56
0
255
224
168
255
224
168
255
224
168
255
224
168
255
224
168
255
224
168
255
224
168
255
224
168
255
224
168
255
224
168
255
224
168
255
224
168
255
224
168
255
224
168
255
224
168
255
224
168
255
160
68
255
160
68
255
160
68
248
56
0
255
160
68
255
160
68
248
56
0
248
56
0
248
56
0
255
224
168
255
224
168
255
224
168
255
224
168
255
224
168
255
224
168
255
224
168
255
224
168
255
224
168
255
224
168
255
224
168
255
224
168
255
224
168
255
224
168
255
224
168
255
160
68
255
160
68
255
160
68
248
56
0
255
160
68
255
160
68
248
56
0
248
56
0
248
56
0
255
224
168
255
224
168
255
224
168
255
224
168
255
224
168
255
224
168
255
224
168
255
224
168
255
224
168
255
224
168
255
224
168
255
224
168
255
224
168
255
224
168
255
224
168
255
224
168
255
160
68
255
160
68
255
160
68
248
56
0
255
160
68
255
160
68
248
56
0
248
56
0
248
56
0
255
224
168
255
224
168
255
224
168
255
224
168
255
224
168
255
224
168
255
224
168
255
224
168
255
224
168
255
224
168
255
224
168
255
224
168
255
224
168
255
224
168
255
224
168
255
224
168
255
224
168
255
224
168
255
224
168
255
160
68
255
160
68
255
160
68
248
56
0
255
160
68
255
160
68
248
56
0
248
56
0
248
56
0
255
224
168
255
224
168
255
224
168
255
224
168
255
224
168
255
224
168
255
224
168
255
224
168
255
224
168
255
224
168
255
224
168
255
224
168
255
224
168
255
224
168
255
224
168
255
224
168
255
224
168
255
224
168
255
224
168
255
224
168
255
224
168
248
56
0
248
56
0
248
56
0
255
160
68
255
160
68
248
56
0
255
160
68
255
160
68
255
160
68
255
224
168
255
224
168
255
224
168
255
224
168
255
224
168
255
224
168
255
224
168
255
224
168
255
224
168
255
224
168
255
224
168
255
224
168
255
224
168
255
224
168
255
224
168
255
224
168
255
224
168
255
224
168
255
224
168
248
56
0
248
56
0
248
56
0
255
160
68
255
160
68
248
56
0
255
160
68
255
160
68
255
160
68
255
224
168
255
224
168
255
224
168
255
224
168
255
224
168
255
224
168
255
224
168
255
224
168
255
224
168
255
224
168
255
224
168
255
224
168
255
224
168
255
224
168
255
224
168
255
224
168
248
56
0
248
56
0
248
56
0
255
160
68
255
160
68
248
56
0
255
160
68
255
160
68
255
160
68
255
224
168
255
224
168
255
224
168
255
224
168
255
224
168
255
224
168
255
224
168
255
224
168
255
224
168
255
224
168
255
224
168
255
224
168
255
224
168
255
224
168
255
224
168
248
56
0
248
56
0
248
56
0
255
160
68
255
160
68
248
56
0
255
160
68
255
160
68
255
160
68
255
224
168
255
224
168
255
224
168
255
224
168
255
224
168
255
224
168
255
224
168
255
224
168
255
224
168
255
224
168
255
224
168
255
224
168
255
224
168
255
224
168
255
224
168
255
224
168
248
56
0
248
56
0
248
56
0
255
160
68
255
160
68
248
56
0
255
160
68
255
160
68
255
160
68
255
224
168
255
224
168
255
224
168
255
224
168
255
224
168
255
224
168
255
224
168
255
224
168
255
224
168
255
224
168
255
224
168
255
224
168
255
224
168
255
224
168
255
224
168
255
224
168
255
224
168
248
56
0
248
56
0
248
56
0
255
160
68
255
160
68
248
56
0
255
160
68
255
160
68
255
160
68
255
224
168
255
224
168
255
224
168
255
224
168
255
224
168
255
224
168
255
224
168
255
224
168
255
224
168
255
224
168
255
224
168
255
224
168
255
224
168
255
224
168
255
224
168
255
224
168
255
224
168
255
224
168
255
224
168
255
224
168
255
224
168
255
224
168
255
224
168
255
224
168
255
224
168
255
224
168
255
224
168
255
224
168
255
224
168
255
224
168
255
224
168
255
224
168
255
224
168
255
224
168
255
224
168
255
224
168
255
224
168
255
224
168
255
224
168
255
224
168
255
224
168
255
224
168
248
56
0
248
56
0
248
56
0
255
160
68
255
160
68
248
56
0
255
160
68
255
160
68
255
160
68
255
224
168
255
224
168
255
224
168
255
224
168
255
224
168
255
224
168
255
160
68
255
160
68
255
160
68
255
160
68
248
56
0
248
56
0
255
160
68
255
160
68
248
56
0
255
160
68
255
160
68
248
56
0
255
224
168
255
224
168
255
224
168
255
224
168
255
224
168
255
224
168
255
224
168
255
224
168
255
224
168
255
224
168
255
224
168
255
224
168
255
224
168
255
224
168
255
224
168
255
224
168
255
224
168
255
160
68
255
160
68
255
160
68
248
56
0
255
160
68
255
160
68
248
56
0
248
56
0
248
56
0
255
224
168
255
224
168
255
224
168
255
224
168
255
224
168
255
224
168
255
224
168
255
224
168
255
224
168
255
224
168
255
224
168
255
224
168
255
224
168
255
160
68
255
160
68
255
160
68
255
160
68
248
56
0
248
56
0
255
160
68
255
160
68
248
56
0
255
160
68
255
160
68
248
56
0
255
224
168
255
224
168
255
224
168
255
224
168
255
224
168
255
224
168
255
224
168
255
224
168
255
224
168
255
224
168
255
224
168
255
224
168
255
224
168
255
224
168
255
160
68
255
160
68
255
160
68
255
160
68
248
56
0
248
56
0
255
160
68
255
160
68
248
56
0
255
160
68
255
160
68
248
56
0
255
224
168
255
224
168
255
224
168
255
224
168
255
224
168
255
224
168
255
224
168
255
224
168
255
224
168
255
224
168
255
224
168
255
224
168
255
224
168
255
160
68
255
160
68
255
160
68
255
160
68
248
56
0
248
56
0
255
160
68
255
160
68
248
56
0
255
160
68
255
160
68
248
56
0
255
224
168
255
224
168
255
224
168
255
224
168
255
224
168
255
224
168
255
224
168
255
224
168
255
224
168
255
224
168
255
224
168
255
224
168
255
160
68
255
160
68
255
160
68
255
160
68
248
56
0
248
56
0
255
160
68
255
160
68
248
56
0
255
160
68
255
160
68
248
56
0
255
224
168
255
224
168
255
224
168
255
224
168
255
224
168
255
224
168
255
224
168
255
224
168
255
224
168
255
224
168
255
224
168
255
224
168
255
224
168
255
160
68
255
160
68
255
160
68
255
160
68
248
56
0
248
56
0
255
160
68
255
160
68
248
56
0
255
160
68
255
160
68
248
56
0
255
224
168
255
224
168
255
224
168
255
224
168
255
224
168
255
224
168
255
224
168
255
224
168
255
224
168
255
224
168
255
224
168
255
224
168
255
224
168
255
224
168
255
224
168
255
224
168
255
160
68
255
160
68
255
160
68
255
160
68
248
56
0
248
56
0
255
160
68
255
160
68
248
56
0
255
160
68
255
160
68
248
56
0
255
224
168
255
224
168
255
224
168
255
224
168
255
224
168
255
224
168
255
224
168
255
224
168
255
224
168
255
224
168
255
224
168
255
224
168
255
224
168
255
224
168
255
224
168
255
224
168
255
224
168
255
224
168
255
224
168
248
56
0
255
160
68
255
160
68
248
56
0
255
160
68
255
160
68
248
56
0
248
56
0
255
160
68
255
160
68
255
160
68
255
160
68
255
224
168
255
224
168
255
224
168
255
224
168
255
224
168
255
224
168
255
224
168
255
224
168
255
224
168
255
224
168
255
224
168
255
224
168
255
224
168
255
224
168
255
224
168
255
224
168
248
56
0
255
160
68
255
160
68
248
56
0
255
160
68
255
160
68
248
56
0
248
56
0
255
160
68
255
160
68
255
160
68
255
160
68
255
224
168
255
224
168
255
224
168
255
224
168
255
224
168
255
224
168
255
224
168
255
224
168
255
224
168
255
224
168
255
224
168
255
224
168
255
224
168
248
56
0
255
160
68
255
160
68
248
56
0
255
160
68
255
160
68
248
56
0
248
56
0
255
160
68
255
160
68
255
160
68
255
160
68
255
224
168
255
224
168
255
224
168
255
224
168
255
224
168
255
224
168
255
224
168
255
224
168
255
224
168
255
224
168
255
224
168
255
224
168
248
56
0
255
160
68
255
160
68
248
56
0
255
160
68
255
160
68
248
56
0
248
56
0
255
160
68
255
160
68
255
160
68
255
160
68
255
224
168
255
224
168
255
224
168
255
224
168
255
224
168
255
224
168
255
224
168
255
224
168
255
224
168
255
224
168
255
224
168
255
224
168
255
224
168
248
56
0
255
160
68
255
160
68
248
56
0
255
160
68
255
160
68
248
56
0
248
56
0
255
160
68
255
160
68
255
160
68
255
160
68
255
224
168
255
224
168
255
224
168
255
224
168
255
224
168
255
224
168
255
224
168
255
224
168
255
224
168
255
224
168
255
224
168
255
224
168
255
224
168
255
224
168
248
56
0
255
160
68
255
160
68
248
56
0
255
160
68
255
160
68
248
56
0
248
56
0
255
160
68
255
160
68
255
160
68
255
160
68
255
224
168
255
224
168
255
224
168
255
224
168
255
224
168
255
224
168
255
224
168
255
224
168
255
224
168
255
224
168
255
224
168
255
224
168
255
224
168
248
56
0
248
56
0
248
56
0
255
160
68
255
160
68
248
56
0
255
160
68
255
160
68
255
160
68
255
224
168
255
224
168
255
224
168
255
224
168
255
224
168
255
224
168
255
224
168
255
224
168
255
224
168
255
224
168
255
224
168
255
224
168
255
224
168
255
224
168
255
224
168
255
224
168
255
224
168
248
56
0
255
160
68
255
160
68
248
56
0
255
160
68
255
160
68
248
56
0
248
56
0
255
160
68
255
160
68
255
160
68
255
160
68
255
224
168
255
224
168
255
224
168
255
160
68
255
160
68
255
160
68
255
160
68
255
160
68
255
160
68
255
160
68
255
160
68
248
56
0
248
56
0
255
160
68
255
160
68
248
56
0
255
224
168
255
224
168
255
224
168
255
224
168
255
224
168
255
224
168
255
224
168
255
224
168
255
224
168
255
224
168
255
224
168
255
224
168
255
224
168
255
224
168
255
224
168
255
160
68
255
160
68
255
160
68
255
160
68
248
56
0
248
56
0
255
160
68
255
160
68
248
56
0
255
160
68
255
160
68
248
56
0
255
224
168
255
224
168
255
224
168
255
224
168
255
224
168
255
224
168
255
224
168
255
224
168
255
224
168
255
224
168
255
224
168
255
160
68
255
160
68
255
160
68
255
160
68
255
160
68
255
160
68
255
160
68
255
160
68
248
56
0
248
56
0
255
160
68
255
160
68
248
56
0
255
224
168
255
224
168
255
224
168
255
224
168
255
224
168
255
224
168
255
224
168
255
224
168
255
224
168
255
224
168
255
224
168
255
224
168
255
224
168
255
160
68
255
160
68
255
160
68
255
160
68
255
160
68
255
160
68
255
160
68
255
160
68
248
56
0
248
56
0
255
160
68
255
160
68
248
56
0
255
224
168
255
224
168
255
224
168
255
224
168
255
224
168
255
224
168
255
224
168
255
224
168
255
224
168
255
224
168
255
224
168
255
224
168
255
160
68
255
160
68
255
160
68
255
160
68
255
160
68
255
160
68
255
160
68
255
160
68
248
56
0
248
56
0
255
160
68
255
160
68
248
56
0
255
224
168
255
224
168
255
224
168
255
224
168
255
224
168
255
224
168
255
224
168
255
224
168
255
224
168
255
224
168
255
224
168
255
160
68
255
160
68
255
160
68
255
160
68
255
160
68
255
160
68
255
160
68
255
160
68
248
56
0
248
56
0
255
160
68
255
160
68
248
56
0
255
224
168
255
224
168
255
224
168
255
224
168
255
224
168
255
224
168
255
224
168
255
224
168
255
224
168
255
224
168
255
224
168
255
224
168
255
160
68
255
160
68
255
160
68
255
160
68
255
160
68
255
160
68
255
160
68
255
160
68
248
56
0
248
56
0
255
160
68
255
160
68
248
56
0
255
224
168
255
224
168
255
224
168
255
224
168
255
224
168
255
224
168
255
224
168
255
224
168
255
224
168
255
224
168
255
224
168
255
224
168
255
224
168
255
224
168
255
224
168
255
160
68
255
160
68
255
160
68
255
160
68
255
160
68
255
160
68
255
160
68
255
160
68
248
56
0
248
56
0
255
160
68
255
160
68
248
56
0
255
224
168
255
224
168
255
224
168
255
224
168
255
224
168
255
224
168
255
224
168
255
224
168
255
224
168
255
224
168
255
224
168
255
224
168
255
224
168
255
224
168
255
224
168
255
224
168
255
224
168
255
224
168
255
224
168
248
56
0
255
160
68
255
160
68
248
56
0
248
56
0
255
160
68
255
160
68
255
160
68
255
160
68
255
160
68
255
160
68
255
160
68
255
160
68
255
224
168
255
224
168
255
224
168
255
224
168
255
224
168
255
224
168
255
224
168
255
224
168
255
224
168
255
224
168
255
224
168
255
224
168
255
224
168
255
224
168
255
224
168
248
56
0
255
160
68
255
160
68
248
56
0
248
56
0
255
160
68
255
160
68
255
160
68
255
160
68
255
160
68
255
160
68
255
160
68
255
160
68
255
224
168
255
224
168
255
224
168
255
224
168
255
224
168
255
224
168
255
224
168
255
224
168
255
224
168
255
224
168
255
224
168
255
224
168
248
56
0
255
160
68
255
160
68
248
56
0
248
56
0
255
160
68
255
160
68
255
160
68
255
160
68
255
160
68
255
160
68
255
160
68
255
160
68
255
224
168
255
224
168
255
224
168
255
224
168
255
224
168
255
224
168
255
224
168
255
224
168
255
224
168
255
224
168
255
224
168
248
56
0
255
160
68
255
160
68
248
56
0
248
56
0
255
160
68
255
160
68
255
160
68
255
160
68
255
160
68
255
160
68
255
160
68
255
160
68
255
224
168
255
224
168
255
224
168
255
224
168
255
224
168
255
224
168
255
224
168
255
224
168
255
224
168
255
224
168
255
224
168
255
224
168
248
56
0
255
160
68
255
160
68
248
56
0
248
56
0
255
160
68
255
160
68
255
160
68
255
160
68
255
160
68
255
160
68
255
160
68
255
160
68
255
224
168
255
224
168
255
224
168
255
224
168
255
224
168
255
224
168
255
224
168
255
224
168
255
224
168
255
224
168
255
224
168
255
224
168
255
224
168
248
56
0
255
160
68
255
160
68
248
56
0
248
56
0
255
160
68
255
160
68
255
160
68
255
160
68
255
160
68
255
160
68
255
160
68
255
160
68
255
224
168
255
224
168
255
224
168
255
224
168
255
224
168
255
224
168
255
224
168
255
224
168
255
224
168
255
224
168
255
224
168
248
56
0
255
160
68
255
160
68
248
56
0
255
160
68
255
160
68
248
56
0
248
56
0
255
160
68
255
160
68
255
160
68
255
160
68
255
224
168
255
224
168
255
224
168
255
224
168
255
224
168
255
224
168
255
224
168
255
224
168
255
224
168
255
224
168
255
224
168
255
224
168
255
224
168
255
224
168
255
224
168
248
56
0
255
160
68
255
160
68
248
56
0
248
56
0
255
160
68
255
160
68
255
160
68
255
160
68
255
160
68
255
160
68
255
160
68
255
160
68
255
224
168
255
224
168
255
160
68
255
160
68
255
160
68
255
160
68
248
56
0
255
160
68
255
160
68
255
160
68
248
56
0
248
56
0
255
160
68
255
160
68
248
56
0
248
56
0
255
224
168
255
224
168
255
224
168
255
224
168
255
224
168
255
224
168
255
224
168
255
224
168
255
224
168
255
224
168
255
224
168
255
224
168
255
224
168
255
160
68
255
160
68
255
160
68
255
160
68
255
160
68
255
160
68
255
160
68
255
160
68
248
56
0
248
56
0
255
160
68
255
160
68
248
56
0
255
224
168
255
224
168
255
224
168
255
224
168
255
224
168
255
224
168
255
224
168
255
224
168
255
224
168
255
224
168
255
224
168
255
160
68
255
160
68
255
160
68
255
160
68
248
56
0
255
160
68
255
160
68
255
160
68
248
56
0
248
56
0
255
160
68
255
160
68
248
56
0
248
56
0
255
224
168
255
224
168
255
224
168
255
224
168
255
224
168
255
224
168
255
224
168
255
224
168
255
224
168
255
224
168
255
224
168
255
224
168
255
160
68
255
160
68
255
160
68
255
160
68
248
56
0
255
160
68
255
160
68
255
160
68
248
56
0
248
56
0
255
160
68
255
160
68
248
56
0
248
56
0
255
224
168
255
224
168
255
224
168
255
224
168
255
224
168
255
224
168
255
224
168
255
224
168
255
224
168
255
224
168
255
224
168
255
160
68
255
160
68
255
160
68
255
160
68
248
56
0
255
160
68
255
160
68
255
160
68
248
56
0
248
56
0
255
160
68
255
160
68
248
56
0
248
56
0
255
224
168
255
224
168
255
224
168
255
224
168
255
224
168
255
224
168
255
224
168
255
224
168
255
224
168
255
224
168
255
160
68
255
160
68
255
160
68
255
160
68
248
56
0
255
160
68
255
160
68
255
160
68
248
56
0
248
56
0
255
160
68
255
160
68
248
56
0
248
56
0
255
224
168
255
224
168
255
224
168
255
224
168
255
224
168
255
224
168
255
224
168
255
224
168
255
224
168
255
224
168
255
224
168
255
160
68
255
160
68
255
160
68
255
160
68
248
56
0
255
160
68
255
160
68
255
160
68
248
56
0
248
56
0
255
160
68
255
160
68
248
56
0
248
56
0
255
224
168
255
224
168
255
224
168
255
224
168
255
224
168
255
224
168
255
224
168
255
224
168
255
224
168
255
224
168
255
224
168
255
224
168
255
224
168
255
224
168
255
160
68
255
160
68
255
160
68
255
160
68
248
56
0
255
160
68
255
160
68
255
160
68
248
56
0
248
56
0
255
160
68
255
160
68
248
56
0
248
56
0
255
224
168
255
224
168
255
224
168
255
224
168
255
224
168
255
224
168
255
224
168
255
224
168
255
224
168
255
224
168
255
224
168
255
224
168
255
224
168
255
224
168
255
224
168
255
224
168
255
224
168
248
56
0
248
56
0
255
160
68
255
160
68
248
56
0
248
56
0
255
160
68
255
160
68
255
160
68
248
56
0
255
160
68
255
160
68
255
160
68
255
160
68
255
224
168
255
224
168
255
224
168
255
224
168
255
224
168
255
224
168
255
224
168
255
224
168
255
224
168
255
224
168
255
224
168
255
224
168
255
224
168
255
224
168
248
56
0
248
56
0
255
160
68
255
160
68
248
56
0
248
56
0
255
160
68
255
160
68
255
160
68
248
56
0
255
160
68
255
160
68
255
160
68
255
160
68
255
224
168
255
224
168
255
224
168
255
224
168
255
224
168
255
224
168
255
224
168
255
224
168
255
224
168
255
224
168
255
224
168
248
56
0
248
56
0
255
160
68
255
160
68
248
56
0
248
56
0
255
160
68
255
160
68
255
160
68
248
56
0
255
160
68
255
160
68
255
160
68
255
160
68
255
224
168
255
224
168
255
224
168
255
224
168
255
224
168
255
224
168
255
224
168
255
224
168
255
224
168
255
224
168
248
56
0
248
56
0
255
160
68
255
160
68
248
56
0
248
56
0
255
160
68
255
160
68
255
160
68
248
56
0
255
160
68
255
160
68
255
160
68
255
160
68
255
224
168
255
224
168
255
224
168
255
224
168
255
224
168
255
224
168
255
224
168
255
224
168
255
224
168
255
224
168
255
224
168
248
56
0
248
56
0
255
160
68
255
160
68
248
56
0
248
56
0
255
160
68
255
160
68
255
160
68
248
56
0
255
160
68
255
160
68
255
160
68
255
160
68
255
224
168
255
224
168
255
224
168
255
224
168
255
224
168
255
224
168
255
224
168
255
224
168
255
224
168
255
224
168
255
224
168
255
224
168
248
56
0
248
56
0
255
160
68
255
160
68
248
56
0
248
56
0
255
160
68
255
160
68
255
160
68
248
56
0
255
160
68
255
160
68
255
160
68
255
160
68
255
224
168
255
224
168
255
224
168
255
224
168
255
224
168
255
224
168
255
224
168
255
224
168
255
224
168
255
224
168
255
224
168
248
56
0
255
160
68
255
160
68
248
56
0
248
56
0
255
160
68
255
160
68
255
160
68
255
160
68
255
160
68
255
160
68
255
160
68
255
160
68
255
224
168
255
224
168
255
224
168
255
224
168
255
224
168
255
224
168
255
224
168
255
224
168
255
224
168
255
224
168
255
224
168
255
224
168
255
224
168
248
56
0
248
56
0
255
160
68
255
160
68
248
56
0
248
56
0
255
160
68
255
160
68
255
160
68
248
56
0
255
160
68
255
160
68
255
160
68
255
160
68
255
224
168
255
224
168
255
224
168
248
56
0
248
56
0
248
56
0
248
56
0
248
56
0
248
56
0
255
160
68
255
160
68
255
160
68
255
160
68
255
160
68
248
56
0
248
56
0
255
224
168
255
224
168
255
224
168
255
224
168
255
224
168
255
224
168
255
224
168
255
224
168
255
224
168
255
224
168
255
224
168
255
224
168
255
224
168
255
160
68
255
160
68
255
160
68
255
160
68
248
56
0
255
160
68
255
160
68
255
160
68
248
56
0
248
56
0
255
160
68
255
160
68
248
56
0
248
56
0
255
224
168
255
224
168
255
224
168
255
224
168
255
224
168
255
224
168
255
224
168
255
224
168
255
224
168
255
224
168
255
224
168
248
56
0
248
56
0
248
56
0
248
56
0
248
56
0
248
56
0
255
160
68
255
160
68
255
160
68
255
160
68
255
160
68
248
56
0
248
56
0
255
224
168
255
224
168
255
224
168
255
224
168
255
224
168
255
224
168
255
224
168
255
224
168
255
224
168
255
224
168
255
224
168
255
224
168
255
224
168
248
56
0
248
56
0
248
56
0
248
56
0
248
56
0
248
56
0
255
160
68
255
160
68
255
160
68
255
160
68
255
160
68
248
56
0
248
56
0
255
224
168
255
224
168
255
224
168
255
224
168
255
224
168
255
224
168
255
224
168
255
224
168
255
224
168
255
224
168
255
224
168
255
224
168
248
56
0
248
56
0
248
56
0
248
56
0
248
56
0
248
56
0
255
160
68
255
160
68
255
160
68
255
160
68
255
160
68
248
56
0
248
56
0
255
224
168
255
224
168
255
224
168
255
224
168
255
224
168
255
224
168
255
224
168
255
224
168
255
224
168
255
224
168
255
224
168
248
56
0
248
56
0
248
56
0
248
56
0
248
56
0
248
56
0
255
160
68
255
160
68
255
160
68
255
160
68
255
160
68
248
56
0
248
56
0
255
224
168
255
224
168
255
224
168
255
224
168
255
224
168
255
224
168
255
224
168
255
224
168
255
224
168
255
224
168
255
224
168
255
224
168
248
56
0
248
56
0
248
56
0
248
56
0
248
56
0
248
56
0
255
160
68
255
160
68
255
160
68
255
160
68
255
160
68
248
56
0
248
56
0
255
224
168
255
224
168
255
224
168
255
224
168
255
224
168
255
224
168
255
224
168
255
224
168
255
224
168
255
224
168
255
224
168
255
224
168
255
224
168
255
224
168
255
224
168
248
56
0
248
56
0
248
56
0
248
56
0
248
56
0
248
56
0
255
160
68
255
160
68
255
160
68
255
160
68
255
160
68
248
56
0
248
56
0
255
224
168
255
224
168
255
224
168
255
224
168
255
224
168
255
224
168
255
224
168
255
224
168
255
224
168
255
224
168
255
224
168
255
224
168
255
224
168
255
224
168
255
224
168
255
224
168
255
224
168
248
56
0
248
56
0
255
160
68
255
160
68
255
160
68
255
160
68
255
160
68
248
56
0
248
56
0
248
56
0
248
56
0
248
56
0
248
56
0
255
224
168
255
224
168
255
224
168
255
224
168
255
224
168
255
224
168
255
224
168
255
224
168
255
224
168
255
224
168
255
224
168
255
224
168
255
224
168
255
224
168
255
224
168
248
56
0
248
56
0
255
160
68
255
160
68
255
160
68
255
160
68
255
160
68
248
56
0
248
56
0
248
56
0
248
56
0
248
56
0
248
56
0
255
224
168
255
224
168
255
224
168
255
224
168
255
224
168
255
224
168
255
224
168
255
224
168
255
224
168
255
224
168
255
224
168
255
224
168
248
56
0
248
56
0
255
160
68
255
160
68
255
160
68
255
160
68
255
160
68
248
56
0
248
56
0
248
56
0
248
56
0
248
56
0
248
56
0
255
224
168
255
224
168
255
224
168
255
224
168
255
224
168
255
224
168
255
224
168
255
224
168
255
224
168
255
224
168
255
224
168
248
56
0
248
56
0
255
160
68
255
160
68
255
160
68
255
160
68
255
160
68
248
56
0
248
56
0
248
56
0
248
56
0
248
56
0
248
56
0
255
224
168
255
224
168
255
224
168
255
224
168
255
224
168
255
224
168
255
224
168
255
224
168
255
224
168
255
224
168
255
224
168
255
224
168
248
56
0
248
56
0
255
160
68
255
160
68
255
160
68
255
160
68
255
160
68
248
56
0
248
56
0
248
56
0
248
56
0
248
56
0
248
56
0
255
224
168
255
224
168
255
224
168
255
224
168
255
224
168
255
224
168
255
224
168
255
224
168
255
224
168
255
224
168
255
224
168
255
224
168
255
224
168
248
56
0
248
56
0
255
160
68
255
160
68
255
160
68
255
160
68
255
160
68
248
56
0
248
56
0
248
56
0
248
56
0
248
56
0
248
56
0
255
224
168
255
224
168
255
224
168
255
224
168
255
224
168
255
224
168
255
224
168
255
224
168
255
224
168
255
224
168
255
224
168
248
56
0
248
56
0
255
160
68
255
160
68
248
56
0
248
56
0
255
160
68
255
160
68
255
160
68
248
56
0
255
160
68
255
160
68
255
160
68
255
160
68
255
224
168
255
224
168
255
224
168
255
224
168
255
224
168
255
224
168
255
224
168
255
224
168
255
224
168
255
224
168
255
224
168
255
224
168
255
224
168
248
56
0
248
56
0
255
160
68
255
160
68
255
160
68
255
160
68
255
160
68
248
56
0
248
56
0
248
56
0
248
56
0
248
56
0
248
56
0
255
224
168
255
224
168
255
224
168
255
160
68
255
160
68
255
160
68
255
160
68
248
56
0
248
56
0
255
160
68
255
160
68
255
160
68
255
160
68
255
160
68
248
56
0
248
56
0
255
224
168
255
224
168
255
224
168
255
224
168
255
224
168
255
224
168
255
224
168
255
224
168
255
224
168
255
224
168
255
224
168
255
224
168
255
224
168
255
224
168
255
224
168
248
56
0
248
56
0
248
56
0
248
56
0
248
56
0
248
56
0
255
160
68
255
160
68
255
160
68
255
160
68
255
160
68
248
56
0
248
56
0
255
224
168
255
224
168
255
224
168
255
224
168
255
224
168
255
224
168
255
224
168
255
224
168
255
224
168
255
224
168
255
224
168
248
56
0
248
56
0
248
56
0
248
56
0
248
56
0
255
160
68
255
160
68
255
160
68
255
160
68
255
160
68
248
56
0
248
56
0
255
224
168
255
224
168
255
224
168
255
224
168
255
224
168
255
224
168
255
224
168
255
224
168
255
224
168
255
224
168
255
224
168
255
224
168
255
224
168
255
224
168
248
56
0
248
56
0
248
56
0
248
56
0
248
56
0
255
160
68
255
160
68
255
160
68
255
160
68
255
160
68
248
56
0
248
56
0
255
224
168
255
224
168
255
224
168
255
224
168
255
224
168
255
224
168
255
224
168
255
224
168
255
224
168
255
224
168
255
224
168
255
224
168
255
160
68
255
160
68
255
160
68
255
160
68
248
56
0
248
56
0
255
160
68
255
160
68
255
160
68
255
160
68
255
160
68
248
56
0
248
56
0
255
224
168
255
224
168
255
224
168
255
224
168
255
224
168
255
224
168
255
224
168
255
224
168
255
224
168
255
224
168
255
224
168
255
224
168
248
56
0
248
56
0
248
56
0
248
56
0
248
56
0
255
160
68
255
160
68
255
160
68
255
160
68
255
160
68
248
56
0
248
56
0
255
224
168
255
224
168
255
224
168
255
224
168
255
224
168
255
224
168
255
224
168
255
224
168
255
224
168
255
224
168
255
224
168
255
224
168
255
224
168
248
56
0
248
56
0
248
56
0
248
56
0
248
56
0
255
160
68
255
160
68
255
160
68
255
160
68
255
160
68
248
56
0
248
56
0
255
224
168
255
224
168
255
224
168
255
224
168
255
224
168
255
224
168
255
224
168
255
224
168
255
224
168
255
224
168
255
224
168
255
224
168
255
224
168
255
224
168
255
224
168
255
160
68
255
160
68
255
160
68
255
160
68
248
56
0
248
56
0
255
160
68
255
160
68
255
160
68
255
160
68
255
160
68
248
56
0
248
56
0
255
224
168
255
224
168
255
224
168
255
224
168
255
224
168
255
224
168
255
224
168
255
224
168
255
224
168
255
224
168
255
224
168
255
224
168
255
224
168
255
224
168
255
224
168
255
224
168
255
224
168
255
224
168
255
224
168
248
56
0
248
56
0
255
160
68
255
160
68
255
160
68
255
160
68
255
160
68
248
56
0
248
56
0
255
160
68
255
160
68
255
160
68
255
160
68
255
224
168
255
224
168
255
224
168
255
224
168
255
224
168
255
224
168
255
224
168
255
224
168
255
224
168
255
224
168
255
224
168
255
224
168
255
224
168
255
224
168
255
224
168
248
56
0
248
56
0
255
160
68
255
160
68
255
160
68
255
160
68
255
160
68
248
56
0
248
56
0
248
56
0
248
56
0
248
56
0
255
224
168
255
224
168
255
224
168
255
224
168
255
224
168
255
224
168
255
224
168
255
224
168
255
224
168
255
224
168
255
224
168
255
224
168
255
224
168
248
56
0
248
56
0
255
160
68
255
160
68
255
160
68
255
160
68
255
160
68
248
56
0
248
56
0
248
56
0
248
56
0
248
56
0
255
224
168
255
224
168
255
224
168
255
224
168
255
224
168
255
224
168
255
224
168
255
224
168
255
224
168
255
224
168
255
224
168
255
224
168
248
56
0
248
56
0
255
160
68
255
160
68
255
160
68
255
160
68
255
160
68
248
56
0
248
56
0
255
160
68
255
160
68
255
160
68
255
160
68
255
224
168
255
224
168
255
224
168
255
224
168
255
224
168
255
224
168
255
224
168
255
224
168
255
224
168
255
224
168
255
224
168
255
224
168
248
56
0
248
56
0
255
160
68
255
160
68
255
160
68
255
160
68
255
160
68
248
56
0
248
56
0
248
56
0
248
56
0
248
56
0
255
224
168
255
224
168
255
224
168
255
224
168
255
224
168
255
224
168
255
224
168
255
224
168
255
224
168
255
224
168
255
224
168
255
224
168
255
224
168
255
224
168
248
56
0
248
56
0
255
160
68
255
160
68
255
160
68
255
160
68
255
160
68
248
56
0
248
56
0
248
56
0
248
56
0
248
56
0
255
224
168
255
224
168
255
224
168
255
224
168
255
224
168
255
224
168
255
224
168
255
224
168
255
224
168
255
224
168
255
224
168
248
56
0
248
56
0
255
160
68
255
160
68
255
160
68
255
160
68
255
160
68
248
56
0
248
56
0
248
56
0
248
56
0
248
56
0
248
56
0
255
224
168
255
224
168
255
224
168
255
224
168
255
224
168
255
224
168
255
224
168
255
224
168
255
224
168
255
224
168
255
224
168
255
224
168
255
224
168
255
224
168
255
224
168
248
56
0
248
56
0
255
160
68
255
160
68
255
160
68
255
160
68
255
160
68
248
56
0
248
56
0
255
160
68
255
160
68
255
160
68
255
160
68
255
224
168
255
224
168
255
224
168
255
160
68
255
160
68
255
160
68
255
160
68
248
56
0
248
56
0
248
56
0
255
160
68
255
160
68
248
56
0
255
224
168
255
224
168
255
224
168
255
224
168
255
224
168
255
224
168
255
224
168
255
224
168
255
224
168
255
224
168
255
224
168
255
224
168
255
224
168
255
224
168
255
224
168
255
224
168
255
224
168
248
56
0
248
56
0
248
56
0
248
56
0
248
56
0
255
160
68
255
160
68
255
160
68
255
160
68
255
160
68
248
56
0
248
56
0
255
224
168
255
224
168
255
224
168
255
224
168
255
224
168
255
224
168
255
224
168
255
224
168
255
224
168
255
224
168
255
224
168
255
224
168
255
224
168
255
160
68
255
160
68
255
160
68
255
160
68
255
160
68
255
160
68
255
160
68
255
160
68
248
56
0
255
224
168
255
224
168
255
224
168
255
224
168
255
224
168
255
224
168
255
224
168
255
224
168
255
224
168
255
224
168
255
224
168
255
224
168
255
224
168
255
224
168
255
224
168
255
224
168
255
224
168
255
160
68
255
160
68
255
160
68
255
160
68
255
160
68
255
160
68
255
160
68
255
160
68
248
56
0
255
224
168
255
224
168
255
224
168
255
224
168
255
224
168
255
224
168
255
224
168
255
224
168
255
224
168
255
224
168
255
224
168
255
224
168
255
224
168
255
224
168
255
224
168
255
160
68
255
160
68
255
160
68
255
160
68
248
56
0
248
56
0
248
56
0
255
160
68
255
160
68
248
56
0
255
224
168
255
224
168
255
224
168
255
224
168
255
224
168
255
224
168
255
224
168
255
224
168
255
224
168
255
224
168
255
224
168
255
224
168
255
224
168
255
224
168
255
224
168
255
160
68
255
160
68
255
160
68
255
160
68
255
160
68
255
160
68
255
160
68
255
160
68
248
56
0
255
224
168
255
224
168
255
224
168
255
224
168
255
224
168
255
224
168
255
224
168
255
224
168
255
224
168
255
224
168
255
224
168
255
224
168
255
224
168
255
224
168
255
224
168
255
224
168
255
160
68
255
160
68
255
160
68
255
160
68
255
160
68
255
160
68
255
160
68
255
160
68
248
56
0
255
224
168
255
224
168
255
224
168
255
224
168
255
224
168
255
224
168
255
224
168
255
224
168
255
224
168
255
224
168
255
224
168
255
224
168
255
224
168
255
224
168
255
224
168
255
224
168
255
224
168
255
224
168
255
160
68
255
160
68
255
160
68
255
160
68
248
56
0
248
56
0
248
56
0
255
160
68
255
160
68
248
56
0
255
224
168
255
224
168
255
224
168
255
224
168
255
224
168
255
224
168
255
224
168
255
224
168
255
224
168
255
224
168
255
224
168
255
224
168
255
224
168
255
224
168
255
224
168
255
224
168
255
224
168
255
224
168
255
224
168
255
224
168
255
224
168
255
224
168
255
224
168
248
56
0
255
160
68
255
160
68
248
56
0
248
56
0
248
56
0
255
160
68
255
160
68
255
160
68
255
160
68
255
224
168
255
224
168
255
224
168
255
224
168
255
224
168
255
224
168
255
224
168
255
224
168
255
224
168
255
224
168
255
224
168
255
224
168
255
224
168
255
224
168
255
224
168
255
224
168
255
224
168
255
224
168
248
56
0
255
160
68
255
160
68
255
160
68
255
160
68
255
160
68
255
160
68
255
160
68
255
160
68
255
224
168
255
224
168
255
224
168
255
224
168
255
224
168
255
224
168
255
224
168
255
224
168
255
224
168
255
224
168
255
224
168
255
224
168
255
224
168
255
224
168
255
224
168
255
224
168
248
56
0
255
160
68
255
160
68
255
160
68
255
160
68
255
160
68
255
160
68
255
160
68
255
160
68
255
224
168
255
224
168
255
224
168
255
224
168
255
224
168
255
224
168
255
224
168
255
224
168
255
224
168
255
224
168
255
224
168
255
224
168
255
224
168
255
224
168
255
224
168
248
56
0
255
160
68
255
160
68
248
56
0
248
56
0
248
56
0
255
160
68
255
160
68
255
160
68
255
160
68
255
224
168
255
224
168
255
224
168
255
224
168
255
224
168
255
224
168
255
224
168
255
224
168
255
224
168
255
224
168
255
224
168
255
224
168
255
224
168
255
224
168
255
224
168
248
56
0
255
160
68
255
160
68
255
160
68
255
160
68
255
160
68
255
160
68
255
160
68
255
160
68
255
224
168
255
224
168
255
224
168
255
224
168
255
224
168
255
224
168
255
224
168
255
224
168
255
224
168
255
224
168
255
224
168
255
224
168
255
224
168
255
224
168
255
224
168
255
224
168
255
224
168
248
56
0
255
160
68
255
160
68
255
160
68
255
160
68
255
160
68
255
160
68
255
160
68
255
160
68
255
224
168
255
224
168
255
224
168
255
224
168
255
224
168
255
224
168
255
224
168
255
224
168
255
224
168
255
224
168
255
224
168
255
224
168
255
224
168
248
56
0
248
56
0
255
160
68
255
160
68
255
160
68
255
160
68
255
160
68
248
56
0
248
56
0
248
56
0
248
56
0
248
56
0
255
224
168
255
224
168
255
224
168
255
224
168
255
224
168
255
224
168
255
224
168
255
224
168
255
224
168
255
224
168
255
224
168
255
224
168
255
224
168
255
224
168
255
224
168
255
224
168
255
224
168
248
56
0
255
160
68
255
160
68
248
56
0
248
56
0
248
56
0
255
160
68
255
160
68
255
160
68
255
160
68
255
224
168
255
224
168
255
224
168
255
224
168
255
224
168
255
160
68
255
160
68
248
56
0
248
56
0
248
56
0
248
56
0
248
56
0
255
224
168
255
224
168
248
56
0
255
224
168
255
224
168
255
224
168
255
224
168
255
224
168
255
224
168
255
224
168
255
224
168
255
224
168
255
224
168
255
224
168
255
224
168
255
224
168
255
224
168
255
224
168
255
224
168
255
224
168
255
160
68
255
160
68
255
160
68
255
160
68
255
160
68
255
160
68
255
160
68
255
160
68
248
56
0
255
224
168
255
224
168
255
224
168
255
224
168
255
224
168
255
224
168
255
224
168
255
224
168
255
224
168
255
224
168
255
224
168
255
224
168
255
224
168
255
224
168
255
224
168
255
224
168
255
224
168
255
224
168
255
160
68
255
160
68
255
160
68
255
224
168
255
224
168
255
224
168
248
56
0
255
224
168
255
224
168
255
224
168
255
224
168
255
224
168
255
224
168
255
224
168
255
224
168
255
224
168
255
224
168
255
224
168
255
224
168
255
224
168
255
224
168
255
224
168
255
224
168
255
224
168
255
224
168
255
224
168
255
160
68
255
160
68
255
160
68
255
224
168
255
224
168
255
224
168
248
56
0
255
224
168
255
224
168
255
224
168
255
224
168
255
224
168
255
224
168
255
224
168
255
224
168
255
224
168
255
224
168
255
224
168
255
224
168
255
224
168
255
224
168
255
224
168
255
160
68
255
160
68
248
56
0
248
56
0
248
56
0
248
56
0
248
56
0
255
224
168
255
224
168
248
56
0
255
224
168
255
224
168
255
224
168
255
224
168
255
224
168
255
224
168
255
224
168
255
224
168
255
224
168
255
224
168
255
224
168
255
224
168
255
224
168
255
224
168
255
224
168
255
224
168
255
224
168
255
160
68
255
160
68
255
160
68
255
224
168
255
224
168
255
224
168
248
56
0
255
224
168
255
224
168
255
224
168
255
224
168
255
224
168
255
224
168
255
224
168
255
224
168
255
224
168
255
224
168
255
224
168
255
224
168
255
224
168
255
224
168
255
224
168
255
224
168
255
224
168
255
224
168
255
160
68
255
160
68
255
160
68
255
224
168
255
224
168
255
224
168
248
56
0
255
224
168
255
224
168
255
224
168
255
224
168
255
224
168
255
224
168
255
224
168
255
224
168
255
224
168
255
224
168
255
224
168
255
224
168
255
224
168
255
224
168
255
224
168
255
224
168
255
224
168
255
224
168
255
160
68
255
160
68
248
56
0
248
56
0
248
56
0
248
56
0
248
56
0
255
224
168
255
224
168
248
56
0
255
224
168
255
224
168
255
224
168
255
224
168
255
224
168
255
224
168
255
224
168
255
224
168
255
224
168
255
224
168
255
224
168
255
224
168
255
224
168
255
224
168
255
224
168
255
224
168
255
224
168
255
224
168
255
224
168
255
224
168
255
224
168
248
56
0
255
224
168
255
224
168
248
56
0
248
56
0
248
56
0
248
56
0
248
56
0
255
160
68
255
160
68
255
224
168
255
224
168
255
224
168
255
224
168
255
224
168
255
224
168
255
224
168
255
224
168
255
224
168
255
224
168
255
224
168
255
224
168
255
224
168
255
224
168
255
224
168
255
224
168
255
224
168
255
224
168
248
56
0
255
224
168
255
224
168
255
224
168
255
160
68
255
160
68
255
160
68
255
224
168
255
224
168
255
224
168
255
224
168
255
224
168
255
224
168
255
224
168
255
224
168
255
224
168
255
224
168
255
224
168
255
224
168
255
224
168
255
224
168
255
224
168
255
224
168
255
224
168
255
224
168
248
56
0
255
224
168
255
224
168
255
224
168
255
160
68
255
160
68
255
160
68
255
224
168
255
224
168
255
224
168
255
224
168
255
224
168
255
224
168
255
224
168
255
224
168
255
224
168
255
224
168
255
224
168
255
224
168
255
224
168
255
224
168
255
224
168
255
224
168
255
224
168
248
56
0
255
224
168
255
224
168
248
56
0
248
56
0
248
56
0
248
56
0
248
56
0
255
160
68
255
160
68
255
224
168
255
224
168
255
224
168
255
224
168
255
224
168
255
224
168
255
224
168
255
224
168
255
224
168
255
224
168
255
224
168
255
224
168
255
224
168
255
224
168
255
224
168
248
56
0
255
224
168
255
224
168
255
224
168
255
160
68
255
160
68
255
160
68
255
224
168
255
224
168
255
224
168
255
224
168
255
224
168
255
224
168
255
224
168
255
224
168
255
224
168
255
224
168
255
224
168
255
224
168
255
224
168
255
224
168
255
224
168
255
224
168
255
224
168
255
224
168
255
224
168
248
56
0
255
224
168
255
224
168
255
224
168
255
160
68
255
160
68
255
160
68
255
224
168
255
224
168
255
224
168
255
224
168
255
224
168
255
224
168
255
224
168
255
224
168
255
224
168
255
224
168
255
224
168
255
224
168
255
224
168
255
224
168
255
224
168
255
224
168
255
224
168
255
224
168
248
56
0
255
160
68
255
160
68
255
160
68
255
160
68
255
160
68
255
160
68
255
160
68
255
160
68
255
224
168
255
224
168
255
224
168
255
224
168
255
224
168
255
224
168
255
224
168
255
224
168
255
224
168
255
224
168
255
224
168
255
224
168
255
224
168
255
224
168
255
224
168
255
224
168
255
224
168
248
56
0
255
224
168
255
224
168
248
56
0
248
56
0
248
56
0
248
56
0
248
56
0
255
160
68
255
160
68
255
224
168
255
224
168
255
224
168
255
224
168
255
224
168
255
224
168
255
224
168
255
160
68
248
56
0
248
56
0
248
56
0
248
56
0
248
56
0
248
56
0
255
224
168
255
224
168
248
56
0
255
224
168
255
224
168
255
224
168
255
224
168
255
224
168
255
224
168
255
224
168
255
224
168
255
224
168
255
224
168
255
224
168
255
224
168
255
224
168
255
224
168
255
224
168
255
224
168
255
224
168
255
224
168
255
224
168
255
160
68
255
160
68
255
160
68
255
224
168
255
224
168
255
224
168
248
56
0
255
224
168
255
224
168
255
224
168
255
224
168
255
224
168
255
224
168
255
224
168
255
224
168
255
224
168
255
224
168
255
224
168
255
224
168
255
224
168
255
224
168
255
224
168
255
224
168
255
224
168
255
224
168
248
56
0
255
224
168
248
56
0
248
56
0
248
56
0
255
224
168
248
56
0
255
224
168
255
224
168
255
224
168
255
224
168
255
224
168
255
224
168
255
224
168
255
224
168
255
224
168
255
224
168
255
224
168
255
224
168
255
224
168
255
224
168
255
224
168
255
224
168
255
224
168
255
224
168
255
224
168
248
56
0
255
224
168
248
56
0
248
56
0
248
56
0
255
224
168
248
56
0
255
224
168
255
224
168
255
224
168
255
224
168
255
224
168
255
224
168
255
224
168
255
224
168
255
224
168
255
224
168
255
224
168
255
224
168
255
224
168
255
224
168
255
224
168
255
160
68
248
56
0
248
56
0
248
56
0
248
56
0
248
56
0
248
56
0
255
224
168
255
224
168
248
56
0
255
224
168
255
224
168
255
224
168
255
224
168
255
224
168
255
224
168
255
224
168
255
224
168
255
224
168
255
224
168
255
224
168
255
224
168
255
224
168
255
224
168
255
224
168
255
224
168
255
224
168
248
56
0
255
224
168
248
56
0
248
56
0
248
56
0
255
224
168
248
56
0
255
224
168
255
224
168
255
224
168
255
224
168
255
224
168
255
224
168
255
224
168
255
224
168
255
224
168
255
224
168
255
224
168
255
224
168
255
224
168
255
224
168
255
224
168
255
224
168
255
224
168
255
224
168
248
56
0
255
224
168
248
56
0
248
56
0
248
56
0
255
224
168
248
56
0
255
224
168
255
224
168
255
224
168
255
224
168
255
224
168
255
224
168
255
224
168
255
224
168
255
224
168
255
224
168
255
224
168
255
224
168
255
224
168
255
224
168
255
224
168
255
224
168
255
224
168
255
224
168
255
160
68
248
56
0
248
56
0
248
56
0
248
56
0
248
56
0
248
56
0
255
224
168
255
224
168
248
56
0
255
224
168
255
224
168
255
224
168
255
224
168
255
224
168
255
224
168
255
224
168
255
224
168
255
224
168
255
224
168
255
224
168
255
224
168
255
224
168
255
224
168
255
224
168
255
224
168
255
224
168
255
224
168
255
224
168
248
56
0
255
224
168
255
224
168
248
56
0
248
56
0
248
56
0
248
56
0
248
56
0
248
56
0
255
160
68
255
224
168
255
224
168
255
224
168
255
224
168
255
224
168
255
224
168
255
224
168
255
224
168
255
224
168
255
224
168
255
224
168
255
224
168
255
224
168
255
224
168
255
224
168
255
224
168
255
224
168
255
224
168
248
56
0
255
224
168
248
56
0
248
56
0
248
56
0
255
224
168
248
56
0
255
224
168
255
224
168
255
224
168
255
224
168
255
224
168
255
224
168
255
224
168
255
224
168
255
224
168
255
224
168
255
224
168
255
224
168
255
224
168
255
224
168
255
224
168
255
224
168
255
224
168
255
224
168
248
56
0
255
224
168
248
56
0
248
56
0
248
56
0
255
224
168
248
56
0
255
224
168
255
224
168
255
224
168
255
224
168
255
224
168
255
224
168
255
224
168
255
224
168
255
224
168
255
224
168
255
224
168
255
224
168
255
224
168
255
224
168
255
224
168
255
224
168
255
224
168
248
56
0
255
224
168
255
224
168
248
56
0
248
56
0
248
56
0
248
56
0
248
56
0
248
56
0
255
160
68
255
224
168
255
224
168
255
224
168
255
224
168
255
224
168
255
224
168
255
224
168
255
224
168
255
224
168
255
224
168
255
224
168
255
224
168
255
224
168
255
224
168
255
224
168
248
56
0
255
224
168
248
56
0
248
56
0
248
56
0
255
224
168
248
56
0
255
224
168
255
224
168
255
224
168
255
224
168
255
224
168
255
224
168
255
224
168
255
224
168
255
224
168
255
224
168
255
224
168
255
224
168
255
224
168
255
224
168
255
224
168
255
224
168
255
224
168
255
224
168
255
224
168
248
56
0
255
224
168
248
56
0
248
56
0
248
56
0
255
224
168
248
56
0
255
224
168
255
224
168
255
224
168
255
224
168
255
224
168
255
224
168
255
224
168
255
224
168
255
224
168
255
224
168
255
224
168
255
224
168
255
224
168
255
224
168
255
224
168
255
224
168
255
224
168
255
224
168
248
56
0
255
224
168
255
224
168
255
224
168
255
160
68
255
160
68
255
160
68
255
224
168
255
224
168
255
224
168
255
224
168
255
224
168
255
224
168
255
224
168
255
224
168
255
224
168
255
224
168
255
224
168
255
224
168
255
224
168
255
224
168
255
224
168
255
224
168
255
224
168
255
224
168
255
224
168
248
56
0
255
224
168
255
224
168
248
56
0
248
56
0
248
56
0
248
56
0
248
56
0
248
56
0
255
160
68
255
224
168
255
224
168
255
224
168
255
224
168
255
224
168
255
224
168
255
224
168
255
224
168
255
224
168
255
224
168
248
56
0
248
56
0
248
56
0
248
56
0
248
56
0
248
56
0
255
224
168
248
56
0
255
224
168
255
224
168
255
224
168
255
224
168
255
224
168
255
224
168
255
224
168
255
224
168
255
224
168
255
224
168
255
224
168
255
224
168
255
224
168
255
224
168
255
224
168
255
224
168
255
224
168
255
224
168
255
224
168
255
224
168
248
56
0
255
224
168
248
56
0
248
56
0
248
56
0
255
224
168
248
56
0
255
224
168
255
224
168
255
224
168
255
224
168
255
224
168
255
224
168
255
224
168
255
224
168
255
224
168
255
224
168
255
224
168
255
224
168
255
224
168
255
224
168
255
224
168
255
224
168
248
56
0
255
224
168
248
56
0
248
56
0
248
56
0
248
56
0
255
224
168
248
56
0
255
224
168
255
224
168
255
224
168
255
224
168
255
224
168
255
224
168
255
224
168
255
224
168
255
224
168
255
224
168
255
224
168
255
224
168
255
224
168
255
224
168
255
224
168
255
224
168
255
224
168
255
224
168
248
56
0
255
224
168
248
56
0
248
56
0
248
56
0
248
56
0
255
224
168
248
56
0
255
224
168
255
224
168
255
224
168
255
224
168
255
224
168
255
224
168
255
224
168
255
224
168
255
224
168
255
224
168
255
224
168
255
224
168
255
224
168
255
224
168
255
224
168
255
224
168
255
224
168
248
56
0
248
56
0
248
56
0
248
56
0
248
56
0
248
56
0
255
224
168
248
56
0
255
224
168
255
224
168
255
224
168
255
224
168
255
224
168
255
224
168
255
224
168
255
224
168
255
224
168
255
224
168
255
224
168
255
224
168
255
224
168
255
224
168
255
224
168
255
224
168
248
56
0
255
224
168
248
56
0
248
56
0
248
56
0
248
56
0
255
224
168
248
56
0
255
224
168
255
224
168
255
224
168
255
224
168
255
224
168
255
224
168
255
224
168
255
224
168
255
224
168
255
224
168
255
224
168
255
224
168
255
224
168
255
224
168
255
224
168
255
224
168
255
224
168
248
56
0
255
224
168
248
56
0
248
56
0
248
56
0
248
56
0
255
224
168
248
56
0
255
224
168
255
224
168
255
224
168
255
224
168
255
224
168
255
224
168
255
224
168
255
224
168
255
224
168
255
224
168
255
224
168
255
224
168
255
224
168
255
224
168
255
224
168
255
224
168
255
224
168
255
224
168
255
224
168
255
224
168
248
56
0
248
56
0
248
56
0
248
56
0
248
56
0
248
56
0
255
224
168
248
56
0
255
224
168
255
224
168
255
224
168
255
224
168
255
224
168
255
224
168
255
224
168
255
224
168
255
224
168
255
224
168
255
224
168
255
224
168
255
224
168
255
224
168
255
224
168
255
224
168
255
224
168
255
224
168
255
224
168
248
56
0
255
224
168
248
56
0
248
56
0
248
56
0
248
56
0
248
56
0
248
56
0
255
224
168
255
224
168
255
224
168
255
224
168
255
224
168
255
224
168
255
224
168
255
224
168
255
224
168
255
224
168
255
224
168
255
224
168
255
224
168
255
224
168
255
224
168
255
224
168
255
224
168
255
224
168
255
224
168
255
224
168
248
56
0
255
224
168
248
56
0
248
56
0
248
56
0
248
56
0
255
224
168
248
56
0
255
224
168
255
224
168
255
224
168
255
224
168
255
224
168
255
224
168
255
224
168
255
224
168
255
224
168
255
224
168
255
224
168
255
224
168
255
224
168
255
224
168
255
224
168
255
224
168
255
224
168
248
56
0
255
224
168
248
56
0
248
56
0
248
56
0
248
56
0
255
224
168
248
56
0
255
224
168
255
224
168
255
224
168
255
224
168
255
224
168
255
224
168
255
224
168
255
224
168
255
224
168
255
224
168
255
224
168
255
224
168
255
224
168
255
224
168
255
224
168
255
224
168
248
56
0
255
224
168
248
56
0
248
56
0
248
56
0
248
56
0
248
56
0
248
56
0
255
224
168
255
224
168
255
224
168
255
224
168
255
224
168
255
224
168
255
224
168
255
224
168
255
224
168
255
224
168
255
224
168
255
224
168
255
224
168
255
224
168
255
224
168
255
224
168
255
224
168
248
56
0
255
224
168
248
56
0
248
56
0
248
56
0
248
56
0
255
224
168
248
56
0
255
224
168
255
224
168
255
224
168
255
224
168
255
224
168
255
224
168
255
224
168
255
224
168
255
224
168
255
224
168
255
224
168
255
224
168
255
224
168
255
224
168
255
224
168
255
224
168
255
224
168
255
224
168
248
56
0
255
224
168
248
56
0
248
56
0
248
56
0
248
56
0
255
224
168
248
56
0
255
224
168
255
224
168
255
224
168
255
224
168
255
224
168
255
224
168
255
224
168
255
224
168
255
224
168
255
224
168
255
224
168
255
224
168
255
224
168
255
224
168
255
224
168
255
224
168
248
56
0
255
224
168
248
56
0
248
56
0
248
56
0
255
224
168
248
56
0
255
224
168
255
224
168
255
224
168
255
224
168
255
224
168
255
224
168
255
224
168
255
224
168
255
224
168
255
224
168
255
224
168
255
224
168
255
224
168
255
224
168
255
224
168
255
224
168
255
224
168
255
224
168
255
224
168
255
224
168
248
56
0
255
224
168
248
56
0
248
56
0
248
56
0
248
56
0
248
56
0
248
56
0
255
224
168
255
224
168
255
224
168
255
224
168
255
224
168
255
224
168
255
224
168
255
224
168
255
224
168
255
224
168
255
224
168
248
56
0
255
224
168
248
56
0
248
56
0
248
56
0
248
56
0
248
56
0
255
224
168
248
56
0
255
224
168
255
224
168
255
224
168
255
224
168
255
224
168
255
224
168
255
224
168
255
224
168
255
224
168
255
224
168
255
224
168
255
224
168
255
224
168
255
224
168
255
224
168
255
224
168
255
224
168
255
224
168
255
224
168
248
56
0
255
224
168
248
56
0
248
56
0
248
56
0
248
56
0
255
224
168
248
56
0
255
224
168
255
224
168
255
224
168
255
224
168
255
224
168
255
224
168
255
224
168
255
224
168
255
224
168
255
224
168
255
224
168
255
224
168
255
224
168
255
224
168
255
224
168
248
56
0
248
56
0
255
224
168
248
56
0
248
56
0
248
56
0
248
56
0
248
56
0
248
56
0
255
224
168
255
224
168
255
224
168
255
224
168
255
224
168
255
224
168
255
224
168
255
224
168
255
224
168
255
224
168
255
224
168
255
224
168
255
224
168
255
224
168
255
224
168
255
224
168
255
224
168
255
224
168
255
224
168
248
56
0
248
56
0
248
56
0
248
56
0
248
56
0
255
224
168
248
56
0
248
56
0
255
224
168
255
224
168
255
224
168
255
224
168
255
224
168
255
224
168
255
224
168
255
224
168
255
224
168
255
224
168
255
224
168
255
224
168
255
224
168
255
224
168
255
224
168
248
56
0
255
224
168
248
56
0
248
56
0
248
56
0
248
56
0
248
56
0
255
224
168
248
56
0
255
224
168
255
224
168
255
224
168
255
224
168
255
224
168
255
224
168
255
224
168
255
224
168
255
224
168
255
224
168
255
224
168
255
224
168
255
224
168
255
224
168
255
224
168
248
56
0
248
56
0
255
224
168
248
56
0
248
56
0
248
56
0
248
56
0
248
56
0
248
56
0
255
224
168
255
224
168
255
224
168
255
224
168
255
224
168
255
224
168
255
224
168
255
224
168
255
224
168
255
224
168
255
224
168
255
224
168
255
224
168
255
224
168
255
224
168
255
224
168
255
224
168
255
224
168
248
56
0
248
56
0
248
56
0
248
56
0
248
56
0
255
224
168
248
56
0
248
56
0
255
224
168
255
224
168
255
224
168
255
224
168
255
224
168
255
224
168
255
224
168
255
224
168
255
224
168
255
224
168
255
224
168
255
224
168
255
224
168
255
224
168
255
224
168
255
224
168
255
224
168
255
224
168
248
56
0
255
224
168
248
56
0
248
56
0
248
56
0
248
56
0
248
56
0
255
224
168
248
56
0
255
224
168
255
224
168
255
224
168
255
224
168
255
224
168
255
224
168
255
224
168
255
224
168
255
224
168
255
224
168
255
224
168
255
224
168
255
224
168
255
224
168
255
224
168
255
224
168
255
224
168
255
224
168
255
224
168
248
56
0
255
224
168
248
56
0
248
56
0
248
56
0
248
56
0
248
56
0
255
224
168
248
56
0
255
224
168
255
224
168
255
224
168
255
224
168
255
224
168
255
224
168
255
224
168
255
224
168
255
224
168
255
224
168
255
224
168
255
224
168
255
224
168
255
224
168
255
224
168
255
224
168
255
224
168
255
224
168
248
56
0
248
56
0
255
224
168
248
56
0
248
56
0
248
56
0
248
56
0
248
56
0
255
224
168
255
224
168
255
224
168
255
224
168
255
224
168
255
224
168
255
224
168
255
224
168
255
224
168
255
224
168
255
224
168
255
224
168
255
224
168
255
224
168
255
224
168
255
224
168
255
224
168
255
224
168
248
56
0
248
56
0
248
56
0
248
56
0
248
56
0
248
56
0
255
224
168
248
56
0
248
56
0
255
224
168
255
224
168
255
224
168
255
224
168
255
224
168
255
224
168
255
224
168
255
224
168
255
224
168
255
224
168
255
224
168
255
224
168
255
224
168
255
224
168
255
224
168
248
56
0
255
224
168
248
56
0
248
56
0
248
56
0
248
56
0
248
56
0
255
224
168
248
56
0
255
224
168
255
224
168
255
224
168
255
224
168
255
224
168
255
224
168
255
224
168
255
224
168
255
224
168
255
224
168
255
224
168
255
224
168
255
224
168
255
224
168
255
224
168
248
56
0
248
56
0
255
224
168
248
56
0
248
56
0
248
56
0
248
56
0
248
56
0
255
224
168
255
224
168
255
224
168
255
224
168
255
224
168
255
224
168
255
224
168
255
224
168
255
224
168
255
224
168
255
224
168
255
224
168
255
224
168
255
224
168
255
224
168
255
224
168
255
224
168
255
224
168
255
224
168
248
56
0
248
56
0
248
56
0
248
56
0
248
56
0
248
56
0
255
224
168
248
56
0
248
56
0
255
224
168
255
224
168
255
224
168
255
224
168
255
224
168
255
224
168
255
224
168
255
224
168
255
224
168
255
224
168
255
224
168
255
224
168
255
224
168
255
224
168
255
224
168
248
56
0
255
224
168
248
56
0
248
56
0
248
56
0
248
56
0
255
224
168
248
56
0
255
224
168
255
224
168
255
224
168
255
224
168
255
224
168
255
224
168
255
224
168
255
224
168
255
224
168
255
224
168
255
224
168
255
224
168
255
224
168
255
224
168
255
224
168
255
224
168
255
224
168
255
224
168
255
224
168
248
56
0
255
224
168
248
56
0
248
56
0
248
56
0
248
56
0
248
56
0
255
224
168
248
56
0
255
224
168
255
224
168
255
224
168
255
224
168
255
224
168
255
224
168
255
224
168
255
224
168
255
224
168
255
224
168
248
56
0
255
224
168
255
224
168
248
56
0
248
56
0
248
56
0
248
56
0
255
224
168
248
56
0
255
224
168
255
224
168
255
224
168
255
224
168
255
224
168
255
224
168
255
224
168
255
224
168
255
224
168
255
224
168
255
224
168
255
224
168
255
224
168
255
224
168
255
224
168
255
224
168
255
160
68
255
160
68
255
224
168
255
224
168
248
56
0
248
56
0
248
56
0
248
56
0
248
56
0
255
224
168
248
56
0
248
56
0
255
224
168
255
224
168
255
224
168
255
224
168
255
224
168
255
224
168
255
224
168
255
224
168
255
224
168
255
224
168
255
224
168
255
224
168
255
224
168
255
224
168
248
56
0
255
224
168
255
224
168
248
56
0
248
56
0
248
56
0
248
56
0
248
56
0
248
56
0
255
224
168
255
224
168
255
224
168
255
224
168
255
224
168
255
224
168
255
224
168
255
224
168
255
224
168
255
224
168
255
224
168
255
224
168
255
224
168
255
224
168
255
224
168
255
224
168
255
224
168
255
224
168
248
56
0
248
56
0
248
56
0
248
56
0
248
56
0
248
56
0
255
224
168
255
224
168
248
56
0
255
224
168
255
224
168
255
224
168
255
224
168
255
224
168
255
224
168
255
224
168
255
224
168
255
224
168
255
224
168
255
224
168
255
224
168
255
224
168
255
224
168
255
224
168
248
56
0
255
224
168
255
224
168
248
56
0
248
56
0
248
56
0
248
56
0
255
224
168
248
56
0
255
224
168
255
224
168
255
224
168
255
224
168
255
224
168
255
224
168
255
224
168
255
224
168
255
224
168
255
224
168
255
224
168
255
224
168
255
224
168
255
224
168
255
224
168
248
56
0
255
224
168
255
224
168
248
56
0
248
56
0
248
56
0
248
56
0
248
56
0
248
56
0
255
224
168
255
224
168
255
224
168
255
224
168
255
224
168
255
224
168
255
224
168
255
224
168
255
224
168
255
224
168
255
224
168
255
224
168
255
224
168
255
224
168
255
224
168
255
224
168
255
224
168
248
56
0
248
56
0
248
56
0
248
56
0
248
56
0
248
56
0
255
224
168
255
224
168
248
56
0
255
224
168
255
224
168
255
224
168
255
224
168
255
224
168
255
224
168
255
224
168
255
224
168
255
224
168
255
224
168
255
224
168
255
224
168
255
224
168
255
224
168
255
224
168
255
224
168
255
224
168
255
224
168
248
56
0
255
224
168
255
224
168
248
56
0
248
56
0
248
56
0
248
56
0
255
224
168
248
56
0
255
224
168
255
224
168
255
224
168
255
224
168
255
224
168
255
224
168
255
224
168
255
224
168
255
224
168
255
224
168
255
224
168
255
224
168
255
224
168
255
224
168
255
224
168
255
224
168
255
224
168
255
224
168
255
224
168
248
56
0
255
224
168
248
56
0
248
56
0
248
56
0
248
56
0
255
224
168
255
224
168
248
56
0
255
224
168
255
224
168
255
224
168
255
224
168
255
224
168
255
224
168
255
224
168
255
224
168
255
224
168
255
224
168
255
224
168
255
224
168
255
224
168
255
224
168
255
224
168
255
224
168
255
224
168
255
224
168
248
56
0
255
224
168
255
224
168
248
56
0
248
56
0
248
56
0
248
56
0
248
56
0
248
56
0
255
224
168
255
224
168
255
224
168
255
224
168
255
224
168
255
224
168
255
224
168
255
224
168
255
224
168
255
224
168
255
224
168
255
224
168
255
224
168
255
224
168
255
224
168
255
224
168
255
224
168
248
56
0
248
56
0
248
56
0
248
56
0
248
56
0
248
56
0
255
224
168
255
224
168
248
56
0
255
224
168
255
224
168
255
224
168
255
224
168
255
224
168
255
224
168
255
224
168
255
224
168
255
224
168
255
224
168
255
224
168
255
224
168
255
224
168
255
224
168
255
224
168
248
56
0
255
224
168
248
56
0
248
56
0
248
56
0
248
56
0
255
224
168
255
224
168
248
56
0
255
224
168
255
224
168
255
224
168
255
224
168
255
224
168
255
224
168
255
224
168
255
224
168
255
224
168
255
224
168
255
224
168
255
224
168
255
224
168
255
224
168
255
224
168
248
56
0
255
224
168
255
224
168
248
56
0
248
56
0
248
56
0
248
56
0
248
56
0
248
56
0
255
224
168
255
224
168
255
224
168
255
224
168
255
224
168
255
224
168
255
224
168
255
224
168
255
224
168
255
224
168
255
224
168
255
224
168
255
224
168
255
224
168
255
224
168
255
224
168
255
224
168
255
224
168
248
56
0
248
56
0
248
56
0
248
56
0
248
56
0
248
56
0
255
224
168
255
224
168
248
56
0
255
224
168
255
224
168
255
224
168
255
224
168
255
224
168
255
224
168
255
224
168
255
224
168
255
224
168
255
224
168
255
224
168
255
224
168
255
224
168
255
224
168
248
56
0
248
56
0
255
224
168
248
56
0
248
56
0
248
56
0
248
56
0
248
56
0
255
224
168
255
224
168
255
160
68
255
160
68
255
224
168
255
224
168
255
224
168
255
224
168
255
224
168
255
224
168
255
224
168
255
224
168
255
224
168
255
224
168
255
224
168
255
224
168
255
224
168
255
224
168
255
224
168
255
224
168
248
56
0
255
224
168
248
56
0
248
56
0
248
56
0
248
56
0
255
224
168
255
224
168
248
56
0
255
224
168
255
224
168
255
224
168
255
224
168
255
224
168
255
224
168
255
224
168
255
224
168
255
224
168
248
56
0
248
56
0
255
224
168
255
224
168
255
224
168
248
56
0
248
56
0
255
224
168
255
224
168
255
224
168
255
224
168
255
224
168
255
224
168
255
224
168
255
224
168
255
224
168
255
224
168
255
224
168
255
224
168
255
224
168
255
224
168
255
224
168
255
224
168
255
224
168
255
160
68
255
160
68
255
160
68
255
160
68
248
56
0
248
56
0
248
56
0
248
56
0
248
56
0
248
56
0
248
56
0
255
224
168
255
224
168
248
56
0
255
224
168
255
224
168
255
224
168
255
224
168
255
224
168
255
224
168
255
224
168
255
224
168
255
224
168
255
224
168
255
224
168
255
224
168
255
224
168
248
56
0
248
56
0
255
224
168
255
224
168
255
224
168
248
56
0
248
56
0
248
56
0
248
56
0
248
56
0
248
56
0
255
224
168
255
224
168
255
224
168
255
224
168
255
224
168
255
224
168
255
224
168
255
224
168
255
224
168
255
224
168
255
224
168
255
224
168
255
224
168
255
224
168
255
160
68
255
160
68
248
56
0
248
56
0
248
56
0
248
56
0
248
56
0
248
56
0
255
224
168
255
224
168
255
224
168
248
56
0
255
224
168
255
224
168
255
224
168
255
224
168
255
224
168
255
224
168
255
224
168
255
224
168
255
224
168
255
224
168
255
224
168
255
224
168
255
224
168
255
224
168
248
56
0
248
56
0
255
224
168
255
224
168
255
224
168
248
56
0
248
56
0
255
224
168
255
224
168
255
224
168
255
224
168
255
224
168
255
224
168
255
224
168
255
224
168
255
224
168
255
224
168
255
224
168
255
224
168
255
224
168
255
224
168
255
224
168
255
224
168
255
224
168
248
56
0
248
56
0
255
224
168
255
224
168
255
224
168
248
56
0
248
56
0
248
56
0
248
56
0
248
56
0
248
56
0
255
224
168
255
224
168
255
224
168
255
224
168
255
224
168
255
224
168
255
224
168
255
224
168
255
224
168
255
224
168
255
224
168
255
224
168
255
224
168
255
160
68
255
160
68
248
56
0
248
56
0
248
56
0
248
56
0
248
56
0
248
56
0
255
224
168
255
224
168
255
224
168
248
56
0
255
224
168
255
224
168
255
224
168
255
224
168
255
224
168
255
224
168
255
224
168
255
224
168
255
224
168
255
224
168
255
224
168
255
224
168
255
224
168
255
224
168
255
224
168
255
224
168
255
224
168
248
56
0
248
56
0
255
224
168
255
224
168
255
224
168
248
56
0
248
56
0
255
224
168
255
224
168
255
224
168
255
224
168
255
224
168
255
224
168
255
224
168
255
224
168
255
224
168
255
224
168
255
224
168
255
224
168
255
224
168
255
224
168
255
224
168
255
224
168
255
224
168
255
224
168
255
224
168
255
224
168
255
224
168
255
224
168
255
224
168
255
224
168
255
224
168
248
56
0
248
56
0
255
224
168
255
224
168
255
224
168
248
56
0
248
56
0
255
224
168
255
224
168
255
224
168
255
224
168
255
224
168
255
224
168
255
224
168
255
224
168
255
224
168
255
224
168
255
224
168
255
224
168
255
224
168
255
224
168
255
224
168
255
224
168
255
224
168
248
56
0
255
224
168
255
224
168
255
224
168
248
56
0
248
56
0
248
56
0
248
56
0
248
56
0
248
56
0
255
160
68
255
160
68
255
224
168
255
224
168
255
224
168
255
224
168
255
224
168
255
224
168
255
224
168
255
224
168
255
224
168
255
224
168
255
224
168
255
224
168
255
224
168
248
56
0
248
56
0
248
56
0
248
56
0
248
56
0
248
56
0
255
224
168
255
224
168
255
224
168
248
56
0
248
56
0
255
224
168
255
224
168
255
224
168
255
224
168
255
224
168
255
224
168
255
224
168
255
224
168
255
224
168
255
224
168
255
224
168
255
224
168
255
224
168
255
224
168
255
224
168
255
224
168
255
224
168
248
56
0
248
56
0
255
224
168
255
224
168
255
224
168
248
56
0
248
56
0
255
224
168
255
224
168
255
224
168
255
224
168
255
224
168
255
224
168
255
224
168
255
224
168
255
224
168
255
224
168
255
224
168
255
224
168
255
224
168
255
224
168
248
56
0
255
224
168
255
224
168
255
224
168
248
56
0
248
56
0
248
56
0
248
56
0
248
56
0
248
56
0
255
160
68
255
160
68
255
224
168
255
224
168
255
224
168
255
224
168
255
224
168
255
224
168
255
224
168
255
224
168
255
224
168
255
224
168
255
224
168
255
224
168
255
224
168
255
224
168
248
56
0
248
56
0
248
56
0
248
56
0
248
56
0
248
56
0
255
224
168
255
224
168
255
224
168
248
56
0
248
56
0
255
224
168
255
224
168
255
224
168
255
224
168
255
224
168
255
224
168
255
224
168
255
224
168
255
224
168
255
224
168
255
224
168
255
224
168
255
224
168
248
56
0
255
224
168
255
224
168
248
56
0
248
56
0
248
56
0
248
56
0
248
56
0
248
56
0
248
56
0
255
160
68
255
160
68
255
160
68
255
160
68
255
224
168
255
224
168
255
224
168
255
224
168
255
224
168
255
224
168
255
224
168
255
224
168
255
224
168
255
224
168
255
224
168
255
224
168
255
224
168
255
224
168
255
224
168
255
224
168
255
224
168
248
56
0
248
56
0
255
224
168
255
224
168
255
224
168
248
56
0
248
56
0
255
224
168
255
224
168
255
224
168
255
224
168
255
224
168
255
224
168
255
224
168
255
224
168
248
56
0
255
224
168
255
224
168
255
224
168
255
224
168
255
224
168
255
224
168
255
224
168
255
224
168
255
224
168
255
224
168
255
224
168
255
224
168
255
224
168
255
224
168
255
224
168
255
224
168
255
224
168
255
224
168
255
224
168
255
224
168
255
224
168
255
224
168
255
224
168
255
160
68
255
160
68
255
160
68
255
160
68
248
56
0
248
56
0
248
56
0
248
56
0
248
56
0
248
56
0
255
224
168
255
224
168
255
224
168
248
56
0
255
224
168
255
224
168
255
224
168
255
224
168
255
224
168
255
224
168
255
224
168
255
224
168
255
224
168
255
224
168
255
224
168
255
224
168
255
224
168
248
56
0
255
224
168
255
224
168
255
224
168
255
224
168
255
224
168
248
56
0
248
56
0
248
56
0
248
56
0
248
56
0
255
224
168
255
224
168
255
224
168
255
224
168
255
224
168
255
224
168
255
224
168
255
224
168
255
224
168
255
224
168
255
224
168
255
224
168
255
224
168
255
160
68
255
160
68
255
160
68
248
56
0
248
56
0
248
56
0
248
56
0
248
56
0
248
56
0
255
224
168
255
224
168
255
224
168
255
224
168
255
224
168
255
224
168
255
224
168
255
224
168
255
224
168
255
224
168
255
224
168
255
224
168
255
224
168
255
224
168
255
224
168
255
224
168
255
224
168
255
224
168
248
56
0
255
224
168
255
224
168
255
224
168
255
224
168
255
224
168
255
224
168
255
224
168
255
224
168
255
224
168
255
224
168
255
224
168
255
224
168
255
224
168
255
224
168
255
224
168
255
224
168
255
224
168
255
224
168
255
224
168
255
224
168
255
224
168
255
224
168
255
224
168
248
56
0
255
224
168
255
224
168
255
224
168
255
224
168
255
224
168
248
56
0
248
56
0
248
56
0
248
56
0
248
56
0
255
224
168
255
224
168
255
224
168
255
224
168
255
224
168
255
224
168
255
224
168
255
224
168
255
224
168
255
224
168
255
224
168
255
224
168
255
160
68
255
160
68
255
160
68
248
56
0
248
56
0
248
56
0
248
56
0
248
56
0
248
56
0
255
224
168
255
224
168
255
224
168
255
224
168
255
224
168
255
224
168
255
224
168
255
224
168
255
224
168
255
224
168
255
224
168
255
224
168
255
224
168
255
224
168
255
224
168
255
224
168
255
224
168
255
224
168
255
224
168
255
224
168
255
224
168
248
56
0
255
224
168
255
224
168
255
224
168
255
224
168
255
224
168
255
224
168
255
224
168
255
224
168
255
224
168
255
224
168
255
224
168
255
224
168
255
224
168
255
224
168
255
224
168
255
224
168
255
224
168
255
224
168
255
224
168
255
224
168
255
224
168
255
224
168
255
224
168
255
224
168
255
224
168
255
224
168
255
224
168
255
224
168
255
224
168
255
224
168
255
224
168
255
224
168
255
224
168
255
224
168
255
224
168
255
224
168
255
224
168
248
56
0
255
224
168
255
224
168
255
224
168
255
224
168
255
224
168
255
224
168
255
224
168
255
224
168
255
224
168
255
224
168
255
224
168
255
224
168
255
224
168
255
224
168
255
224
168
255
224
168
255
224
168
255
224
168
255
224
168
255
224
168
255
224
168
248
56
0
248
56
0
248
56
0
248
56
0
248
56
0
248
56
0
255
160
68
255
160
68
255
160
68
255
224
168
255
224
168
255
224
168
255
224
168
255
224
168
255
224
168
255
224
168
255
224
168
255
224
168
255
224
168
255
224
168
255
224
168
248
56
0
248
56
0
248
56
0
248
56
0
248
56
0
255
224
168
255
224
168
255
224
168
255
224
168
255
224
168
248
56
0
255
224
168
255
224
168
255
224
168
255
224
168
255
224
168
255
224
168
255
224
168
255
224
168
255
224
168
255
224
168
255
224
168
255
224
168
255
224
168
255
224
168
255
224
168
255
224
168
255
224
168
255
224
168
255
224
168
255
224
168
255
224
168
255
224
168
255
224
168
248
56
0
255
224
168
255
224
168
255
224
168
255
224
168
255
224
168
255
224
168
255
224
168
255
224
168
255
224
168
255
224
168
255
224
168
255
224
168
255
224
168
255
224
168
255
224
168
255
224
168
255
224
168
255
224
168
248
56
0
248
56
0
248
56
0
248
56
0
248
56
0
248
56
0
255
160
68
255
160
68
255
160
68
255
224
168
255
224
168
255
224
168
255
224
168
255
224
168
255
224
168
255
224
168
255
224
168
255
224
168
255
224
168
255
224
168
255
224
168
255
224
168
248
56
0
248
56
0
248
56
0
248
56
0
248
56
0
255
224
168
255
224
168
255
224
168
255
224
168
255
224
168
248
56
0
255
224
168
255
224
168
255
224
168
255
224
168
255
224
168
255
224
168
255
224
168
255
224
168
255
224
168
255
224
168
255
224
168
255
224
168
255
224
168
248
56
0
255
224
168
255
224
168
255
224
168
248
56
0
248
56
0
248
56
0
248
56
0
248
56
0
248
56
0
255
160
68
255
160
68
255
160
68
255
160
68
255
224
168
255
224
168
255
224
168
255
224
168
255
224
168
255
224
168
255
224
168
255
224
168
255
224
168
255
224
168
255
224
168
255
224
168
255
224
168
255
224
168
255
224
168
255
224
168
255
224
168
255
224
168
255
224
168
255
224
168
255
224
168
255
224
168
255
224
168
248
56
0
255
224
168
255
224
168
255
224
168
255
224
168
255
224
168
255
224
168
255
224
168
255
224
168
255
224
168
255
224
168
255
224
168
255
160
68
255
224
168
255
224
168
255
224
168
255
224
168
255
224
168
255
224
168
255
224
168
255
224
168
255
224
168
255
224
168
255
224
168
255
224
168
255
224
168
255
224
168
255
224
168
255
224
168
255
224
168
255
224
168
255
224
168
255
224
168
255
160
68
255
160
68
255
160
68
248
56
0
248
56
0
248
56
0
248
56
0
248
56
0
248
56
0
248
56
0
255
224
168
255
224
168
255
224
168
255
224
168
255
224
168
255
224
168
255
224
168
255
224
168
255
224
168
255
224
168
255
224
168
255
224
168
255
224
168
255
224
168
255
224
168
255
224
168
255
224
168
255
224
168
255
224
168
255
224
168
255
160
68
255
224
168
255
224
168
255
224
168
248
56
0
248
56
0
248
56
0
255
160
68
255
160
68
255
224
168
255
224
168
255
224
168
255
224
168
255
224
168
255
224
168
255
224
168
255
224
168
255
224
168
255
224
168
255
224
168
255
160
68
255
160
68
255
160
68
255
160
68
248
56
0
248
56
0
248
56
0
248
56
0
248
56
0
255
224
168
255
224
168
255
224
168
255
224
168
255
224
168
255
224
168
255
224
168
255
224
168
255
224
168
255
224
168
255
224
168
255
224
168
255
224
168
255
224
168
255
224
168
255
224
168
255
224
168
255
224
168
255
224
168
255
224
168
255
224
168
255
224
168
255
160
68
255
224
168
255
224
168
255
224
168
255
224
168
255
224
168
255
224
168
255
224
168
255
224
168
255
224
168
255
224
168
255
224
168
255
224
168
255
224
168
255
224
168
255
224
168
255
224
168
255
224
168
255
224
168
255
224
168
255
224
168
255
224
168
255
224
168
255
224
168
255
160
68
255
224
168
255
224
168
255
224
168
248
56
0
248
56
0
248
56
0
255
160
68
255
160
68
255
224
168
255
224
168
255
224
168
255
224
168
255
224
168
255
224
168
255
224
168
255
224
168
255
224
168
255
224
168
255
160
68
255
160
68
255
160
68
255
160
68
248
56
0
248
56
0
248
56
0
248
56
0
248
56
0
255
224
168
255
224
168
255
224
168
255
224
168
255
224
168
255
224
168
255
224
168
255
224
168
255
224
168
255
224
168
255
224
168
255
224
168
255
224
168
255
224
168
255
224
168
255
224
168
255
224
168
255
224
168
255
224
168
255
224
168
255
224
168
255
224
168
255
224
168
255
224
168
255
224
168
255
160
68
255
224
168
255
224
168
255
224
168
255
224
168
255
224
168
255
224
168
255
224
168
255
224
168
255
224
168
255
224
168
255
224
168
255
224
168
255
224
168
255
224
168
255
224
168
255
224
168
255
224
168
255
224
168
255
224
168
255
224
168
255
224
168
255
224
168
255
224
168
255
224
168
255
224
168
255
224
168
255
224
168
255
224
168
255
224
168
255
224
168
255
224
168
255
160
68
255
224
168
255
224
168
255
224
168
255
224
168
255
224
168
255
224
168
255
224
168
255
224
168
255
224
168
255
224
168
255
224
168
255
224
168
255
224
168
255
224
168
255
224
168
255
224
168
255
224
168
255
224
168
255
224
168
255
224
168
255
224
168
255
224
168
255
224
168
255
224
168
255
224
168
248
56
0
248
56
0
248
56
0
248
56
0
248
56
0
255
160
68
255
160
68
255
160
68
255
160
68
255
224
168
255
224
168
255
224
168
255
224
168
255
224
168
255
224
168
255
224
168
255
224
168
255
224
168
255
224
168
255
160
68
255
160
68
248
56
0
248
56
0
248
56
0
255
224
168
255
224
168
255
224
168
255
160
68
255
224
168
255
224
168
255
224
168
255
224
168
255
224
168
255
224
168
255
224
168
255
224
168
255
224
168
255
224
168
255
224
168
255
224
168
255
224
168
255
224
168
255
224
168
255
224
168
255
224
168
255
224
168
255
224
168
255
224
168
255
224
168
255
224
168
255
224
168
255
160
68
255
224
168
255
224
168
255
224
168
255
224
168
255
224
168
255
224
168
255
224
168
255
224
168
255
224
168
255
224
168
255
224
168
255
224
168
255
224
168
255
224
168
255
224
168
255
224
168
255
224
168
255
224
168
255
224
168
255
224
168
255
224
168
255
224
168
248
56
0
248
56
0
248
56
0
248
56
0
248
56
0
255
160
68
255
160
68
255
160
68
255
160
68
255
224
168
255
224
168
255
224
168
255
224
168
255
224
168
255
224
168
255
224
168
255
224
168
255
224
168
255
224
168
255
224
168
255
160
68
255
160
68
248
56
0
248
56
0
248
56
0
255
224
168
255
224
168
255
224
168
255
160
68
255
224
168
255
224
168
255
224
168
255
224
168
255
224
168
255
224
168
255
224
168
255
224
168
255
224
168
255
224
168
255
224
168
255
224
168
255
224
168
255
224
168
255
224
168
255
224
168
255
224
168
255
224
168
255
224
168
255
224
168
248
56
0
248
56
0
248
56
0
248
56
0
248
56
0
248
56
0
248
56
0
255
160
68
255
160
68
255
160
68
255
224
168
255
224
168
255
224
168
255
224
168
255
224
168
255
224
168
255
224
168
255
224
168
255
224
168
255
224
168
255
224
168
255
224
168
255
224
168
255
224
168
255
224
168
255
224
168
255
224
168
255
224
168
255
224
168
255
224
168
255
160
68
255
224
168
255
224
168
255
224
168
255
224
168
255
224
168
255
224
168
255
224
168
255
224
168
255
224
168
255
224
168
255
224
168
255
224
168
255
224
168
255
224
168
255
224
168
255
224
168
255
224
168
255
224
168
255
224
168
255
224
168
255
224
168
255
224
168
255
224
168
255
224
168
255
224
168
255
224
168
255
224
168
255
224
168
255
224
168
255
224
168
255
224
168
255
224
168
255
224
168
255
224
168
255
224
168
255
160
68
255
160
68
255
160
68
248
56
0
248
56
0
248
56
0
248
56
0
248
56
0
248
56
0
255
224
168
255
224
168
255
224
168
255
224
168
255
224
168
255
224
168
255
224
168
255
224
168
255
224
168
255
224
168
255
224
168
255
224
168
255
224
168
255
224
168
255
224
168
255
224
168
255
224
168
255
224
168
255
224
168
255
224
168
255
224
168
255
224
168
255
224
168
255
224
168
255
224
168
255
224
168
248
56
0
255
160
68
255
160
68
255
160
68
255
224
168
255
224
168
255
224
168
255
224
168
255
224
168
255
224
168
255
224
168
255
224
168
255
224
168
255
224
168
255
224
168
255
160
68
255
160
68
255
160
68
255
160
68
248
56
0
248
56
0
248
56
0
255
224
168
255
224
168
255
224
168
255
224
168
255
224
168
255
224
168
255
224
168
255
224
168
255
224
168
255
224
168
255
224
168
255
224
168
255
224
168
255
224
168
255
224
168
255
224
168
255
224
168
255
224
168
255
224
168
255
224
168
255
224
168
255
224
168
255
224
168
255
224
168
255
224
168
255
224
168
255
224
168
255
224
168
255
224
168
255
224
168
255
224
168
255
224
168
255
224
168
255
224
168
255
224
168
255
224
168
255
224
168
255
224
168
255
224
168
255
224
168
255
224
168
255
224
168
255
224
168
255
224
168
255
224
168
255
224
168
255
224
168
255
224
168
255
224
168
255
224
168
255
224
168
255
224
168
255
224
168
248
56
0
255
160
68
255
160
68
255
160
68
255
224
168
255
224
168
255
224
168
255
224
168
255
224
168
255
224
168
255
224
168
255
224
168
255
224
168
255
224
168
255
160
68
255
160
68
255
160
68
255
160
68
248
56
0
248
56
0
248
56
0
255
224
168
255
224
168
255
224
168
255
224
168
255
224
168
255
224
168
255
224
168
255
224
168
255
224
168
255
224
168
255
224
168
255
224
168
255
224
168
255
224
168
255
224
168
255
224
168
255
224
168
255
224
168
255
224
168
255
224
168
255
224
168
255
224
168
255
224
168
255
224
168
255
224
168
255
224
168
255
224
168
255
224
168
255
224
168
255
224
168
255
224
168
255
224
168
255
224
168
255
224
168
255
224
168
255
224
168
255
224
168
255
224
168
255
224
168
255
224
168
255
224
168
255
224
168
255
224
168
255
224
168
255
224
168
255
224
168
255
224
168
255
224
168
255
224
168
255
224
168
255
224
168
255
224
168
255
224
168
255
224
168
255
224
168
255
224
168
255
224
168
255
224
168
255
224
168
255
224
168
255
224
168
255
224
168
255
224
168
255
224
168
255
224
168
255
224
168
255
224
168
255
224
168
255
224
168
255
224
168
255
224
168
255
224
168
255
224
168
255
224
168
255
224
168
255
224
168
255
224
168
255
224
168
255
224
168
255
224
168
255
224
168
255
224
168
255
224
168
255
224
168
255
224
168
255
224
168
255
224
168
248
56
0
248
56
0
248
56
0
255
160
68
255
160
68
255
160
68
255
160
68
255
224
168
255
224
168
255
224
168
255
224
168
255
224
168
255
224
168
255
224
168
255
224
168
255
224
168
255
224
168
255
160
68
255
160
68
255
160
68
248
56
0
255
224
168
255
224
168
255
224
168
255
224
168
255
224
168
255
224
168
255
224
168
255
224
168
255
224
168
255
224
168
255
224
168
255
224
168
255
224
168
255
224
168
255
224
168
255
224
168
255
224
168
255
224
168
255
224
168
255
224
168
255
224
168
255
224
168
255
224
168
255
224
168
255
224
168
255
224
168
255
224
168
255
224
168
255
224
168
255
224
168
255
224
168
255
224
168
255
224
168
255
224
168
255
224
168
255
224
168
255
224
168
255
224
168
255
224
168
255
224
168
255
224
168
255
224
168
255
224
168
255
224
168
255
224
168
255
224
168
255
224
168
255
224
168
255
224
168
255
224
168
255
224
168
255
224
168
255
224
168
248
56
0
248
56
0
248
56
0
255
160
68
255
160
68
255
160
68
255
160
68
255
224
168
255
224
168
255
224
168
255
224
168
255
224
168
255
224
168
255
224
168
255
224
168
255
224
168
255
224
168
255
224
168
255
160
68
255
160
68
255
160
68
248
56
0
255
224
168
255
224
168
255
224
168
255
224
168
255
224
168
255
224
168
255
224
168
255
224
168
255
224
168
255
224
168
255
224
168
255
224
168
255
224
168
255
224
168
255
224
168
255
224
168
255
224
168
255
224
168
255
224
168
255
224
168
255
224
168
255
224
168
255
224
168
255
224
168
255
224
168
255
224
168
248
56
0
248
56
0
248
56
0
248
56
0
248
56
0
248
56
0
255
160
68
255
160
68
255
160
68
255
224
168
255
224
168
255
224
168
255
224
168
255
224
168
255
224
168
255
224
168
255
224
168
255
224
168
255
224
168
255
224
168
255
224
168
255
224
168
255
224
168
255
224
168
255
224
168
255
224
168
255
224
168
255
224
168
255
224
168
255
224
168
255
224
168
255
224
168
255
224
168
255
224
168
255
224
168
255
224
168
255
224
168
255
224
168
255
224
168
255
224
168
255
224
168
255
224
168
255
224
168
255
224
168
255
224
168
255
224
168
255
224
168
255
224
168
255
224
168
255
224
168
255
224
168
255
224
168
255
224
168
255
224
168
255
224
168
255
224
168
255
224
168
255
224
168
255
224
168
255
224
168
255
224
168
255
224
168
255
224
168
255
224
168
255
224
168
255
224
168
255
224
168
255
224
168
255
224
168
248
56
0
248
56
0
248
56
0
255
224
168
255
224
168
255
224
168
255
224
168
255
224
168
255
224
168
255
224
168
255
224
168
255
224
168
255
224
168
255
224
168
255
224
168
255
224
168
255
224
168
255
224
168
255
224
168
255
224
168
255
224
168
255
224
168
255
224
168
255
224
168
255
224
168
255
224
168
255
224
168
255
224
168
255
224
168
255
224
168
255
224
168
255
224
168
255
160
68
255
160
68
255
160
68
255
160
68
255
224
168
255
224
168
255
224
168
255
224
168
255
224
168
255
224
168
255
224
168
255
224
168
255
224
168
255
224
168
255
160
68
255
160
68
255
224
168
255
224
168
255
224
168
255
224
168
255
224
168
255
224
168
255
224
168
255
224
168
255
224
168
255
224
168
255
224
168
255
224
168
255
224
168
255
224
168
255
224
168
255
224
168
255
224
168
255
224
168
255
224
168
255
224
168
255
224
168
255
224
168
255
224
168
255
224
168
255
224
168
255
224
168
255
224
168
255
224
168
255
224
168
255
224
168
255
224
168
255
224
168
255
224
168
255
224
168
255
224
168
255
224
168
255
224
168
255
224
168
255
224
168
255
224
168
255
224
168
255
224
168
255
224
168
255
224
168
255
224
168
255
224
168
255
224
168
255
224
168
255
224
168
255
224
168
255
224
168
255
224
168
255
224
168
255
224
168
255
224
168
255
224
168
255
224
168
255
224
168
255
224
168
255
160
68
255
160
68
255
160
68
255
160
68
255
224
168
255
224
168
255
224
168
255
224
168
255
224
168
255
224
168
255
224
168
255
224
168
255
224
168
255
160
68
255
160
68
255
224
168
255
224
168
255
224
168
255
224
168
255
224
168
255
224
168
255
224
168
255
224
168
255
224
168
255
224
168
255
224
168
255
224
168
255
224
168
255
224
168
255
224
168
255
224
168
255
224
168
255
224
168
255
224
168
255
224
168
255
224
168
255
224
168
255
224
168
255
224
168
255
224
168
255
224
168
255
224
168
255
224
168
255
224
168
255
224
168
255
224
168
255
224
168
255
224
168
255
224
168
255
224
168
255
224
168
255
224
168
255
224
168
255
224
168
255
224
168
255
224
168
255
224
168
255
224
168
255
224
168
255
224
168
255
224
168
255
224
168
255
224
168
255
224
168
255
224
168
255
224
168
255
224
168
255
224
168
255
224
168
255
224
168
255
224
168
255
224
168
255
224
168
255
224
168
255
224
168
255
224
168
255
224
168
255
224
168
255
224
168
255
224
168
255
224
168
255
224
168
255
224
168
255
224
168
255
224
168
255
224
168
255
224
168
255
224
168
255
224
168
255
224
168
255
224
168
255
224
168
255
224
168
255
224
168
255
224
168
255
224
168
255
224
168
255
224
168
255
224
168
255
224
168
255
224
168
255
224
168
255
224
168
255
224
168
255
224
168
255
224
168
255
224
168
255
224
168
255
224
168
255
224
168
255
224
168
255
224
168
255
160
68
255
160
68
255
224
168
255
224
168
255
224
168
255
224
168
255
224
168
255
224
168
255
224
168
255
224
168
255
224
168
255
160
68
255
160
68
255
160
68
255
160
68
255
224
168
255
224
168
255
224
168
255
224
168
255
224
168
255
224
168
255
224
168
255
224
168
255
224
168
255
224
168
255
224
168
255
224
168
255
224
168
255
224
168
255
224
168
255
224
168
255
224
168
255
224
168
255
224
168
255
224
168
255
224
168
255
224
168
255
224
168
255
224
168
255
224
168
255
224
168
255
224
168
255
224
168
255
224
168
255
224
168
255
224
168
255
224
168
255
224
168
255
224
168
255
224
168
255
224
168
255
224
168
255
224
168
255
224
168
255
224
168
255
224
168
255
224
168
255
224
168
255
224
168
255
224
168
255
224
168
255
224
168
255
224
168
255
224
168
255
224
168
255
224
168
255
224
168
255
224
168
255
224
168
255
224
168
255
224
168
255
224
168
255
224
168
255
224
168
255
160
68
255
160
68
255
224
168
255
224
168
255
224
168
255
224
168
255
224
168
255
224
168
255
224
168
255
224
168
255
224
168
255
224
168
255
160
68
255
160
68
255
160
68
255
160
68
255
224
168
255
224
168
255
224
168
255
224
168
255
224
168
255
224
168
255
224
168
255
224
168
255
224
168
255
224
168
255
224
168
255
224
168
255
224
168
255
224
168
255
224
168
255
224
168
255
224
168
255
224
168
255
224
168
255
224
168
255
224
168
255
224
168
255
224
168
255
224
168
255
224
168
255
224
168
255
224
168
255
224
168
255
224
168
248
56
0
248
56
0
248
56
0
255
224
168
255
224
168
255
224
168
255
224
168
255
224
168
255
224
168
255
224
168
255
224
168
255
224
168
255
224
168
255
224
168
255
224
168
255
224
168
255
224
168
255
224
168
255
224
168
255
224
168
255
224
168
255
224
168
255
224
168
255
224
168
255
224
168
255
224
168
255
224
168
255
224
168
255
224
168
255
224
168
255
224
168
255
224
168
255
224
168
255
224
168
255
224
168
255
224
168
255
224
168
255
224
168
255
224
168
255
224
168
255
224
168
255
224
168
255
224
168
255
224
168
255
224
168
255
224
168
255
224
168
255
224
168
255
224
168
255
224
168
255
224
168
255
224
168
255
224
168
255
224
168
255
224
168
255
224
168
255
224
168
255
224
168
255
224
168
255
224
168
255
224
168
255
224
168
255
224
168
255
224
168
255
224
168
255
224
168
255
224
168
255
224
168
255
224
168
255
224
168
255
224
168
255
224
168
255
224
168
255
224
168
255
224
168
255
224
168
255
224
168
255
224
168
255
224
168
255
224
168
255
224
168
255
224
168
255
224
168
255
224
168
255
224
168
255
224
168
255
224
168
255
224
168
255
224
168
255
224
168
255
224
168
255
224
168
255
224
168
255
224
168
255
224
168
255
224
168
255
224
168
255
224
168
255
224
168
255
224
168
255
160
68
255
160
68
255
160
68
255
224
168
255
224
168
255
224
168
255
224
168
255
224
168
255
224
168
255
224
168
255
224
168
255
224
168
255
224
168
255
224
168
255
224
168
255
224
168
255
224
168
255
224
168
255
224
168
255
224
168
255
224
168
255
224
168
255
224
168
255
224
168
255
224
168
255
224
168
255
224
168
255
224
168
255
224
168
255
224
168
255
224
168
255
224
168
255
224
168
255
224
168
255
224
168
255
224
168
255
224
168
255
224
168
255
224
168
255
224
168
255
224
168
255
224
168
255
224
168
255
224
168
255
224
168
255
224
168
255
224
168
255
224
168
255
224
168
255
224
168
255
224
168
255
224
168
255
224
168
255
224
168
255
224
168
255
224
168
255
224
168
255
224
168
255
224
168
255
224
168
255
224
168
255
224
168
255
224
168
255
224
168
255
224
168
255
224
168
255
224
168
255
224
168
255
224
168
255
224
168
255
224
168
255
224
168
255
224
168
255
224
168
255
224
168
255
160
68
255
160
68
255
160
68
255
224
168
255
224
168
255
224
168
255
224
168
255
224
168
255
224
168
255
224
168
255
224
168
255
224
168
255
224
168
255
224
168
255
224
168
255
224
168
255
224
168
255
224
168
255
224
168
255
224
168
255
224
168
255
224
168
255
224
168
255
224
168
255
224
168
255
224
168
255
224
168
255
224
168
255
224
168
255
224
168
255
224
168
255
224
168
255
224
168
255
224
168
255
224
168
255
224
168
255
224
168
255
224
168
255
224
168
255
224
168
255
224
168
255
224
168
255
224
168
255
224
168
255
224
168
255
224
168
255
224
168
255
224
168
255
224
168
255
224
168
255
224
168
255
224
168
255
224
168
255
224
168
255
224
168
255
224
168
255
224
168
255
224
168
255
224
168
255
224
168
255
224
168
255
224
168
255
224
168
255
224
168
255
224
168
255
224
168
255
224
168
255
224
168
255
224
168
255
224
168
255
224
168
255
224
168
255
224
168
255
224
168
255
224
168
255
224
168
255
224
168
255
224
168
255
224
168
255
224
168
255
224
168
255
224
168
255
224
168
255
224
168
255
224
168
255
224
168
255
224
168
255
224
168
255
224
168
255
224
168
255
224
168
255
224
168
255
224
168
255
224
168
255
224
168
255
224
168
255
224
168
255
224
168
255
224
168
255
224
168
255
224
168
255
224
168
255
224
168
255
224
168
255
224
168
255
224
168
255
224
168
255
224
168
255
224
168
255
224
168
255
224
168
255
224
168
255
224
168
255
224
168
255
224
168
255
224
168
255
224
168
255
224
168
255
224
168
255
224
168
255
224
168
255
224
168
255
160
68
255
160
68
255
160
68
255
224
168
255
224
168
255
224
168
255
224
168
255
224
168
255
224
168
255
224
168
255
224
168
255
224
168
255
224
168
255
224
168
255
224
168
255
224
168
255
224
168
255
224
168
255
224
168
255
224
168
255
224
168
255
224
168
255
224
168
255
224
168
255
224
168
255
224
168
255
224
168
255
224
168
255
224
168
255
224
168
255
224
168
255
224
168
255
224
168
255
224
168
255
224
168
255
224
168
255
224
168
255
224
168
255
224
168
255
224
168
255
224
168
255
224
168
255
224
168
255
224
168
255
224
168
255
224
168
255
224
168
255
224
168
255
224
168
255
224
168
255
224
168
255
224
168
255
224
168
255
224
168
255
224
168
255
224
168
255
224
168
255
224
168
255
224
168
255
224
168
255
224
168
255
224
168
255
224
168
255
224
168
255
224
168
255
224
168
255
224
168
255
224
168
255
224
168
255
224
168
255
224
168
255
224
168
255
224
168
255
224
168
255
224
168
255
160
68
255
160
68
255
160
68
255
224
168
255
224
168
255
224
168
255
224
168
255
224
168
255
224
168
255
224
168
255
224
168
255
224
168
255
224
168
255
224
168
255
224
168
255
224
168
255
224
168
255
224
168
255
224
168
255
224
168
255
224
168
255
224
168
255
224
168
255
224
168
255
224
168
255
224
168
255
224
168
255
224
168
255
224
168
255
224
168
255
224
168
255
224
168
255
224
168
255
224
168
255
224
168
255
224
168
255
224
168
255
224
168
255
224
168
255
224
168
255
224
168
255
224
168
255
224
168
255
224
168
255
224
168
255
224
168
255
224
168
255
224
168
255
224
168
255
224
168
255
224
168
255
224
168
255
224
168
255
224
168
255
224
168
255
224
168
255
224
168
255
224
168
255
224
168
255
224
168
255
224
168
255
224
168
255
224
168
255
224
168
255
224
168
255
224
168
255
224
168
255
224
168
255
224
168
255
224
168
255
224
168
255
224
168
255
224
168
255
224
168
255
224
168
255
224
168
255
224
168
255
224
168
255
224
168
255
224
168
255
224
168
255
224
168
255
224
168
255
224
168
255
224
168
255
224
168
255
224
168
255
224
168
255
224
168
255
224
168
255
224
168
255
224
168
255
224
168
255
224
168
255
224
168
255
224
168
255
224
168
255
224
168
255
224
168
248
56
0
255
224
168
255
224
168
255
224
168
255
224
168
255
224
168
255
224
168
255
224
168
255
224
168
255
224
168
255
224
168
255
224
168
255
224
168
255
224
168
255
224
168
255
224
168
255
224
168
255
224
168
255
224
168
255
224
168
255
224
168
255
224
168
255
224
168
255
224
168
255
224
168
255
224
168
255
224
168
255
224
168
255
224
168
255
224
168
255
224
168
255
224
168
255
224
168
255
224
168
255
224
168
255
224
168
255
224
168
255
224
168
255
224
168
255
224
168
255
224
168
255
224
168
255
224
168
255
224
168
255
224
168
255
224
168
255
224
168
255
224
168
255
224
168
255
224
168
255
224
168
255
224
168
255
224
168
255
224
168
255
224
168
255
224
168
255
224
168
255
224
168
255
224
168
255
224
168
255
224
168
255
224
168
255
224
168
255
224
168
255
224
168
255
224
168
255
224
168
255
224
168
255
224
168
255
224
168
255
224
168
255
224
168
255
224
168
255
224
168
255
224
168
255
224
168
255
224
168
255
224
168
255
224
168
255
224
168
255
224
168
255
224
168
255
224
168
255
224
168
255
224
168
255
224
168
255
224
168
255
224
168
255
224
168
255
224
168
255
224
168
255
224
168
255
224
168
255
224
168
255
224
168
255
224
168
255
224
168
255
224
168
255
224
168
255
224
168
255
224
168
255
224
168
255
224
168
255
224
168
255
224
168
255
224
168
255
224
168
255
224
168
248
56
0
248
56
0
255
224
168
255
224
168
255
224
168
255
224
168
255
224
168
255
224
168
255
224
168
255
224
168
255
224
168
255
224
168
255
224
168
255
224
168
255
224
168
255
224
168
255
224
168
255
224
168
255
224
168
255
224
168
255
224
168
255
224
168
255
224
168
255
224
168
255
224
168
248
56
0
248
56
0
255
224
168
255
224
168
255
224
168
255
224
168
255
224
168
255
224
168
255
224
168
255
224
168
255
224
168
255
224
168
255
224
168
255
224
168
255
224
168
255
224
168
255
224
168
255
224
168
255
224
168
255
224
168
255
224
168
255
224
168
255
224
168
255
224
168
255
224
168
255
224
168
255
224
168
255
224
168
248
56
0
248
56
0
255
224
168
255
224
168
255
224
168
255
224
168
255
224
168
255
224
168
255
224
168
255
224
168
255
224
168
255
224
168
255
224
168
255
224
168
255
224
168
255
224
168
255
224
168
255
224
168
255
224
168
248
56
0
248
56
0
255
224
168
255
224
168
255
224
168
255
224
168
255
224
168
255
224
168
255
224
168
255
224
168
255
224
168
255
224
168
255
224
168
255
224
168
255
224
168
255
224
168
255
224
168
255
224
168
255
224
168
255
224
168
255
224
168
255
224
168
255
224
168
255
224
168
255
224
168
255
224
168
255
224
168
255
224
168
248
56
0
248
56
0
255
224
168
255
224
168
255
224
168
255
224
168
255
224
168
255
224
168
255
224
168
255
224
168
255
224
168
255
224
168
255
224
168
255
224
168
255
224
168
255
224
168
255
224
168
255
224
168
255
224
168
255
224
168
255
224
168
255
224
168
255
224
168
255
224
168
255
224
168
248
56
0
248
56
0
255
224
168
255
224
168
255
224
168
255
224
168
255
224
168
255
224
168
255
224
168
255
224
168
255
224
168
255
224
168
255
224
168
255
224
168
255
224
168
255
224
168
255
224
168
255
224
168
255
224
168
255
224
168
255
224
168
255
224
168
255
224
168
255
224
168
255
224
168
255
224
168
255
224
168
255
224
168
255
224
168
255
224
168
255
224
168
255
224
168
255
224
168
255
224
168
255
224
168
255
224
168
255
224
168
255
224
168
255
224
168
255
224
168
255
224
168
255
224
168
255
224
168
255
224
168
255
224
168
255
224
168
255
224
168
255
224
168
255
224
168
255
224
168
255
224
168
255
224
168
255
224
168
255
224
168
255
224
168
255
224
168
255
224
168
255
224
168
255
224
168
255
224
168
255
224
168
255
224
168
255
224
168
255
224
168
255
224
168
255
224
168
255
224
168
255
224
168
255
224
168
255
224
168
255
224
168
255
224
168
255
224
168
255
224
168
255
224
168
255
224
168
255
224
168
255
224
168
255
224
168
255
224
168
255
224
168
255
224
168
255
224
168
255
224
168
255
224
168
255
224
168
255
224
168
255
224
168
255
224
168
255
224
168
255
224
168
255
224
168
255
224
168
255
224
168
255
224
168
255
224
168
255
224
168
255
224
168
255
224
168
255
224
168
255
224
168
255
224
168
255
224
168
255
224
168
255
224
168
255
224
168
255
224
168
255
224
168
255
224
168
248
56
0
255
224
168
255
224
168
255
224
168
255
224
168
255
224
168
255
224
168
255
224
168
255
224
168
255
224
168
255
224
168
255
224
168
255
224
168
255
224
168
255
224
168
255
224
168
255
224
168
255
224
168
255
224
168
255
224
168
255
224
168
255
224
168
255
224
168
255
224
168
255
224
168
255
224
168
255
224
168
255
224
168
255
224
168
255
224
168
255
224
168
255
224
168
255
224
168
248
56
0
248
56
0
255
224
168
248
56
0
255
224
168
255
224
168
255
224
168
255
224
168
255
224
168
255
224
168
255
224
168
255
224
168
255
224
168
255
224
168
255
224
168
255
224
168
255
224
168
255
224
168
255
224
168
255
224
168
255
224
168
255
224
168
255
224
168
255
224
168
255
224
168
255
224
168
255
224
168
248
56
0
248
56
0
255
224
168
255
224
168
255
224
168
255
224
168
255
224
168
255
224
168
255
224
168
255
224
168
255
224
168
255
224
168
255
224
168
255
224
168
255
224
168
255
224
168
255
224
168
255
224
168
255
224
168
255
224
168
255
224
168
255
224
168
255
224
168
255
224
168
255
224
168
255
224
168
255
224
168
255
224
168
255
224
168
255
224
168
255
224
168
255
224
168
255
224
168
255
224
168
255
224
168
255
224
168
255
224
168
255
224
168
255
224
168
255
224
168
255
224
168
255
224
168
255
224
168
255
224
168
255
224
168
255
224
168
255
224
168
255
224
168
255
224
168
255
224
168
255
224
168
255
224
168
255
224
168
255
224
168
255
224
168
255
224
168
255
224
168
255
224
168
255
224
168
255
224
168
255
224
168
255
224
168
255
224
168
255
224
168
255
224
168
255
224
168
255
224
168
255
224
168
255
224
168
255
224
168
255
224
168
255
224
168
255
224
168
255
224
168
255
224
168
255
224
168
255
224
168
255
224
168
255
224
168
255
224
168
255
224
168
255
224
168
255
224
168
255
224
168
255
224
168
255
224
168
255
224
168
255
224
168
255
224
168
255
224
168
255
224
168
255
224
168
255
224
168
255
224
168
255
224
168
255
224
168
255
224
168
255
224
168
255
224
168
255
224
168
255
224
168
255
224
168
255
224
168
255
224
168
255
224
168
255
224
168
255
224
168
255
224
168
255
224
168
255
224
168
255
224
168
248
56
0
248
56
0
248
56
0
248
56
0
255
224
168
255
224
168
255
224
168
255
224
168
255
224
168
255
224
168
255
224
168
255
224
168
255
224
168
255
224
168
255
224
168
255
224
168
255
224
168
255
224
168
255
224
168
255
224
168
255
224
168
255
224
168
255
224
168
255
224
168
255
224
168
248
56
0
248
56
0
248
56
0
248
56
0
255
224
168
255
224
168
255
224
168
255
224
168
255
224
168
255
224
168
255
224
168
255
224
168
255
224
168
255
224
168
255
224
168
255
224
168
255
224
168
255
224
168
255
224
168
255
224
168
255
224
168
255
224
168
255
224
168
255
224
168
255
224
168
255
224
168
255
224
168
255
224
168
248
56
0
248
56
0
248
56
0
248
56
0
255
224
168
255
224
168
255
224
168
255
224
168
255
224
168
255
224
168
255
224
168
255
224
168
255
224
168
255
224
168
255
224
168
255
224
168
255
224
168
248
56
0
248
56
0
248
56
0
248
56
0
255
224
168
255
224
168
255
224
168
255
224
168
255
224
168
255
224
168
255
224
168
255
224
168
255
224
168
255
224
168
255
224
168
255
224
168
255
224
168
255
224
168
255
224
168
255
224
168
255
224
168
255
224
168
255
224
168
255
224
168
255
224
168
255
224
168
255
224
168
255
224
168
248
56
0
248
56
0
248
56
0
248
56
0
255
224
168
255
224
168
255
224
168
255
224
168
255
224
168
255
224
168
255
224
168
255
224
168
255
224
168
255
224
168
255
224
168
255
224
168
255
224
168
255
224
168
255
224
168
255
224
168
255
224
168
255
224
168
255
224
168
255
224
168
255
224
168
248
56
0
248
56
0
248
56
0
248
56
0
255
224
168
255
224
168
255
224
168
255
224
168
255
224
168
255
224
168
255
224
168
255
224
168
255
224
168
255
224
168
255
224
168
255
224
168
255
224
168
255
224
168
255
224
168
255
224
168
255
224
168
255
224
168
255
224
168
255
224
168
255
224
168
255
224
168
255
224
168
255
224
168
255
224
168
255
224
168
255
224
168
255
224
168
255
224
168
255
224
168
255
224
168
255
224
168
255
224
168
255
224
168
255
224
168
255
224
168
255
224
168
255
224
168
255
224
168
255
224
168
255
224
168
255
224
168
255
224
168
255
224
168
255
224
168
255
224
168
255
224
168
255
224
168
255
224
168
255
224
168
255
224
168
255
224
168
255
224
168
255
224
168
255
224
168
255
224
168
255
224
168
255
224
168
255
224
168
255
224
168
255
224
168
255
224
168
255
224
168
255
224
168
255
224
168
255
224
168
255
224
168
255
224
168
255
224
168
255
224
168
255
224
168
255
224
168
255
224
168
255
224
168
255
224
168
255
224
168
255
224
168
255
224
168
255
224
168
255
224
168
255
224
168
255
224
168
255
224
168
255
224
168
255
224
168
255
224
168
255
224
168
255
224
168
255
224
168
255
224
168
255
224
168
255
224
168
255
224
168
255
224
168
255
224
168
255
224
168
255
224
168
255
224
168
255
224
168
255
224
168
255
224
168
255
224
168
255
224
168
255
224
168
255
224
168
255
224
168
255
224
168
255
224
168
255
224
168
248
56
0
248
56
0
255
224
168
255
224
168
255
224
168
255
224
168
255
224
168
255
224
168
255
224
168
255
224
168
255
224
168
255
224
168
255
224
168
255
224
168
255
224
168
255
224
168
255
224
168
255
224
168
255
224
168
255
224
168
255
224
168
255
224
168
255
224
168
255
224
168
255
224
168
248
56
0
255
224
168
248
56
0
248
56
0
255
224
168
255
224
168
248
56
0
248
56
0
248
56
0
248
56
0
248
56
0
255
224
168
255
224
168
255
224
168
255
224
168
255
224
168
255
224
168
255
224
168
255
224
168
255
224
168
255
224
168
255
224
168
255
224
168
255
224
168
255
224
168
255
224
168
255
224
168
255
224
168
255
224
168
255
224
168
255
224
168
255
224
168
255
224
168
248
56
0
248
56
0
248
56
0
248
56
0
255
224
168
255
224
168
255
224
168
255
224
168
255
224
168
255
224
168
255
224
168
255
224
168
255
224
168
255
224
168
255
224
168
255
224
168
255
224
168
255
224
168
255
224
168
255
224
168
255
224
168
255
224
168
255
224
168
255
224
168
255
224
168
255
224
168
255
224
168
255
224
168
255
224
168
255
224
168
255
224
168
255
224
168
255
224
168
255
224
168
255
224
168
255
224
168
248
56
0
255
224
168
255
224
168
255
224
168
255
224
168
255
224
168
255
224
168
255
224
168
255
224
168
255
224
168
255
224
168
255
224
168
255
224
168
255
224
168
255
224
168
255
224
168
255
224
168
255
224
168
255
224
168
255
224
168
255
224
168
255
224
168
255
224
168
255
224
168
255
224
168
255
224
168
248
56
0
255
224
168
255
224
168
255
224
168
255
224
168
255
224
168
255
224
168
255
224
168
255
224
168
255
224
168
255
224
168
255
224
168
255
224
168
255
224
168
255
224
168
255
224
168
255
224
168
255
224
168
255
224
168
255
224
168
255
224
168
255
224
168
255
224
168
255
224
168
255
224
168
248
56
0
255
224
168
255
224
168
255
224
168
255
224
168
255
224
168
255
224
168
255
224
168
255
224
168
255
224
168
255
224
168
255
224
168
255
224
168
255
224
168
255
224
168
255
224
168
255
224
168
255
224
168
255
224
168
255
224
168
255
224
168
255
224
168
255
224
168
255
224
168
248
56
0
248
56
0
248
56
0
248
56
0
255
224
168
255
224
168
255
224
168
255
224
168
255
224
168
255
224
168
255
224
168
255
224
168
255
224
168
255
224
168
255
224
168
255
224
168
255
224
168
255
224
168
255
224
168
255
224
168
255
224
168
255
224
168
255
224
168
255
224
168
255
224
168
248
56
0
248
56
0
248
56
0
248
56
0
255
224
168
255
224
168
255
224
168
255
224
168
255
224
168
255
224
168
255
224
168
255
224
168
255
224
168
255
224
168
255
224
168
255
224
168
255
224
168
255
224
168
255
224
168
255
224
168
255
224
168
255
224
168
255
224
168
255
224
168
255
224
168
255
224
168
255
224
168
255
224
168
248
56
0
248
56
0
248
56
0
248
56
0
255
224
168
255
224
168
255
224
168
255
224
168
255
224
168
255
224
168
255
224
168
255
224
168
255
224
168
255
224
168
255
224
168
255
224
168
255
224
168
248
56
0
248
56
0
248
56
0
248
56
0
255
224
168
255
224
168
255
224
168
255
224
168
255
224
168
255
224
168
255
224
168
255
224
168
255
224
168
255
224
168
255
224
168
255
224
168
255
224
168
255
224
168
255
224
168
255
224
168
255
224
168
255
224
168
255
224
168
255
224
168
255
224
168
255
224
168
255
224
168
255
224
168
248
56
0
248
56
0
248
56
0
248
56
0
255
224
168
255
224
168
255
224
168
255
224
168
255
224
168
255
224
168
255
224
168
255
224
168
255
224
168
255
224
168
255
224
168
255
224
168
255
224
168
255
224
168
255
224
168
255
224
168
255
224
168
255
224
168
255
224
168
255
224
168
255
224
168
248
56
0
248
56
0
248
56
0
248
56
0
255
224
168
255
224
168
255
224
168
255
224
168
255
224
168
255
224
168
255
224
168
255
224
168
255
224
168
255
224
168
255
224
168
255
224
168
255
224
168
255
224
168
255
224
168
255
224
168
255
224
168
255
224
168
255
224
168
255
224
168
255
224
168
255
224
168
255
224
168
248
56
0
255
224
168
255
224
168
255
224
168
255
224
168
255
224
168
255
224
168
255
224
168
255
224
168
255
224
168
255
224
168
255
224
168
255
224
168
255
224
168
255
224
168
255
224
168
255
224
168
255
224
168
255
224
168
255
224
168
255
224
168
255
224
168
255
224
168
255
224
168
255
224
168
248
56
0
255
224
168
255
224
168
255
224
168
255
224
168
255
224
168
255
224
168
255
224
168
255
224
168
255
224
168
255
224
168
255
224
168
255
224
168
255
224
168
255
224
168
255
224
168
255
224
168
255
224
168
255
224
168
255
224
168
255
224
168
255
224
168
255
224
168
255
224
168
255
224
168
255
224
168
248
56
0
255
224
168
255
224
168
255
224
168
255
224
168
255
224
168
255
224
168
255
224
168
255
224
168
255
224
168
255
224
168
255
224
168
255
224
168
255
224
168
255
224
168
255
224
168
255
224
168
255
224
168
255
224
168
255
224
168
255
224
168
255
224
168
255
224
168
255
224
168
255
224
168
255
224
168
255
224
168
255
224
168
255
224
168
255
224
168
255
224
168
255
224
168
255
224
168
248
56
0
248
56
0
248
56
0
248
56
0
255
224
168
255
224
168
255
224
168
255
224
168
255
224
168
255
224
168
255
224
168
255
224
168
255
224
168
255
224
168
255
224
168
255
224
168
255
224
168
255
224
168
255
224
168
255
224
168
255
224
168
255
224
168
255
224
168
255
224
168
255
224
168
255
224
168
248
56
0
248
56
0
248
56
0
248
56
0
248
56
0
255
224
168
255
224
168
248
56
0
248
56
0
248
56
0
248
56
0
248
56
0
255
224
168
255
224
168
255
224
168
255
224
168
255
224
168
255
224
168
255
224
168
255
224
168
255
224
168
255
224
168
255
224
168
255
224
168
255
224
168
255
224
168
255
224
168
255
224
168
255
224
168
255
224
168
255
224
168
255
224
168
255
224
168
255
224
168
248
56
0
248
56
0
248
56
0
248
56
0
255
224
168
255
224
168
255
224
168
255
224
168
255
224
168
255
224
168
255
224
168
255
224
168
255
224
168
255
224
168
255
224
168
255
224
168
255
224
168
255
224
168
255
224
168
255
224
168
255
224
168
255
224
168
255
224
168
255
224
168
255
224
168
255
224
168
255
224
168
255
224
168
255
224
168
255
224
168
255
224
168
255
224
168
255
224
168
255
224
168
255
224
168
248
56
0
248
56
0
248
56
0
255
224
168
255
224
168
255
224
168
255
224
168
255
224
168
255
224
168
255
224
168
255
224
168
255
224
168
255
224
168
255
224
168
255
224
168
255
224
168
255
224
168
255
224
168
255
224
168
255
224
168
255
224
168
255
224
168
255
224
168
255
224
168
255
224
168
255
224
168
248
56
0
248
56
0
248
56
0
255
224
168
255
224
168
255
224
168
255
224
168
255
224
168
255
224
168
255
224
168
255
224
168
255
224
168
255
224
168
255
224
168
255
224
168
255
224
168
255
224
168
255
224
168
255
224
168
255
224
168
255
224
168
255
224
168
255
224
168
255
224
168
255
224
168
248
56
0
248
56
0
248
56
0
255
224
168
255
224
168
255
224
168
255
224
168
255
224
168
255
224
168
255
224
168
255
224
168
255
224
168
255
224
168
255
224
168
255
224
168
255
224
168
255
224
168
255
224
168
255
224
168
255
224
168
255
224
168
248
56
0
255
224
168
255
224
168
255
224
168
248
56
0
248
56
0
248
56
0
248
56
0
255
224
168
255
224
168
255
224
168
255
224
168
255
224
168
255
224
168
255
224
168
255
224
168
255
224
168
255
224
168
255
224
168
255
224
168
255
224
168
255
224
168
255
224
168
255
224
168
255
224
168
248
56
0
255
224
168
255
224
168
255
224
168
248
56
0
248
56
0
248
56
0
248
56
0
255
224
168
255
224
168
255
224
168
255
224
168
255
224
168
255
224
168
255
224
168
255
224
168
255
224
168
255
224
168
255
224
168
255
224
168
255
224
168
255
224
168
255
224
168
255
224
168
255
224
168
255
224
168
255
224
168
255
224
168
248
56
0
255
224
168
255
224
168
255
224
168
248
56
0
248
56
0
248
56
0
248
56
0
255
224
168
255
224
168
255
224
168
255
224
168
255
224
168
255
224
168
255
224
168
255
224
168
255
224
168
255
224
168
255
224
168
255
224
168
255
224
168
248
56
0
248
56
0
248
56
0
248
56
0
255
224
168
255
224
168
255
224
168
248
56
0
255
224
168
255
224
168
255
224
168
255
224
168
255
224
168
255
224
168
255
224
168
255
224
168
255
224
168
255
224
168
255
224
168
255
224
168
255
224
168
255
224
168
255
224
168
255
224
168
255
224
168
255
224
168
255
224
168
255
224
168
248
56
0
248
56
0
248
56
0
248
56
0
255
224
168
255
224
168
255
224
168
248
56
0
255
224
168
255
224
168
255
224
168
255
224
168
255
224
168
255
224
168
255
224
168
255
224
168
255
224
168
255
224
168
255
224
168
255
224
168
255
224
168
255
224
168
255
224
168
255
224
168
255
224
168
248
56
0
248
56
0
248
56
0
248
56
0
255
224
168
255
224
168
255
224
168
248
56
0
255
224
168
255
224
168
255
224
168
255
224
168
255
224
168
255
224
168
255
224
168
255
224
168
255
224
168
255
224
168
255
224
168
255
224
168
255
224
168
255
224
168
255
224
168
255
224
168
255
224
168
255
224
168
248
56
0
248
56
0
248
56
0
255
224
168
255
224
168
255
224
168
255
224
168
255
224
168
255
224
168
255
224
168
255
224
168
255
224
168
255
224
168
255
224
168
255
224
168
255
224
168
255
224
168
255
224
168
255
224
168
255
224
168
255
224
168
255
224
168
255
224
168
255
224
168
255
224
168
248
56
0
248
56
0
248
56
0
255
224
168
255
224
168
255
224
168
255
224
168
255
224
168
255
224
168
255
224
168
255
224
168
255
224
168
255
224
168
255
224
168
255
224
168
255
224
168
255
224
168
255
224
168
255
224
168
255
224
168
255
224
168
255
224
168
255
224
168
255
224
168
255
224
168
255
224
168
248
56
0
248
56
0
248
56
0
255
224
168
255
224
168
255
224
168
255
224
168
255
224
168
255
224
168
255
224
168
255
224
168
255
224
168
255
224
168
255
224
168
255
224
168
255
224
168
255
224
168
255
224
168
255
224
168
255
224
168
255
224
168
255
224
168
255
224
168
255
224
168
255
224
168
255
224
168
255
224
168
255
224
168
255
224
168
255
224
168
255
224
168
255
224
168
255
224
168
255
224
168
248
56
0
248
56
0
248
56
0
248
56
0
255
224
168
255
224
168
255
224
168
255
224
168
255
224
168
255
224
168
255
224
168
255
224
168
255
224
168
255
224
168
255
224
168
255
224
168
255
224
168
255
224
168
255
224
168
255
224
168
255
224
168
255
224
168
255
224
168
255
224
168
255
224
168
255
224
168
248
56
0
248
56
0
248
56
0
248
56
0
248
56
0
255
224
168
255
224
168
255
224
168
248
56
0
248
56
0
248
56
0
248
56
0
255
224
168
255
224
168
255
224
168
255
224
168
255
224
168
255
224
168
255
224
168
255
224
168
255
224
168
255
224
168
255
224
168
255
224
168
255
224
168
255
224
168
255
224
168
255
224
168
255
224
168
255
224
168
255
224
168
255
224
168
255
224
168
255
224
168
248
56
0
248
56
0
248
56
0
248
56
0
255
224
168
255
224
168
255
224
168
255
224
168
255
224
168
255
224
168
255
224
168
255
224
168
255
224
168
255
224
168
255
224
168
255
224
168
255
224
168
255
224
168
255
224
168
255
224
168
255
224
168
255
224
168
255
224
168
255
224
168
255
224
168
255
224
168
255
224
168
255
224
168
255
224
168
255
224
168
255
224
168
255
224
168
255
224
168
248
56
0
248
56
0
248
56
0
248
56
0
248
56
0
255
224
168
255
224
168
255
224
168
255
224
168
255
224
168
255
224
168
255
224
168
255
224
168
255
224
168
255
224
168
255
224
168
255
224
168
255
224
168
255
224
168
255
224
168
255
224
168
255
224
168
255
224
168
255
224
168
255
224
168
255
224
168
248
56
0
248
56
0
248
56
0
248
56
0
248
56
0
255
224
168
255
224
168
255
224
168
255
224
168
255
224
168
255
224
168
255
224
168
255
224
168
255
224
168
255
224
168
255
224
168
255
224
168
255
224
168
255
224
168
255
224
168
255
224
168
255
224
168
255
224
168
255
224
168
255
224
168
248
56
0
248
56
0
248
56
0
248
56
0
248
56
0
255
224
168
255
224
168
255
224
168
255
224
168
255
224
168
255
224
168
255
224
168
255
224
168
255
224
168
255
224
168
255
224
168
255
224
168
255
224
168
255
224
168
255
224
168
255
224
168
255
224
168
255
224
168
255
224
168
248
56
0
248
56
0
255
224
168
248
56
0
248
56
0
248
56
0
248
56
0
255
224
168
255
224
168
255
224
168
255
224
168
255
224
168
255
224
168
255
224
168
255
224
168
255
224
168
255
224
168
255
224
168
255
224
168
255
224
168
255
224
168
255
224
168
255
224
168
255
224
168
255
224
168
248
56
0
248
56
0
255
224
168
248
56
0
248
56
0
248
56
0
248
56
0
255
224
168
255
224
168
255
224
168
255
224
168
255
224
168
255
224
168
255
224
168
255
224
168
255
224
168
255
224
168
255
224
168
255
224
168
255
224
168
255
224
168
255
224
168
255
224
168
255
224
168
255
224
168
255
224
168
255
224
168
255
224
168
248
56
0
248
56
0
255
224
168
248
56
0
248
56
0
248
56
0
248
56
0
255
224
168
255
224
168
255
224
168
255
224
168
255
224
168
255
224
168
255
224
168
255
224
168
255
224
168
255
224
168
255
224
168
255
224
168
255
224
168
248
56
0
248
56
0
248
56
0
248
56
0
255
224
168
248
56
0
248
56
0
255
224
168
255
224
168
255
224
168
255
224
168
255
224
168
255
224
168
255
224
168
255
224
168
255
224
168
255
224
168
255
224
168
255
224
168
255
224
168
255
224
168
255
224
168
255
224
168
255
224
168
255
224
168
255
224
168
255
224
168
255
224
168
248
56
0
248
56
0
248
56
0
248
56
0
255
224
168
248
56
0
248
56
0
255
224
168
255
224
168
255
224
168
255
224
168
255
224
168
255
224
168
255
224
168
255
224
168
255
224
168
255
224
168
255
224
168
255
224
168
255
224
168
255
224
168
255
224
168
255
224
168
255
224
168
255
224
168
248
56
0
248
56
0
248
56
0
248
56
0
255
224
168
248
56
0
248
56
0
255
224
168
255
224
168
255
224
168
255
224
168
255
224
168
255
224
168
255
224
168
255
224
168
255
224
168
255
224
168
255
224
168
255
224
168
255
224
168
255
224
168
255
224
168
255
224
168
255
224
168
255
224
168
255
224
168
248
56
0
248
56
0
248
56
0
248
56
0
248
56
0
255
224
168
255
224
168
255
224
168
255
224
168
255
224
168
255
224
168
255
224
168
255
224
168
255
224
168
255
224
168
255
224
168
255
224
168
255
224
168
255
224
168
255
224
168
255
224
168
255
224
168
255
224
168
255
224
168
255
224
168
248
56
0
248
56
0
248
56
0
248
56
0
248
56
0
255
224
168
255
224
168
255
224
168
255
224
168
255
224
168
255
224
168
255
224
168
255
224
168
255
224
168
255
224
168
255
224
168
255
224
168
255
224
168
255
224
168
255
224
168
255
224
168
255
224
168
255
224
168
255
224
168
255
224
168
255
224
168
248
56
0
248
56
0
248
56
0
248
56
0
248
56
0
255
224
168
255
224
168
255
224
168
255
224
168
255
224
168
255
224
168
255
224
168
255
224
168
255
224
168
255
224
168
255
224
168
255
224
168
255
224
168
255
224
168
255
224
168
255
224
168
255
224
168
255
224
168
255
224
168
255
224
168
255
224
168
255
224
168
255
224
168
255
224
168
255
224
168
255
224
168
255
224
168
255
224
168
255
224
168
248
56
0
248
56
0
248
56
0
248
56
0
255
224
168
255
224
168
255
224
168
255
224
168
255
224
168
255
224
168
255
224
168
255
224
168
255
224
168
255
224
168
255
224
168
255
224
168
255
224
168
255
224
168
255
224
168
255
224
168
255
224
168
255
224
168
255
224
168
255
224
168
255
224
168
255
224
168
248
56
0
248
56
0
248
56
0
248
56
0
255
224
168
255
224
168
255
224
168
255
224
168
248
56
0
248
56
0
248
56
0
248
56
0
248
56
0
255
224
168
255
224
168
255
224
168
255
224
168
255
224
168
255
224
168
255
224
168
255
224
168
255
224
168
255
224
168
255
224
168
255
224
168
255
224
168
255
224
168
255
224
168
255
224
168
255
224
168
255
224
168
255
224
168
255
224
168
255
224
168
248
56
0
248
56
0
248
56
0
248
56
0
255
224
168
255
224
168
255
224
168
255
224
168
255
224
168
255
224
168
255
224
168
255
224
168
255
224
168
255
224
168
255
224
168
255
224
168
255
224
168
255
224
168
255
224
168
255
224
168
255
224
168
255
224
168
255
224
168
255
224
168
255
224
168
255
224
168
255
224
168
255
224
168
255
224
168
255
224
168
255
224
168
255
224
168
255
224
168
255
224
168
248
56
0
248
56
0
248
56
0
248
56
0
255
224
168
255
224
168
255
224
168
255
224
168
255
224
168
255
224
168
255
224
168
255
224
168
255
224
168
255
224
168
255
224
168
255
224
168
255
224
168
255
224
168
255
224
168
255
224
168
255
224
168
255
224
168
255
224
168
255
224
168
255
224
168
255
224
168
248
56
0
248
56
0
248
56
0
248
56
0
255
224
168
255
224
168
255
224
168
255
224
168
255
224
168
255
224
168
255
224
168
255
224
168
255
224
168
255
224
168
255
224
168
255
224
168
255
224
168
255
224
168
255
224
168
255
224
168
255
224
168
255
224
168
255
224
168
255
224
168
255
224
168
248
56
0
248
56
0
248
56
0
248
56
0
255
224
168
255
224
168
255
224
168
255
224
168
255
224
168
255
224
168
255
224
168
255
224
168
255
224
168
255
224
168
255
224
168
255
224
168
255
224
168
255
224
168
255
224
168
255
224
168
255
224
168
255
224
168
255
224
168
248
56
0
248
56
0
255
224
168
255
224
168
255
224
168
248
56
0
248
56
0
255
224
168
255
224
168
255
224
168
255
224
168
255
224
168
255
224
168
255
224
168
255
224
168
255
224
168
255
224
168
255
224
168
255
224
168
255
224
168
255
224
168
255
224
168
255
224
168
255
224
168
255
224
168
248
56
0
248
56
0
255
224
168
255
224
168
255
224
168
248
56
0
248
56
0
255
224
168
255
224
168
255
224
168
255
224
168
255
224
168
255
224
168
255
224
168
255
224
168
255
224
168
255
224
168
255
224
168
255
224
168
255
224
168
255
224
168
255
224
168
255
224
168
255
224
168
255
224
168
255
224
168
255
224
168
255
224
168
248
56
0
248
56
0
255
224
168
255
224
168
255
224
168
248
56
0
248
56
0
255
224
168
255
224
168
255
224
168
255
224
168
255
224
168
255
224
168
255
224
168
255
224
168
255
224
168
255
224
168
255
224
168
255
224
168
255
224
168
248
56
0
248
56
0
255
224
168
255
224
168
255
224
168
248
56
0
248
56
0
255
224
168
255
224
168
255
224
168
255
224
168
255
224
168
255
224
168
255
224
168
255
224
168
255
224
168
255
224
168
255
224
168
255
224
168
255
224
168
255
224
168
255
224
168
255
224
168
255
224
168
255
224
168
255
224
168
255
224
168
255
224
168
248
56
0
248
56
0
255
224
168
255
224
168
255
224
168
248
56
0
248
56
0
255
224
168
255
224
168
255
224
168
255
224
168
255
224
168
255
224
168
255
224
168
255
224
168
255
224
168
255
224
168
255
224
168
255
224
168
255
224
168
255
224
168
255
224
168
255
224
168
255
224
168
255
224
168
248
56
0
248
56
0
255
224
168
255
224
168
255
224
168
248
56
0
248
56
0
255
224
168
255
224
168
255
224
168
255
224
168
255
224
168
255
224
168
255
224
168
255
224
168
255
224
168
255
224
168
255
224
168
255
224
168
255
224
168
255
224
168
255
224
168
255
224
168
255
224
168
255
224
168
255
224
168
248
56
0
248
56
0
248
56
0
248
56
0
255
224
168
255
224
168
255
224
168
255
224
168
255
224
168
255
224
168
255
224
168
255
224
168
255
224
168
255
224
168
255
224
168
255
224
168
255
224
168
255
224
168
255
224
168
255
224
168
255
224
168
255
224
168
255
224
168
255
224
168
255
224
168
248
56
0
248
56
0
248
56
0
248
56
0
255
224
168
255
224
168
255
224
168
255
224
168
255
224
168
255
224
168
255
224
168
255
224
168
255
224
168
255
224
168
255
224
168
255
224
168
255
224
168
255
224
168
255
224
168
255
224
168
255
224
168
255
224
168
255
224
168
255
224
168
255
224
168
255
224
168
248
56
0
248
56
0
248
56
0
248
56
0
255
224
168
255
224
168
255
224
168
255
224
168
255
224
168
255
224
168
255
224
168
255
224
168
255
224
168
255
224
168
255
224
168
255
224
168
255
224
168
255
224
168
255
224
168
255
224
168
255
224
168
255
224
168
255
224
168
255
224
168
255
224
168
255
224
168
255
224
168
255
224
168
255
224
168
255
224
168
255
224
168
255
224
168
255
224
168
255
224
168
248
56
0
248
56
0
248
56
0
248
56
0
255
224
168
255
224
168
255
224
168
255
224
168
255
224
168
255
224
168
255
224
168
255
224
168
255
224
168
255
224
168
255
224
168
255
224
168
255
224
168
255
224
168
255
224
168
255
224
168
255
224
168
255
224
168
255
224
168
255
224
168
255
224
168
248
56
0
248
56
0
248
56
0
248
56
0
248
56
0
255
224
168
255
224
168
255
224
168
255
224
168
255
224
168
248
56
0
248
56
0
255
224
168
255
224
168
255
224
168
255
224
168
255
224
168
255
224
168
255
224
168
255
224
168
255
224
168
255
224
168
255
224
168
255
224
168
255
224
168
255
224
168
255
224
168
255
224
168
255
224
168
255
224
168
255
224
168
255
224
168
255
224
168
255
224
168
255
224
168
255
224
168
255
224
168
255
224
168
255
224
168
255
224
168
255
224
168
255
224
168
255
224
168
255
224
168
255
224
168
255
224
168
255
224
168
255
224
168
255
224
168
255
224
168
255
224
168
255
224
168
255
224
168
255
224
168
255
224
168
255
224
168
255
224
168
255
224
168
255
224
168
255
224
168
255
224
168
255
224
168
255
224
168
255
224
168
255
224
168
255
224
168
255
224
168
255
224
168
255
224
168
255
224
168
248
56
0
248
56
0
248
56
0
255
224
168
255
224
168
255
224
168
255
224
168
255
224
168
255
224
168
255
224
168
255
224
168
255
224
168
255
224
168
255
224
168
255
224
168
255
224
168
255
224
168
255
224
168
255
224
168
255
224
168
255
224
168
255
224
168
255
224
168
255
224
168
255
224
168
255
224
168
248
56
0
248
56
0
248
56
0
255
224
168
255
224
168
255
224
168
255
224
168
255
224
168
255
224
168
255
224
168
255
224
168
255
224
168
255
224
168
255
224
168
255
224
168
255
224
168
255
224
168
255
224
168
255
224
168
255
224
168
255
224
168
255
224
168
255
224
168
255
224
168
255
224
168
248
56
0
248
56
0
248
56
0
255
224
168
255
224
168
255
224
168
255
224
168
255
224
168
255
224
168
255
224
168
255
224
168
255
224
168
255
224
168
255
224
168
255
224
168
255
224
168
255
224
168
255
224
168
255
224
168
255
224
168
255
224
168
255
224
168
255
224
168
248
56
0
255
224
168
255
224
168
255
224
168
255
224
168
248
56
0
255
224
168
255
224
168
255
224
168
255
224
168
255
224
168
255
224
168
255
224
168
255
224
168
255
224
168
255
224
168
255
224
168
255
224
168
255
224
168
255
224
168
255
224
168
255
224
168
255
224
168
255
224
168
255
224
168
248
56
0
255
224
168
255
224
168
255
224
168
255
224
168
248
56
0
255
224
168
255
224
168
255
224
168
255
224
168
255
224
168
255
224
168
255
224
168
255
224
168
255
224
168
255
224
168
255
224
168
255
224
168
255
224
168
255
224
168
255
224
168
255
224
168
255
224
168
255
224
168
255
224
168
255
224
168
255
224
168
255
224
168
248
56
0
255
224
168
255
224
168
255
224
168
255
224
168
248
56
0
255
224
168
255
224
168
255
224
168
255
224
168
255
224
168
255
224
168
255
224
168
255
224
168
255
224
168
255
224
168
255
224
168
255
224
168
255
224
168
248
56
0
255
224
168
255
224
168
255
224
168
255
224
168
248
56
0
255
224
168
255
224
168
255
224
168
255
224
168
255
224
168
255
224
168
255
224
168
255
224
168
255
224
168
255
224
168
255
224
168
255
224
168
255
224
168
255
224
168
255
224
168
255
224
168
255
224
168
255
224
168
255
224
168
255
224
168
255
224
168
255
224
168
248
56
0
255
224
168
255
224
168
255
224
168
255
224
168
248
56
0
255
224
168
255
224
168
255
224
168
255
224
168
255
224
168
255
224
168
255
224
168
255
224
168
255
224
168
255
224
168
255
224
168
255
224
168
255
224
168
255
224
168
255
224
168
255
224
168
255
224
168
255
224
168
255
224
168
248
56
0
255
224
168
255
224
168
255
224
168
255
224
168
248
56
0
255
224
168
255
224
168
255
224
168
255
224
168
255
224
168
255
224
168
255
224
168
255
224
168
255
224
168
255
224
168
255
224
168
255
224
168
255
224
168
255
224
168
255
224
168
255
224
168
255
224
168
255
224
168
255
224
168
255
224
168
248
56
0
248
56
0
248
56
0
255
224
168
255
224
168
255
224
168
255
224
168
255
224
168
255
224
168
255
224
168
255
224
168
255
224
168
255
224
168
255
224
168
255
224
168
255
224
168
255
224
168
255
224
168
255
224
168
255
224
168
255
224
168
255
224
168
255
224
168
255
224
168
255
224
168
248
56
0
248
56
0
248
56
0
255
224
168
255
224
168
255
224
168
255
224
168
255
224
168
255
224
168
255
224
168
255
224
168
255
224
168
255
224
168
255
224
168
255
224
168
255
224
168
255
224
168
255
224
168
255
224
168
255
224
168
255
224
168
255
224
168
255
224
168
255
224
168
255
224
168
255
224
168
248
56
0
248
56
0
248
56
0
255
224
168
255
224
168
255
224
168
255
224
168
255
224
168
255
224
168
255
224
168
255
224
168
255
224
168
255
224
168
255
224
168
255
224
168
255
224
168
255
224
168
255
224
168
255
224
168
255
224
168
255
224
168
255
224
168
255
224
168
255
224
168
255
224
168
255
224
168
255
224
168
255
224
168
255
224
168
255
224
168
255
224
168
255
224
168
255
224
168
255
224
168
255
224
168
255
224
168
255
224
168
255
224
168
255
224
168
255
224
168
255
224
168
255
224
168
255
224
168
255
224
168
255
224
168
255
224
168
255
224
168
255
224
168
255
224
168
255
224
168
255
224
168
255
224
168
255
224
168
255
224
168
255
224
168
255
224
168
255
224
168
255
224
168
255
224
168
255
224
168
255
224
168
248
56
0
248
56
0
255
224
168
255
224
168
255
224
168
255
224
168
255
224
168
255
224
168
248
56
0
255
224
168
255
224
168
255
224
168
255
224
168
255
224
168
255
224
168
255
224
168
255
224
168
255
224
168
255
224
168
255
224
168
255
224
168
255
224
168
255
224
168
255
224
168
255
224
168
255
224
168
255
224
168
255
224
168
255
224
168
255
224
168
255
224
168
255
224
168
255
224
168
255
224
168
255
224
168
255
224
168
255
224
168
255
224
168
255
224
168
255
224
168
255
224
168
255
224
168
255
224
168
255
224
168
255
224
168
255
224
168
255
224
168
255
224
168
255
224
168
255
224
168
255
224
168
255
224
168
255
224
168
255
224
168
255
224
168
255
224
168
255
224
168
255
224
168
255
224
168
255
224
168
255
224
168
255
224
168
255
224
168
255
224
168
255
224
168
255
224
168
255
224
168
255
224
168
248
56
0
248
56
0
255
224
168
255
224
168
255
224
168
255
224
168
255
224
168
255
224
168
255
224
168
255
224
168
255
224
168
255
224
168
255
224
168
255
224
168
255
224
168
255
224
168
255
224
168
255
224
168
255
224
168
255
224
168
255
224
168
255
224
168
255
224
168
255
224
168
255
224
168
255
224
168
248
56
0
248
56
0
255
224
168
255
224
168
255
224
168
255
224
168
255
224
168
255
224
168
255
224
168
255
224
168
255
224
168
255
224
168
255
224
168
255
224
168
255
224
168
255
224
168
255
224
168
255
224
168
255
224
168
255
224
168
255
224
168
255
224
168
255
224
168
255
224
168
255
224
168
248
56
0
248
56
0
255
224
168
255
224
168
255
224
168
255
224
168
255
224
168
255
224
168
255
224
168
255
224
168
255
224
168
255
224
168
255
224
168
255
224
168
255
224
168
255
224
168
255
224
168
255
224
168
255
224
168
255
224
168
255
224
168
255
224
168
255
224
168
255
224
168
255
224
168
255
224
168
255
224
168
255
224
168
255
224
168
255
224
168
255
224
168
255
224
168
255
224
168
255
224
168
255
224
168
255
224
168
255
224
168
255
224
168
255
224
168
255
224
168
255
224
168
255
224
168
255
224
168
255
224
168
255
224
168
255
224
168
255
224
168
255
224
168
255
224
168
255
224
168
255
224
168
255
224
168
255
224
168
255
224
168
255
224
168
255
224
168
255
224
168
255
224
168
255
224
168
255
224
168
255
224
168
255
224
168
255
224
168
255
224
168
255
224
168
255
224
168
255
224
168
255
224
168
255
224
168
255
224
168
255
224
168
255
224
168
255
224
168
255
224
168
255
224
168
255
224
168
255
224
168
255
224
168
255
224
168
255
224
168
255
224
168
255
224
168
255
224
168
255
224
168
255
224
168
255
224
168
255
224
168
255
224
168
255
224
168
255
224
168
255
224
168
255
224
168
255
224
168
255
224
168
255
224
168
255
224
168
255
224
168
255
224
168
255
224
168
255
224
168
255
224
168
255
224
168
255
224
168
255
224
168
255
224
168
255
224
168
255
224
168
255
224
168
255
224
168
255
224
168
255
224
168
255
224
168
255
224
168
255
224
168
255
224
168
255
224
168
255
224
168
255
224
168
255
224
168
255
224
168
255
224
168
255
224
168
255
224
168
255
224
168
255
224
168
255
224
168
255
224
168
255
224
168
255
224
168
255
224
168
255
224
168
255
224
168
255
224
168
255
224
168
255
224
168
255
224
168
255
224
168
255
224
168
255
224
168
255
224
168
255
224
168
255
224
168
255
224
168
255
224
168
255
224
168
255
224
168
255
224
168
255
224
168
255
224
168
255
224
168
255
224
168
255
224
168
255
224
168
255
224
168
255
224
168
255
224
168
255
224
168
255
224
168
255
224
168
255
224
168
255
224
168
255
224
168
255
224
168
255
224
168
255
224
168
255
224
168
255
224
168
255
224
168
255
224
168
255
224
168
255
224
168
255
224
168
255
224
168
255
224
168
255
224
168
248
56
0
248
56
0
255
224
168
255
224
168
255
224
168
255
224
168
255
224
168
255
224
168
255
224
168
255
224
168
255
224
168
255
224
168
255
224
168
255
224
168
255
224
168
255
224
168
255
224
168
255
224
168
255
224
168
255
224
168
255
224
168
255
224
168
255
224
168
255
224
168
255
224
168
248
56
0
248
56
0
255
224
168
255
224
168
255
224
168
255
224
168
255
224
168
255
224
168
255
224
168
255
224
168
255
224
168
255
224
168
255
224
168
255
224
168
255
224
168
255
224
168
255
224
168
255
224
168
255
224
168
255
224
168
255
224
168
255
224
168
255
224
168
255
224
168
255
224
168
255
224
168
248
56
0
248
56
0
255
224
168
255
224
168
255
224
168
255
224
168
255
224
168
255
224
168
255
224
168
255
224
168
255
224
168
255
224
168
255
224
168
255
224
168
255
224
168
255
224
168
255
224
168
255
224
168
255
224
168
255
224
168
255
224
168
255
224
168
255
224
168
255
224
168
255
224
168
255
224
168
255
224
168
255
224
168
255
224
168
255
224
168
255
224
168
255
224
168
255
224
168
255
224
168
255
224
168
255
224
168
255
224
168
255
224
168
255
224
168
255
224
168
255
224
168
255
224
168
255
224
168
255
224
168
255
224
168
255
224
168
255
224
168
255
224
168
255
224
168
255
224
168
255
224
168
255
224
168
255
224
168
255
224
168
255
224
168
255
224
168
255
224
168
255
224
168
255
224
168
255
224
168
255
224
168
248
56
0
255
224
168
255
224
168
255
224
168
